callmecarrot/action_slices/10_小5.txt
[waist_yaw_joint,waist_roll_joint,waist_pitch_joint,left_shoulder_pitch_joint,left_shoulder_roll_joint,left_shoulder_yaw_joint,left_elbow_joint,left_wrist_roll_joint,left_wrist_pitch_joint,left_wrist_yaw_joint,right_shoulder_pitch_joint,right_shoulder_roll_joint,right_shoulder_yaw_joint,right_elbow_joint,right_wrist_roll_joint,right_wrist_pitch_joint,right_wrist_yaw_joint]
[0.000000,0.000000,0.000000,0.250032,0.240968,-0.290290,0.192774,0.417548,-0.054839,0.246452,0.314419,-0.198258,0.290742,0.281097,-0.231935,-0.113452,-0.061065]
[0.000000,0.000000,0.000000,0.249387,0.243613,-0.294484,0.203290,0.450581,-0.054065,0.272419,0.319032,-0.202097,0.294903,0.292161,-0.258226,-0.117419,-0.077774]
[0.000000,0.000000,0.000000,0.248742,0.246258,-0.298677,0.213806,0.483613,-0.053290,0.298387,0.323645,-0.205935,0.299065,0.303226,-0.284516,-0.121387,-0.094484]
[0.000000,0.000000,0.000000,0.248097,0.248903,-0.302871,0.224323,0.516645,-0.052516,0.324355,0.328258,-0.209774,0.303226,0.314290,-0.310806,-0.125355,-0.111194]
[0.000000,0.000000,0.000000,0.247452,0.251548,-0.307065,0.234839,0.549677,-0.051742,0.350323,0.332871,-0.213613,0.307387,0.325355,-0.337097,-0.129323,-0.127903]
[0.000000,0.000000,0.000000,0.246806,0.254194,-0.311258,0.245355,0.582710,-0.050968,0.376290,0.337484,-0.217452,0.311548,0.336419,-0.363387,-0.133290,-0.144613]
[0.000000,0.000000,0.000000,0.246161,0.256839,-0.315452,0.255871,0.615742,-0.050194,0.402258,0.342097,-0.221290,0.315710,0.347484,-0.389677,-0.137258,-0.161323]
[0.000000,0.000000,0.000000,0.245516,0.259484,-0.319645,0.266387,0.648774,-0.049419,0.428226,0.346710,-0.225129,0.319871,0.358548,-0.415968,-0.141226,-0.178032]
[0.000000,0.000000,0.000000,0.244871,0.262129,-0.323839,0.276903,0.681806,-0.048645,0.454194,0.351323,-0.228968,0.324032,0.369613,-0.442258,-0.145194,-0.194742]
[0.000000,0.000000,0.000000,0.244226,0.264774,-0.328032,0.287419,0.714839,-0.047871,0.480161,0.355935,-0.232806,0.328194,0.380677,-0.468548,-0.149161,-0.211452]
[0.000000,0.000000,0.000000,0.243581,0.267419,-0.332226,0.297935,0.747871,-0.047097,0.506129,0.360548,-0.236645,0.332355,0.391742,-0.494839,-0.153129,-0.228161]
[0.000000,0.000000,0.000000,0.242935,0.270065,-0.336419,0.308452,0.780903,-0.046323,0.532097,0.365161,-0.240484,0.336516,0.402806,-0.521129,-0.157097,-0.244871]
[0.000000,0.000000,0.000000,0.242290,0.272710,-0.340613,0.318968,0.813935,-0.045548,0.558065,0.369774,-0.244323,0.340677,0.413871,-0.547419,-0.161065,-0.261581]
[0.000000,0.000000,0.000000,0.241645,0.275355,-0.344806,0.329484,0.846968,-0.044774,0.584032,0.374387,-0.248161,0.344839,0.424935,-0.573710,-0.165032,-0.278290]
[0.000000,0.000000,0.000000,0.241000,0.278000,-0.349000,0.340000,0.880000,-0.044000,0.610000,0.379000,-0.252000,0.349000,0.436000,-0.600000,-0.169000,-0.295000]
[0.000000,0.000000,0.000000,0.241002,0.278003,-0.349000,0.339860,0.879885,-0.043372,0.609639,0.379000,-0.252000,0.349000,0.435969,-0.600679,-0.169289,-0.295712]
[0.000000,0.000000,0.000000,0.240999,0.277998,-0.349000,0.340074,0.880061,-0.042832,0.610238,0.379000,-0.252000,0.349000,0.436017,-0.601141,-0.170394,-0.296123]
[0.000000,0.000000,0.000000,0.240998,0.277997,-0.349000,0.340126,0.880104,-0.042251,0.610910,0.379000,-0.252000,0.349000,0.436028,-0.601702,-0.171639,-0.296672]
[0.000000,0.000000,0.000000,0.241005,0.278008,-0.349000,0.339576,0.879642,-0.041536,0.610885,0.379000,-0.252000,0.349000,0.435917,-0.602654,-0.172410,-0.297742]
[0.000000,0.000000,0.000000,0.241001,0.278002,-0.349000,0.339006,0.879023,-0.041011,0.610954,0.379000,-0.252000,0.349000,0.435979,-0.603925,-0.172958,-0.298946]
[0.000000,0.000000,0.000000,0.240977,0.277963,-0.349000,0.339399,0.878905,-0.041230,0.612497,0.378999,-0.252000,0.349000,0.436576,-0.605197,-0.173979,-0.299603]
[0.000000,0.000000,0.000000,0.241025,0.278041,-0.349000,0.340184,0.879024,-0.042392,0.614445,0.379001,-0.252000,0.349000,0.437066,-0.606232,-0.175375,-0.300185]
[0.000000,0.000000,0.000000,0.241078,0.278128,-0.349000,0.340763,0.879029,-0.044233,0.616077,0.379002,-0.252000,0.349000,0.437034,-0.606866,-0.176665,-0.300894]
[0.000000,0.000000,0.000000,0.240742,0.277604,-0.349001,0.341349,0.878952,-0.045847,0.618629,0.378994,-0.252000,0.349000,0.437027,-0.607054,-0.177147,-0.300813]
[0.000000,0.000000,0.000000,0.240076,0.277004,-0.349000,0.341943,0.878978,-0.046905,0.621702,0.378997,-0.252000,0.349000,0.437026,-0.607003,-0.177012,-0.300076]
[0.000000,0.000000,0.000000,0.239472,0.277487,-0.348996,0.342406,0.879360,-0.047605,0.623742,0.379030,-0.252000,0.349000,0.436568,-0.607034,-0.177030,-0.299558]
[0.000000,0.000000,0.000000,0.238868,0.278031,-0.349003,0.343222,0.880210,-0.048082,0.625350,0.378975,-0.252000,0.349000,0.435859,-0.606959,-0.176946,-0.298780]
[0.000000,0.000000,0.000000,0.237866,0.277878,-0.349015,0.344166,0.881422,-0.048225,0.626867,0.378890,-0.252000,0.349000,0.435239,-0.606458,-0.176387,-0.297467]
[0.000000,0.000000,0.000000,0.235712,0.278532,-0.348964,0.343043,0.882515,-0.047455,0.626433,0.379292,-0.252000,0.349000,0.434785,-0.605359,-0.175538,-0.296820]
[0.000000,0.000000,0.000000,0.232563,0.280559,-0.348971,0.339662,0.883007,-0.045464,0.624336,0.379939,-0.252000,0.349000,0.434171,-0.604141,-0.174288,-0.296972]
[0.000000,0.000000,0.000000,0.229046,0.283590,-0.349085,0.335287,0.882487,-0.042313,0.622856,0.380003,-0.251998,0.349000,0.432918,-0.603747,-0.172375,-0.296996]
[0.000000,0.000000,0.000000,0.222808,0.288997,-0.347599,0.326197,0.880647,-0.038420,0.621839,0.380048,-0.252001,0.349000,0.431930,-0.604069,-0.170871,-0.297027]
[0.000000,0.000000,0.000000,0.211953,0.297995,-0.343155,0.309541,0.877345,-0.034887,0.621203,0.380682,-0.252008,0.349000,0.431957,-0.604651,-0.170745,-0.297516]
[0.000000,0.000000,0.000000,0.198925,0.309504,-0.337139,0.290087,0.872705,-0.034088,0.623617,0.381119,-0.251984,0.349000,0.431860,-0.605288,-0.171250,-0.298518]
[0.000000,0.000000,0.000000,0.182728,0.323997,-0.328679,0.269305,0.865371,-0.034417,0.626941,0.381042,-0.251982,0.349000,0.431175,-0.605876,-0.171850,-0.299748]
[0.000000,0.000000,0.000000,0.158558,0.343751,-0.314507,0.244392,0.852989,-0.030514,0.624248,0.380902,-0.252095,0.349000,0.430483,-0.606406,-0.172618,-0.300653]
[0.000000,0.000000,0.000000,0.128298,0.368236,-0.296401,0.218972,0.838874,-0.024557,0.617408,0.381027,-0.251965,0.349000,0.429961,-0.607069,-0.174188,-0.301007]
[0.000000,0.000000,0.000000,0.095508,0.395936,-0.277866,0.198208,0.827017,-0.020732,0.611496,0.381560,-0.251330,0.349000,0.429466,-0.607853,-0.176757,-0.300943]
[0.000000,0.000000,0.000000,0.058616,0.426629,-0.259941,0.181981,0.814910,-0.017803,0.607836,0.382308,-0.250909,0.349000,0.428566,-0.607844,-0.178441,-0.301173]
[0.000000,0.000000,0.000000,0.017837,0.459484,-0.243358,0.169179,0.801070,-0.014785,0.606241,0.382918,-0.250971,0.349000,0.427317,-0.607119,-0.178840,-0.301835]
[0.000000,0.000000,0.000000,-0.023377,0.492711,-0.229052,0.158895,0.786795,-0.012353,0.605555,0.382996,-0.251003,0.349000,0.426416,-0.607135,-0.179865,-0.302292]
[0.000000,0.000000,0.000000,-0.065226,0.525955,-0.217723,0.151859,0.771535,-0.010978,0.604980,0.383008,-0.251002,0.349000,0.425993,-0.608032,-0.182077,-0.303036]
[0.000000,0.000000,0.000000,-0.109109,0.559393,-0.209473,0.148863,0.754606,-0.010766,0.603783,0.383584,-0.251107,0.349000,0.425883,-0.609219,-0.185055,-0.304770]
[0.000000,0.000000,0.000000,-0.152761,0.592017,-0.202762,0.147578,0.739034,-0.011164,0.600610,0.384135,-0.250825,0.349000,0.426129,-0.610383,-0.187906,-0.306526]
[0.000000,0.000000,0.000000,-0.194774,0.622892,-0.196756,0.146837,0.726194,-0.011753,0.595639,0.384132,-0.250152,0.349000,0.426733,-0.611536,-0.190233,-0.307670]
[0.000000,0.000000,0.000000,-0.236197,0.651640,-0.192261,0.148139,0.713825,-0.012511,0.591387,0.383599,-0.249953,0.349000,0.427535,-0.612993,-0.192462,-0.308599]
[0.000000,0.000000,0.000000,-0.276860,0.678268,-0.190025,0.150919,0.701351,-0.012997,0.588094,0.383010,-0.250005,0.349000,0.427999,-0.613993,-0.193980,-0.309004]
[0.000000,0.000000,0.000000,-0.315728,0.703076,-0.190430,0.153456,0.689346,-0.012650,0.584810,0.382916,-0.249541,0.349000,0.427585,-0.613548,-0.193816,-0.308419]
[0.000000,0.000000,0.000000,-0.352111,0.726642,-0.192840,0.155583,0.677688,-0.011687,0.582539,0.383021,-0.248781,0.349000,0.426769,-0.612893,-0.192618,-0.307969]
[0.000000,0.000000,0.000000,-0.385966,0.749274,-0.196409,0.157838,0.666345,-0.010486,0.581950,0.383018,-0.248148,0.349000,0.426138,-0.612939,-0.191792,-0.308107]
[0.000000,0.000000,0.000000,-0.418093,0.770664,-0.200445,0.161079,0.655710,-0.009256,0.582123,0.382977,-0.247923,0.349000,0.425939,-0.613008,-0.193071,-0.307439]
[0.000000,0.000000,0.000000,-0.447655,0.790400,-0.204635,0.163883,0.644981,-0.007255,0.581208,0.382993,-0.247993,0.349000,0.425998,-0.612991,-0.194942,-0.306099]
[0.000000,0.000000,0.000000,-0.472799,0.808045,-0.209052,0.163701,0.632987,-0.003449,0.577343,0.383082,-0.248018,0.349000,0.425955,-0.613317,-0.194441,-0.305293]
[0.000000,0.000000,0.000000,-0.493283,0.823238,-0.214318,0.161379,0.621594,0.000965,0.571643,0.382919,-0.247997,0.349000,0.426060,-0.614294,-0.194186,-0.304931]
[0.000000,0.000000,0.000000,-0.508483,0.835530,-0.220787,0.158031,0.612906,0.004632,0.566056,0.382326,-0.247997,0.349000,0.426608,-0.616023,-0.196544,-0.304828]
[0.000000,0.000000,0.000000,-0.516009,0.844247,-0.227905,0.153087,0.607426,0.007323,0.562254,0.381633,-0.248001,0.349000,0.427566,-0.618258,-0.199636,-0.305424]
[0.000000,0.000000,0.000000,-0.515600,0.848739,-0.235021,0.146904,0.604348,0.008133,0.561728,0.381067,-0.248000,0.349000,0.428809,-0.620664,-0.201819,-0.306019]
[0.000000,0.000000,0.000000,-0.508914,0.848396,-0.241638,0.140607,0.602133,0.005903,0.565348,0.380619,-0.248002,0.349000,0.430133,-0.622830,-0.202354,-0.305194]
[0.000000,0.000000,0.000000,-0.496457,0.842591,-0.248135,0.133737,0.600887,0.002446,0.570964,0.379808,-0.247999,0.349000,0.431126,-0.624132,-0.201903,-0.303792]
[0.000000,0.000000,0.000000,-0.478702,0.831360,-0.254778,0.125937,0.601186,-0.000105,0.576309,0.378502,-0.247992,0.349000,0.431663,-0.624236,-0.201322,-0.303064]
[0.000000,0.000000,0.000000,-0.457167,0.816343,-0.260797,0.118601,0.603197,-0.001627,0.581584,0.377805,-0.248018,0.349000,0.432473,-0.623681,-0.200654,-0.303122]
[0.000000,0.000000,0.000000,-0.433064,0.798771,-0.266005,0.113557,0.607013,-0.002734,0.586943,0.377946,-0.248017,0.349000,0.433737,-0.622410,-0.199402,-0.303810]
[0.000000,0.000000,0.000000,-0.407104,0.779239,-0.270913,0.112563,0.612673,-0.004450,0.592072,0.378119,-0.247895,0.349000,0.434990,-0.619806,-0.196938,-0.304877]
[0.000000,0.000000,0.000000,-0.379832,0.758620,-0.275499,0.115506,0.619890,-0.007417,0.596442,0.377961,-0.248051,0.349000,0.436126,-0.616658,-0.194865,-0.306152]
[0.000000,0.000000,0.000000,-0.351878,0.737506,-0.279662,0.122068,0.628422,-0.011892,0.599928,0.377417,-0.248718,0.349000,0.437263,-0.613806,-0.194444,-0.307429]
[0.000000,0.000000,0.000000,-0.324284,0.715334,-0.283793,0.133660,0.638555,-0.017520,0.603752,0.376671,-0.249040,0.349000,0.438629,-0.610421,-0.193185,-0.308302]
[0.000000,0.000000,0.000000,-0.297677,0.692656,-0.287969,0.149023,0.649986,-0.023531,0.607422,0.376071,-0.248954,0.349000,0.440441,-0.606164,-0.190572,-0.308836]
[0.000000,0.000000,0.000000,-0.272099,0.671338,-0.291805,0.163791,0.661705,-0.028868,0.608405,0.376012,-0.249422,0.349000,0.442798,-0.601581,-0.188957,-0.309671]
[0.000000,0.000000,0.000000,-0.247634,0.650816,-0.295181,0.177820,0.673702,-0.033224,0.606874,0.375982,-0.250017,0.349000,0.445115,-0.596709,-0.187922,-0.311099]
[0.000000,0.000000,0.000000,-0.224284,0.629887,-0.298182,0.192616,0.686212,-0.036826,0.604418,0.375375,-0.249996,0.349000,0.446854,-0.591414,-0.186145,-0.312983]
[0.000000,0.000000,0.000000,-0.201650,0.609662,-0.301086,0.207435,0.698467,-0.040334,0.602350,0.374891,-0.250130,0.349000,0.448816,-0.585997,-0.184459,-0.314420]
[0.000000,0.000000,0.000000,-0.179681,0.590772,-0.304059,0.221637,0.710256,-0.043939,0.601225,0.374936,-0.250786,0.349000,0.451266,-0.580666,-0.183339,-0.314956]
[0.000000,0.000000,0.000000,-0.158931,0.572493,-0.307051,0.235409,0.722450,-0.047046,0.600609,0.375121,-0.251316,0.349000,0.453319,-0.575361,-0.182107,-0.314994]
[0.000000,0.000000,0.000000,-0.140000,0.554000,-0.310000,0.249000,0.736000,-0.049000,0.600000,0.375000,-0.251000,0.349000,0.454000,-0.570000,-0.180000,-0.315000]
[0.000000,0.000000,0.000000,-0.128613,0.571935,-0.311258,0.214129,0.736258,-0.058161,0.591355,0.371129,-0.274839,0.349000,0.412806,-0.574710,-0.185968,-0.314323]
[0.000000,0.000000,0.000000,-0.117226,0.589871,-0.312516,0.179258,0.736516,-0.067323,0.582710,0.367258,-0.298677,0.349000,0.371613,-0.579419,-0.191935,-0.313645]
[0.000000,0.000000,0.000000,-0.105839,0.607806,-0.313774,0.144387,0.736774,-0.076484,0.574065,0.363387,-0.322516,0.349000,0.330419,-0.584129,-0.197903,-0.312968]
[0.000000,0.000000,0.000000,-0.094452,0.625742,-0.315032,0.109516,0.737032,-0.085645,0.565419,0.359516,-0.346355,0.349000,0.289226,-0.588839,-0.203871,-0.312290]
[0.000000,0.000000,0.000000,-0.083065,0.643677,-0.316290,0.074645,0.737290,-0.094806,0.556774,0.355645,-0.370194,0.349000,0.248032,-0.593548,-0.209839,-0.311613]
[0.000000,0.000000,0.000000,-0.071677,0.661613,-0.317548,0.039774,0.737548,-0.103968,0.548129,0.351774,-0.394032,0.349000,0.206839,-0.598258,-0.215806,-0.310935]
[0.000000,0.000000,0.000000,-0.060290,0.679548,-0.318806,0.004903,0.737806,-0.113129,0.539484,0.347903,-0.417871,0.349000,0.165645,-0.602968,-0.221774,-0.310258]
[0.000000,0.000000,0.000000,-0.048903,0.697484,-0.320065,-0.029968,0.738065,-0.122290,0.530839,0.344032,-0.441710,0.349000,0.124452,-0.607677,-0.227742,-0.309581]
[0.000000,0.000000,0.000000,-0.037516,0.715419,-0.321323,-0.064839,0.738323,-0.131452,0.522194,0.340161,-0.465548,0.349000,0.083258,-0.612387,-0.233710,-0.308903]
[0.000000,0.000000,0.000000,-0.026129,0.733355,-0.322581,-0.099710,0.738581,-0.140613,0.513548,0.336290,-0.489387,0.349000,0.042065,-0.617097,-0.239677,-0.308226]
[0.000000,0.000000,0.000000,-0.014742,0.751290,-0.323839,-0.134581,0.738839,-0.149774,0.504903,0.332419,-0.513226,0.349000,0.000871,-0.621806,-0.245645,-0.307548]
[0.000000,0.000000,0.000000,-0.003355,0.769226,-0.325097,-0.169452,0.739097,-0.158935,0.496258,0.328548,-0.537065,0.349000,-0.040323,-0.626516,-0.251613,-0.306871]
[0.000000,0.000000,0.000000,0.008032,0.787161,-0.326355,-0.204323,0.739355,-0.168097,0.487613,0.324677,-0.560903,0.349000,-0.081516,-0.631226,-0.257581,-0.306194]
[0.000000,0.000000,0.000000,0.019419,0.805097,-0.327613,-0.239194,0.739613,-0.177258,0.478968,0.320806,-0.584742,0.349000,-0.122710,-0.635935,-0.263548,-0.305516]
[0.000000,0.000000,0.000000,0.030806,0.823032,-0.328871,-0.274065,0.739871,-0.186419,0.470323,0.316935,-0.608581,0.349000,-0.163903,-0.640645,-0.269516,-0.304839]
[0.000000,0.000000,0.000000,0.042194,0.840968,-0.330129,-0.308935,0.740129,-0.195581,0.461677,0.313065,-0.632419,0.349000,-0.205097,-0.645355,-0.275484,-0.304161]
[0.000000,0.000000,0.000000,0.053581,0.858903,-0.331387,-0.343806,0.740387,-0.204742,0.453032,0.309194,-0.656258,0.349000,-0.246290,-0.650065,-0.281452,-0.303484]
[0.000000,0.000000,0.000000,0.064968,0.876839,-0.332645,-0.378677,0.740645,-0.213903,0.444387,0.305323,-0.680097,0.349000,-0.287484,-0.654774,-0.287419,-0.302806]
[0.000000,0.000000,0.000000,0.076355,0.894774,-0.333903,-0.413548,0.740903,-0.223065,0.435742,0.301452,-0.703935,0.349000,-0.328677,-0.659484,-0.293387,-0.302129]
[0.000000,0.000000,0.000000,0.087742,0.912710,-0.335161,-0.448419,0.741161,-0.232226,0.427097,0.297581,-0.727774,0.349000,-0.369871,-0.664194,-0.299355,-0.301452]
[0.000000,0.000000,0.000000,0.099129,0.930645,-0.336419,-0.483290,0.741419,-0.241387,0.418452,0.293710,-0.751613,0.349000,-0.411065,-0.668903,-0.305323,-0.300774]
[0.000000,0.000000,0.000000,0.110516,0.948581,-0.337677,-0.518161,0.741677,-0.250548,0.409806,0.289839,-0.775452,0.349000,-0.452258,-0.673613,-0.311290,-0.300097]
[0.000000,0.000000,0.000000,0.121903,0.966516,-0.338935,-0.553032,0.741935,-0.259710,0.401161,0.285968,-0.799290,0.349000,-0.493452,-0.678323,-0.317258,-0.299419]
[0.000000,0.000000,0.000000,0.133290,0.984452,-0.340194,-0.587903,0.742194,-0.268871,0.392516,0.282097,-0.823129,0.349000,-0.534645,-0.683032,-0.323226,-0.298742]
[0.000000,0.000000,0.000000,0.144677,1.002387,-0.341452,-0.622774,0.742452,-0.278032,0.383871,0.278226,-0.846968,0.349000,-0.575839,-0.687742,-0.329194,-0.298065]
[0.000000,0.000000,0.000000,0.156065,1.020323,-0.342710,-0.657645,0.742710,-0.287194,0.375226,0.274355,-0.870806,0.349000,-0.617032,-0.692452,-0.335161,-0.297387]
[0.000000,0.000000,0.000000,0.167452,1.038258,-0.343968,-0.692516,0.742968,-0.296355,0.366581,0.270484,-0.894645,0.349000,-0.658226,-0.697161,-0.341129,-0.296710]
[0.000000,0.000000,0.000000,0.178839,1.056194,-0.345226,-0.727387,0.743226,-0.305516,0.357935,0.266613,-0.918484,0.349000,-0.699419,-0.701871,-0.347097,-0.296032]
[0.000000,0.000000,0.000000,0.190226,1.074129,-0.346484,-0.762258,0.743484,-0.314677,0.349290,0.262742,-0.942323,0.349000,-0.740613,-0.706581,-0.353065,-0.295355]
[0.000000,0.000000,0.000000,0.201613,1.092065,-0.347742,-0.797129,0.743742,-0.323839,0.340645,0.258871,-0.966161,0.349000,-0.781806,-0.711290,-0.359032,-0.294677]
[0.000000,0.000000,0.000000,0.213000,1.110000,-0.349000,-0.832000,0.744000,-0.333000,0.332000,0.255000,-0.990000,0.349000,-0.823000,-0.716000,-0.365000,-0.294000]
[0.000000,0.000000,0.000000,0.213130,1.109694,-0.349000,-0.832000,0.743812,-0.332694,0.332817,0.254906,-0.990333,0.349000,-0.823030,-0.715551,-0.365281,-0.293271]
[0.000000,0.000000,0.000000,0.213056,1.109850,-0.349000,-0.832000,0.743901,-0.332850,0.333021,0.254959,-0.990162,0.349000,-0.823013,-0.715156,-0.365139,-0.293017]
[0.000000,0.000000,0.000000,0.212922,1.110262,-0.349000,-0.832000,0.744191,-0.333262,0.332924,0.255056,-0.989722,0.349000,-0.822982,-0.714776,-0.364753,-0.293023]
[0.000000,0.000000,0.000000,0.212874,1.110725,-0.349000,-0.832000,0.744611,-0.333725,0.332840,0.255091,-0.989249,0.349000,-0.822971,-0.714375,-0.364300,-0.293075]
[0.000000,0.000000,0.000000,0.213055,1.111035,-0.349000,-0.832000,0.745084,-0.334035,0.333079,0.254960,-0.988977,0.349000,-0.823013,-0.713913,-0.363955,-0.292958]
[0.000000,0.000000,0.000000,0.213491,1.111088,-0.349000,-0.832000,0.745543,-0.334087,0.333680,0.254612,-0.988991,0.349000,-0.823087,-0.713414,-0.363841,-0.292574]
[0.000000,0.000000,0.000000,0.213929,1.111016,-0.349000,-0.832000,0.745927,-0.334016,0.334031,0.254125,-0.989024,0.349000,-0.823045,-0.713047,-0.363946,-0.292101]
[0.000000,0.000000,0.000000,0.214107,1.110974,-0.349000,-0.832000,0.746173,-0.333977,0.333535,0.253597,-0.988794,0.349000,-0.822746,-0.712965,-0.364240,-0.291755]
[0.000000,0.000000,0.000000,0.214062,1.110985,-0.349000,-0.832001,0.746180,-0.333988,0.332536,0.253162,-0.988332,0.349000,-0.822285,-0.713024,-0.364673,-0.291740]
[0.000000,0.000000,0.000000,0.213975,1.111007,-0.349000,-0.831999,0.745831,-0.334003,0.331831,0.252966,-0.987828,0.349000,-0.821871,-0.712935,-0.365186,-0.292249]
[0.000000,0.000000,0.000000,0.213953,1.111014,-0.349000,-0.831998,0.745265,-0.334001,0.331761,0.252995,-0.987392,0.349000,-0.821534,-0.712568,-0.365679,-0.293174]
[0.000000,0.000000,0.000000,0.213996,1.111001,-0.349000,-0.832000,0.744995,-0.334000,0.331986,0.253006,-0.987020,0.349000,-0.821039,-0.712034,-0.365991,-0.293970]
[0.000000,0.000000,0.000000,0.214073,1.110975,-0.349000,-0.832006,0.745381,-0.334013,0.332155,0.252776,-0.986681,0.349000,-0.820221,-0.711473,-0.366019,-0.294194]
[0.000000,0.000000,0.000000,0.214070,1.110975,-0.349000,-0.832007,0.745916,-0.334014,0.332116,0.252297,-0.986263,0.349000,-0.819333,-0.711074,-0.365968,-0.294064]
[0.000000,0.000000,0.000000,0.213851,1.111049,-0.349000,-0.831987,0.745871,-0.333970,0.331789,0.251621,-0.985635,0.349000,-0.818737,-0.711022,-0.366120,-0.293982]
[0.000000,0.000000,0.000000,0.213427,1.111113,-0.349000,-0.831969,0.745305,-0.333931,0.331303,0.250801,-0.984802,0.349000,-0.818399,-0.711146,-0.366535,-0.294027]
[0.000000,0.000000,0.000000,0.212945,1.110965,-0.349000,-0.832010,0.745005,-0.334022,0.330981,0.249890,-0.983894,0.349000,-0.817924,-0.710943,-0.367063,-0.293983]
[0.000000,0.000000,0.000000,0.212515,1.110525,-0.349000,-0.832103,0.745414,-0.334330,0.330991,0.248964,-0.983019,0.349000,-0.817089,-0.710149,-0.367561,-0.293690]
[0.000000,0.000000,0.000000,0.212117,1.110081,-0.349000,-0.832067,0.745938,-0.334826,0.331036,0.248180,-0.982218,0.349000,-0.816209,-0.709217,-0.367930,-0.293181]
[0.000000,0.000000,0.000000,0.211713,1.109941,-0.349000,-0.831721,0.745877,-0.335441,0.330777,0.247676,-0.981502,0.349000,-0.815643,-0.708658,-0.368086,-0.292517]
[0.000000,0.000000,0.000000,0.211296,1.110009,-0.349000,-0.831232,0.745345,-0.335928,0.330297,0.247321,-0.980721,0.349000,-0.815300,-0.708344,-0.368066,-0.291696]
[0.000000,0.000000,0.000000,0.210877,1.109951,-0.349000,-0.830964,0.744918,-0.335933,0.329917,0.246822,-0.979637,0.349000,-0.814828,-0.707782,-0.367970,-0.290680]
[0.000000,0.000000,0.000000,0.210461,1.109599,-0.349000,-0.831016,0.744879,-0.335443,0.329826,0.246044,-0.978272,0.349000,-0.814051,-0.706847,-0.367905,-0.289624]
[0.000000,0.000000,0.000000,0.210048,1.109068,-0.349000,-0.831021,0.744990,-0.335017,0.329971,0.245112,-0.977101,0.349000,-0.813113,-0.706056,-0.367978,-0.289017]
[0.000000,0.000000,0.000000,0.209636,1.108505,-0.349000,-0.830665,0.745013,-0.335158,0.330283,0.244178,-0.976521,0.349000,-0.812176,-0.705865,-0.368270,-0.289236]
[0.000000,0.000000,0.000000,0.209222,1.108093,-0.349000,-0.830173,0.744986,-0.335695,0.330724,0.243355,-0.976228,0.349000,-0.811355,-0.705990,-0.368727,-0.289812]
[0.000000,0.000000,0.000000,0.208802,1.108009,-0.349000,-0.829949,0.745043,-0.336229,0.331262,0.242744,-0.975685,0.349000,-0.810742,-0.705906,-0.369244,-0.289999]
[0.000000,0.000000,0.000000,0.208382,1.108124,-0.349000,-0.830018,0.745128,-0.336625,0.331767,0.242330,-0.974801,0.349000,-0.810325,-0.705473,-0.369711,-0.289591]
[0.000000,0.000000,0.000000,0.207977,1.107975,-0.349000,-0.829988,0.744980,-0.337027,0.332002,0.241978,-0.973959,0.349000,-0.809979,-0.704974,-0.370011,-0.288964]
[0.000000,0.000000,0.000000,0.207587,1.107265,-0.349000,-0.829604,0.744483,-0.337517,0.331885,0.241581,-0.973443,0.349000,-0.809600,-0.704603,-0.370079,-0.288444]
[0.000000,0.000000,0.000000,0.207166,1.106311,-0.349000,-0.829124,0.744045,-0.337921,0.331872,0.241152,-0.973114,0.349000,-0.809167,-0.704197,-0.370023,-0.288087]
[0.000000,0.000000,0.000000,0.206671,1.105540,-0.349000,-0.828888,0.744133,-0.338034,0.332476,0.240727,-0.972758,0.349000,-0.808682,-0.703537,-0.369977,-0.287895]
[0.000000,0.000000,0.000000,0.206206,1.105111,-0.349000,-0.828919,0.744640,-0.337967,0.333457,0.240314,-0.972331,0.349000,-0.808232,-0.702668,-0.369981,-0.287880]
[0.000000,0.000000,0.000000,0.205978,1.105001,-0.349000,-0.829020,0.745068,-0.338050,0.334075,0.239903,-0.971903,0.349000,-0.807959,-0.701811,-0.370007,-0.288060]
[0.000000,0.000000,0.000000,0.206024,1.105084,-0.349000,-0.829056,0.745136,-0.338436,0.334034,0.239489,-0.971503,0.349000,-0.807917,-0.701050,-0.370026,-0.288293]
[0.000000,0.000000,0.000000,0.206030,1.105045,-0.349000,-0.829015,0.745022,-0.338922,0.333961,0.239073,-0.971081,0.349000,-0.807987,-0.700182,-0.370009,-0.288113]
[0.000000,0.000000,0.000000,0.205707,1.104624,-0.349000,-0.828918,0.744936,-0.339267,0.334440,0.238660,-0.970597,0.349000,-0.808038,-0.699020,-0.369943,-0.287128]
[0.000000,0.000000,0.000000,0.205220,1.104120,-0.349000,-0.828900,0.744947,-0.339255,0.335001,0.238246,-0.970162,0.349000,-0.808032,-0.697716,-0.369927,-0.285728]
[0.000000,0.000000,0.000000,0.204917,1.104055,-0.349000,-0.829138,0.745061,-0.338695,0.334753,0.237827,-0.969948,0.349000,-0.807967,-0.696558,-0.370105,-0.284620]
[0.000000,0.000000,0.000000,0.204907,1.104509,-0.349000,-0.829602,0.745357,-0.337744,0.333706,0.237406,-0.969960,0.349000,-0.807908,-0.695676,-0.370504,-0.284111]
[0.000000,0.000000,0.000000,0.205000,1.105000,-0.349000,-0.830000,0.746000,-0.337000,0.333000,0.237000,-0.970000,0.349000,-0.808000,-0.695000,-0.371000,-0.284000]
[0.000000,0.000000,0.000000,0.205030,1.105139,-0.349000,-0.830107,0.747018,-0.336886,0.333417,0.236611,-0.969931,0.349000,-0.808338,-0.694466,-0.371476,-0.284057]
[0.000000,0.000000,0.000000,0.205010,1.105047,-0.349000,-0.830035,0.747863,-0.337015,0.334019,0.236193,-0.969925,0.349000,-0.808808,-0.694095,-0.371871,-0.284063]
[0.000000,0.000000,0.000000,0.204993,1.104962,-0.349000,-0.829974,0.747899,-0.336830,0.333524,0.235700,-0.970213,0.349000,-0.809249,-0.693926,-0.372138,-0.283818]
[0.000000,0.000000,0.000000,0.204994,1.104965,-0.349000,-0.829980,0.747324,-0.336333,0.332059,0.235227,-0.970700,0.349000,-0.809644,-0.693929,-0.372192,-0.283364]
[0.000000,0.000000,0.000000,0.205001,1.105008,-0.349000,-0.830003,0.746998,-0.335964,0.330863,0.234982,-0.971032,0.349000,-0.810086,-0.694018,-0.371925,-0.282937]
[0.000000,0.000000,0.000000,0.205002,1.105043,-0.349000,-0.830007,0.747379,-0.335955,0.330672,0.235024,-0.971036,0.349000,-0.810587,-0.694097,-0.371386,-0.282742]
[0.000000,0.000000,0.000000,0.205000,1.105020,-0.349000,-0.830001,0.747923,-0.336015,0.330946,0.235040,-0.970984,0.349000,-0.810956,-0.694045,-0.371011,-0.282900]
[0.000000,0.000000,0.000000,0.205000,1.104909,-0.349000,-0.829999,0.748036,-0.335818,0.331040,0.234721,-0.971177,0.349000,-0.811016,-0.693757,-0.371211,-0.283460]
[0.000000,0.000000,0.000000,0.205000,1.104870,-0.349000,-0.830000,0.747919,-0.335360,0.330971,0.234228,-0.971630,0.349000,-0.810946,-0.693305,-0.371744,-0.283990]
[0.000000,0.000000,0.000000,0.205000,1.105146,-0.349000,-0.829999,0.748156,-0.334801,0.331074,0.233947,-0.972212,0.349000,-0.811099,-0.692846,-0.372051,-0.283828]
[0.000000,0.000000,0.000000,0.204998,1.105685,-0.349000,-0.829995,0.748781,-0.334298,0.331303,0.233980,-0.972749,0.349000,-0.811552,-0.692444,-0.371982,-0.282907]
[0.000000,0.000000,0.000000,0.205000,1.106000,-0.349000,-0.829999,0.749016,-0.334007,0.331044,0.234006,-0.972999,0.349000,-0.811983,-0.692027,-0.371987,-0.282031]
[0.000000,0.000000,0.000000,0.205006,1.105719,-0.349000,-0.830015,0.748283,-0.334013,0.329870,0.233743,-0.972787,0.349000,-0.812114,-0.691547,-0.372417,-0.281860]
[0.000000,0.000000,0.000000,0.205006,1.105183,-0.349000,-0.830015,0.747269,-0.334062,0.328459,0.233257,-0.972273,0.349000,-0.812043,-0.691127,-0.372910,-0.282013]
[0.000000,0.000000,0.000000,0.204987,1.104922,-0.349000,-0.829969,0.746996,-0.333821,0.327773,0.232718,-0.971711,0.349000,-0.811974,-0.690933,-0.372918,-0.281831]
[0.000000,0.000000,0.000000,0.204971,1.104986,-0.349000,-0.829929,0.747525,-0.333331,0.327874,0.232258,-0.971258,0.349000,-0.811978,-0.690952,-0.372437,-0.281299]
[0.000000,0.000000,0.000000,0.205009,1.104983,-0.349000,-0.830022,0.748031,-0.332979,0.327988,0.231980,-0.970978,0.349000,-0.812002,-0.691001,-0.371961,-0.280995]
[0.000000,0.000000,0.000000,0.205098,1.104651,-0.349000,-0.830334,0.747907,-0.332981,0.327514,0.231926,-0.970902,0.349000,-0.812008,-0.690973,-0.371839,-0.281282]
[0.000000,0.000000,0.000000,0.205063,1.104147,-0.349000,-0.830829,0.747258,-0.333033,0.326426,0.231983,-0.970966,0.349000,-0.812002,-0.690973,-0.371952,-0.281845]
[0.000000,0.000000,0.000000,0.204734,1.103685,-0.349000,-0.831430,0.746320,-0.332780,0.324849,0.232020,-0.971087,0.349000,-0.811998,-0.691117,-0.372100,-0.282268]
[0.000000,0.000000,0.000000,0.204253,1.103288,-0.349000,-0.831910,0.745415,-0.332299,0.323417,0.232013,-0.971122,0.349000,-0.811998,-0.691197,-0.372127,-0.282300]
[0.000000,0.000000,0.000000,0.203945,1.102870,-0.349000,-0.831949,0.744915,-0.331916,0.323053,0.231996,-0.970898,0.349000,-0.812001,-0.690822,-0.371900,-0.281784]
[0.000000,0.000000,0.000000,0.203934,1.102417,-0.349000,-0.831510,0.744908,-0.331821,0.323931,0.231993,-0.970423,0.349000,-0.812003,-0.689938,-0.371441,-0.280841]
[0.000000,0.000000,0.000000,0.203999,1.102035,-0.349000,-0.831035,0.745003,-0.331970,0.324932,0.231999,-0.970025,0.349000,-0.812001,-0.689073,-0.371031,-0.280053]
[0.000000,0.000000,0.000000,0.203946,1.101834,-0.349000,-0.830919,0.744869,-0.332295,0.325074,0.232006,-0.969976,0.349000,-0.811994,-0.688720,-0.370915,-0.279906]
[0.000000,0.000000,0.000000,0.203916,1.101871,-0.349000,-0.831000,0.744815,-0.332738,0.324879,0.232006,-0.970049,0.349000,-0.811993,-0.688832,-0.370978,-0.280040]
[0.000000,0.000000,0.000000,0.204163,1.102179,-0.349000,-0.830935,0.745348,-0.333239,0.325363,0.231990,-0.969856,0.349000,-0.812011,-0.689178,-0.370984,-0.279814]
[0.000000,0.000000,0.000000,0.204646,1.102648,-0.349000,-0.830783,0.746348,-0.333707,0.326471,0.231975,-0.969376,0.349000,-0.812029,-0.689599,-0.370920,-0.279023]
[0.000000,0.000000,0.000000,0.205012,1.103014,-0.349000,-0.831035,0.747015,-0.334011,0.326992,0.232004,-0.968987,0.349000,-0.811996,-0.690024,-0.371014,-0.277933]
[0.000000,0.000000,0.000000,0.205035,1.103098,-0.349000,-0.831937,0.746811,-0.334075,0.326109,0.232078,-0.968940,0.349000,-0.811908,-0.690413,-0.371401,-0.276846]
[0.000000,0.000000,0.000000,0.204975,1.103027,-0.349000,-0.832839,0.746193,-0.334019,0.324531,0.232060,-0.969009,0.349000,-0.811929,-0.690830,-0.371869,-0.276110]
[0.000000,0.000000,0.000000,0.205162,1.102979,-0.349000,-0.832971,0.745789,-0.333991,0.323245,0.231798,-0.968884,0.349000,-0.812235,-0.691345,-0.372149,-0.276025]
[0.000000,0.000000,0.000000,0.205610,1.102990,-0.349000,-0.832435,0.745791,-0.334006,0.322748,0.231349,-0.968472,0.349000,-0.812712,-0.691825,-0.372155,-0.276208]
[0.000000,0.000000,0.000000,0.206112,1.102999,-0.349000,-0.831915,0.746092,-0.333989,0.323198,0.230906,-0.967832,0.349000,-0.813051,-0.692000,-0.371928,-0.275811]
[0.000000,0.000000,0.000000,0.206541,1.102980,-0.349000,-0.831820,0.746548,-0.333933,0.324459,0.230547,-0.967032,0.349000,-0.813097,-0.691727,-0.371532,-0.274398]
[0.000000,0.000000,0.000000,0.206931,1.102990,-0.349000,-0.831968,0.746951,-0.333972,0.325811,0.230102,-0.966156,0.349000,-0.813013,-0.691128,-0.371077,-0.272380]
[0.000000,0.000000,0.000000,0.207332,1.103071,-0.349000,-0.832118,0.747115,-0.334235,0.326579,0.229409,-0.965285,0.349000,-0.812977,-0.690350,-0.370663,-0.270232]
[0.000000,0.000000,0.000000,0.207750,1.103093,-0.349000,-0.832117,0.747072,-0.334687,0.326872,0.228533,-0.964457,0.349000,-0.812993,-0.689499,-0.370262,-0.268154]
[0.000000,0.000000,0.000000,0.208175,1.102866,-0.349000,-0.831855,0.746947,-0.335224,0.327124,0.227639,-0.963694,0.349000,-0.812996,-0.688661,-0.369798,-0.266233]
[0.000000,0.000000,0.000000,0.208594,1.102407,-0.349000,-0.831391,0.746874,-0.335715,0.327532,0.226803,-0.962931,0.349000,-0.812976,-0.687852,-0.369313,-0.264515]
[0.000000,0.000000,0.000000,0.209000,1.102000,-0.349000,-0.831000,0.747000,-0.336000,0.328000,0.226000,-0.962000,0.349000,-0.813000,-0.687000,-0.369000,-0.263000]
[0.000000,0.000000,0.000000,0.209392,1.101870,-0.349000,-0.830893,0.747401,-0.335997,0.328433,0.225197,-0.960796,0.349000,-0.813090,-0.686078,-0.368977,-0.261672]
[0.000000,0.000000,0.000000,0.209810,1.101945,-0.349000,-0.830963,0.747861,-0.335953,0.328836,0.224361,-0.959501,0.349000,-0.813082,-0.685257,-0.369028,-0.260472]
[0.000000,0.000000,0.000000,0.210292,1.102075,-0.349000,-0.831032,0.748106,-0.336177,0.329236,0.223467,-0.958359,0.349000,-0.812781,-0.684738,-0.368867,-0.259331]
[0.000000,0.000000,0.000000,0.210757,1.102121,-0.349000,-0.831033,0.748097,-0.336642,0.329648,0.222593,-0.957492,0.349000,-0.812296,-0.684402,-0.368446,-0.258133]
[0.000000,0.000000,0.000000,0.211025,1.101948,-0.349000,-0.830990,0.747978,-0.337057,0.330077,0.221897,-0.956922,0.349000,-0.811969,-0.683877,-0.367901,-0.256732]
[0.000000,0.000000,0.000000,0.211033,1.101526,-0.349000,-0.830944,0.747890,-0.337206,0.330516,0.221447,-0.956574,0.349000,-0.811967,-0.683005,-0.367378,-0.255196]
[0.000000,0.000000,0.000000,0.210990,1.101080,-0.349000,-0.830973,0.747951,-0.337071,0.330917,0.221090,-0.956148,0.349000,-0.812017,-0.682151,-0.367037,-0.254116]
[0.000000,0.000000,0.000000,0.211132,1.100848,-0.349000,-0.831129,0.748255,-0.336684,0.331247,0.220668,-0.955368,0.349000,-0.811819,-0.681716,-0.366998,-0.254047]
[0.000000,0.000000,0.000000,0.211558,1.100872,-0.349000,-0.831186,0.748710,-0.336221,0.331630,0.220227,-0.954451,0.349000,-0.811365,-0.681762,-0.367066,-0.254640]
[0.000000,0.000000,0.000000,0.212301,1.101100,-0.349000,-0.830788,0.749141,-0.335932,0.332265,0.219912,-0.953847,0.349000,-0.810791,-0.682183,-0.366891,-0.255103]
[0.000000,0.000000,0.000000,0.213399,1.101481,-0.349000,-0.829914,0.749676,-0.335907,0.333315,0.219822,-0.953580,0.349000,-0.810095,-0.682739,-0.366415,-0.255107]
[0.000000,0.000000,0.000000,0.214898,1.101969,-0.349000,-0.829040,0.750894,-0.335995,0.334889,0.219982,-0.953053,0.349000,-0.809075,-0.683003,-0.366013,-0.255001]
[0.000000,0.000000,0.000000,0.216809,1.102498,-0.349000,-0.828553,0.753187,-0.336051,0.336990,0.220378,-0.951765,0.349000,-0.807584,-0.682675,-0.365976,-0.255138]
[0.000000,0.000000,0.000000,0.218964,1.102906,-0.349000,-0.828221,0.755879,-0.336035,0.339144,0.220831,-0.949930,0.349000,-0.805829,-0.682147,-0.366049,-0.255632]
[0.000000,0.000000,0.000000,0.221149,1.103012,-0.349000,-0.827646,0.758019,-0.335944,0.340766,0.221133,-0.947972,0.349000,-0.804109,-0.682007,-0.365829,-0.256531]
[0.000000,0.000000,0.000000,0.223247,1.102928,-0.349000,-0.826782,0.759549,-0.335880,0.341901,0.221415,-0.946211,0.349000,-0.802484,-0.682640,-0.365336,-0.258002]
[0.000000,0.000000,0.000000,0.225226,1.103035,-0.349000,-0.825906,0.761231,-0.336036,0.343178,0.222119,-0.944871,0.349000,-0.800792,-0.684245,-0.364978,-0.260327]
[0.000000,0.000000,0.000000,0.227141,1.103512,-0.349000,-0.825166,0.763567,-0.336483,0.344934,0.223523,-0.944018,0.349000,-0.798887,-0.686852,-0.364984,-0.263548]
[0.000000,0.000000,0.000000,0.229281,1.103952,-0.349000,-0.824317,0.766226,-0.336924,0.346620,0.225402,-0.943268,0.349000,-0.796703,-0.690031,-0.365036,-0.267034]
[0.000000,0.000000,0.000000,0.231927,1.103895,-0.349000,-0.823066,0.768774,-0.337043,0.347626,0.227459,-0.942207,0.349000,-0.794212,-0.693283,-0.364767,-0.270085]
[0.000000,0.000000,0.000000,0.234915,1.103406,-0.349000,-0.821383,0.771211,-0.336966,0.348280,0.229544,-0.940895,0.349000,-0.791646,-0.696243,-0.364277,-0.272541]
[0.000000,0.000000,0.000000,0.237825,1.102850,-0.349000,-0.819388,0.773785,-0.337070,0.349443,0.231597,-0.939665,0.349000,-0.789388,-0.698627,-0.363935,-0.274558]
[0.000000,0.000000,0.000000,0.240560,1.102428,-0.349000,-0.817250,0.776624,-0.337493,0.351455,0.233623,-0.938574,0.349000,-0.787467,-0.700530,-0.363906,-0.276429]
[0.000000,0.000000,0.000000,0.243598,1.102048,-0.349000,-0.815220,0.779639,-0.337957,0.353743,0.235739,-0.937202,0.349000,-0.785301,-0.702691,-0.363993,-0.278684]
[0.000000,0.000000,0.000000,0.247361,1.101615,-0.349000,-0.813442,0.782803,-0.338234,0.355826,0.238057,-0.935210,0.349000,-0.782374,-0.705783,-0.364007,-0.281737]
[0.000000,0.000000,0.000000,0.251654,1.101187,-0.349000,-0.811419,0.786561,-0.338606,0.358257,0.240585,-0.933013,0.349000,-0.778900,-0.709709,-0.363985,-0.285212]
[0.000000,0.000000,0.000000,0.256074,1.100874,-0.349000,-0.808452,0.791504,-0.339518,0.361928,0.243297,-0.931272,0.349000,-0.775342,-0.714106,-0.364041,-0.288473]
[0.000000,0.000000,0.000000,0.260535,1.100785,-0.349000,-0.804610,0.797650,-0.340885,0.366895,0.246169,-0.930081,0.349000,-0.771966,-0.718690,-0.364118,-0.291348]
[0.000000,0.000000,0.000000,0.265293,1.101025,-0.349000,-0.800793,0.804403,-0.342051,0.372315,0.249181,-0.928923,0.349000,-0.768822,-0.723265,-0.363982,-0.294171]
[0.000000,0.000000,0.000000,0.270519,1.101660,-0.349000,-0.797661,0.811295,-0.342578,0.377488,0.252337,-0.927405,0.349000,-0.765904,-0.727734,-0.363522,-0.297244]
[0.000000,0.000000,0.000000,0.276033,1.102610,-0.349000,-0.794946,0.818404,-0.342856,0.382347,0.255728,-0.925640,0.349000,-0.763038,-0.732308,-0.363074,-0.300684]
[0.000000,0.000000,0.000000,0.281586,1.103767,-0.349000,-0.792207,0.825904,-0.343411,0.386965,0.259435,-0.923845,0.349000,-0.760042,-0.737232,-0.363023,-0.304534]
[0.000000,0.000000,0.000000,0.287010,1.105028,-0.349000,-0.789301,0.833790,-0.344287,0.391487,0.263253,-0.922160,0.349000,-0.757056,-0.742314,-0.363156,-0.308419]
[0.000000,0.000000,0.000000,0.292192,1.106293,-0.349000,-0.786284,0.841931,-0.345205,0.396105,0.266785,-0.920672,0.349000,-0.754434,-0.747062,-0.362861,-0.311676]
[0.000000,0.000000,0.000000,0.297139,1.107516,-0.349000,-0.783266,0.850077,-0.346013,0.400826,0.269819,-0.919399,0.349000,-0.752308,-0.751132,-0.361948,-0.313985]
[0.000000,0.000000,0.000000,0.302102,1.108769,-0.349000,-0.780457,0.857738,-0.346840,0.405275,0.272536,-0.918212,0.349000,-0.750355,-0.754483,-0.361088,-0.315719]
[0.000000,0.000000,0.000000,0.307280,1.110108,-0.349000,-0.778050,0.864487,-0.347798,0.409090,0.275136,-0.916984,0.349000,-0.748259,-0.757161,-0.360914,-0.317304]
[0.000000,0.000000,0.000000,0.312326,1.111379,-0.349000,-0.776037,0.870552,-0.348670,0.412307,0.277622,-0.915727,0.349000,-0.746138,-0.759537,-0.361068,-0.318952]
[0.000000,0.000000,0.000000,0.316678,1.112353,-0.349000,-0.774325,0.876426,-0.349110,0.415129,0.279919,-0.914504,0.349000,-0.744285,-0.762113,-0.360792,-0.320777]
[0.000000,0.000000,0.000000,0.320334,1.113087,-0.349000,-0.772739,0.882495,-0.349093,0.417874,0.282020,-0.913302,0.349000,-0.742698,-0.765033,-0.359912,-0.322625]
[0.000000,0.000000,0.000000,0.324000,1.114000,-0.349000,-0.771000,0.889000,-0.349000,0.421000,0.284000,-0.912000,0.349000,-0.741000,-0.768000,-0.359000,-0.324000]
[0.000000,0.000000,0.000000,0.328183,1.115349,-0.349000,-0.768934,0.895969,-0.349173,0.424765,0.285886,-0.910496,0.349000,-0.738932,-0.770659,-0.358502,-0.324512]
[0.000000,0.000000,0.000000,0.332412,1.116642,-0.349000,-0.766806,0.902601,-0.349687,0.428591,0.287484,-0.908773,0.349000,-0.736796,-0.772555,-0.358178,-0.324267]
[0.000000,0.000000,0.000000,0.336011,1.117243,-0.349000,-0.764968,0.907954,-0.350536,0.431735,0.288571,-0.906837,0.349000,-0.735002,-0.773252,-0.357639,-0.323504]
[0.000000,0.000000,0.000000,0.338894,1.117174,-0.349000,-0.763377,0.912040,-0.351472,0.434163,0.289313,-0.904752,0.349000,-0.733451,-0.773095,-0.356801,-0.322575]
[0.000000,0.000000,0.000000,0.341443,1.116981,-0.349000,-0.761676,0.915633,-0.352059,0.436406,0.290184,-0.902627,0.349000,-0.731639,-0.773040,-0.355825,-0.321924]
[0.000000,0.000000,0.000000,0.343944,1.116998,-0.349000,-0.759662,0.919305,-0.352103,0.438833,0.291430,-0.900538,0.349000,-0.729280,-0.773685,-0.354880,-0.321795]
[0.000000,0.000000,0.000000,0.346422,1.117023,-0.349000,-0.757504,0.923095,-0.351995,0.441391,0.292730,-0.898481,0.349000,-0.726630,-0.774739,-0.354130,-0.321954]
[0.000000,0.000000,0.000000,0.348871,1.116807,-0.349000,-0.755405,0.926953,-0.352166,0.443969,0.293731,-0.896438,0.349000,-0.724001,-0.775799,-0.353699,-0.322113]
[0.000000,0.000000,0.000000,0.351346,1.116356,-0.349000,-0.753354,0.930716,-0.352631,0.446468,0.294499,-0.894371,0.349000,-0.721517,-0.776639,-0.353360,-0.322119]
[0.000000,0.000000,0.000000,0.353926,1.115801,-0.349000,-0.751241,0.934175,-0.353202,0.448797,0.295303,-0.892237,0.349000,-0.719206,-0.777125,-0.352718,-0.321887]
[0.000000,0.000000,0.000000,0.356537,1.115293,-0.349000,-0.749087,0.937383,-0.353705,0.450922,0.296206,-0.890087,0.349000,-0.717077,-0.777387,-0.351758,-0.321452]
[0.000000,0.000000,0.000000,0.358878,1.115006,-0.349000,-0.747106,0.940784,-0.353993,0.452888,0.296965,-0.888107,0.349000,-0.715111,-0.777946,-0.351024,-0.321020]
[0.000000,0.000000,0.000000,0.360720,1.115036,-0.349000,-0.745445,0.944672,-0.353987,0.454726,0.297403,-0.886424,0.349000,-0.713238,-0.779168,-0.350929,-0.320733]
[0.000000,0.000000,0.000000,0.362272,1.115087,-0.349000,-0.743842,0.948476,-0.353938,0.456347,0.297758,-0.884819,0.349000,-0.711157,-0.780532,-0.351054,-0.320333]
[0.000000,0.000000,0.000000,0.363863,1.114760,-0.349000,-0.741938,0.951403,-0.354178,0.457632,0.298377,-0.882987,0.349000,-0.708522,-0.781284,-0.350760,-0.319468]
[0.000000,0.000000,0.000000,0.365558,1.113959,-0.349000,-0.739779,0.953425,-0.354666,0.458526,0.299260,-0.880892,0.349000,-0.705495,-0.781284,-0.349918,-0.318177]
[0.000000,0.000000,0.000000,0.367181,1.112862,-0.349000,-0.737789,0.955223,-0.355022,0.459041,0.300083,-0.878753,0.349000,-0.702705,-0.780960,-0.348879,-0.316857]
[0.000000,0.000000,0.000000,0.368585,1.111632,-0.349000,-0.736184,0.957271,-0.355031,0.459303,0.300615,-0.876707,0.349000,-0.700532,-0.780620,-0.347938,-0.315727]
[0.000000,0.000000,0.000000,0.369721,1.110367,-0.349000,-0.734558,0.959400,-0.354975,0.459757,0.300930,-0.874637,0.349000,-0.698598,-0.780175,-0.347180,-0.314460]
[0.000000,0.000000,0.000000,0.370578,1.109140,-0.349000,-0.732443,0.961341,-0.355190,0.460832,0.301138,-0.872390,0.349000,-0.696427,-0.779483,-0.346646,-0.312682]
[0.000000,0.000000,0.000000,0.371346,1.107916,-0.349000,-0.729885,0.962999,-0.355652,0.462224,0.301171,-0.869904,0.349000,-0.693916,-0.778616,-0.346260,-0.310523]
[0.000000,0.000000,0.000000,0.372324,1.106592,-0.349000,-0.727229,0.964368,-0.356127,0.463199,0.300866,-0.867169,0.349000,-0.691177,-0.777760,-0.345882,-0.308404]
[0.000000,0.000000,0.000000,0.373295,1.104765,-0.349000,-0.724845,0.964800,-0.356361,0.462938,0.300153,-0.864098,0.349000,-0.688303,-0.776979,-0.345450,-0.306454]
[0.000000,0.000000,0.000000,0.373147,1.101520,-0.349000,-0.723137,0.962531,-0.356080,0.460479,0.299134,-0.860474,0.349000,-0.685350,-0.776115,-0.345042,-0.304289]
[0.000000,0.000000,0.000000,0.370940,1.096111,-0.349000,-0.722340,0.956224,-0.355142,0.455246,0.297930,-0.856099,0.349000,-0.682328,-0.775021,-0.344714,-0.301578]
[0.000000,0.000000,0.000000,0.367218,1.089063,-0.349000,-0.721680,0.947577,-0.354192,0.448930,0.296659,-0.850982,0.349000,-0.678999,-0.773729,-0.344315,-0.298564]
[0.000000,0.000000,0.000000,0.363032,1.081333,-0.349000,-0.720058,0.939308,-0.354124,0.443962,0.295435,-0.845207,0.349000,-0.675047,-0.772342,-0.343635,-0.295689]
[0.000000,0.000000,0.000000,0.358897,1.073462,-0.349000,-0.717215,0.932538,-0.355012,0.441016,0.294241,-0.838978,0.349000,-0.670493,-0.771012,-0.342734,-0.293147]
[0.000000,0.000000,0.000000,0.354754,1.065533,-0.349000,-0.713795,0.926667,-0.356050,0.438873,0.292915,-0.832629,0.349000,-0.665720,-0.769949,-0.341965,-0.290872]
[0.000000,0.000000,0.000000,0.350560,1.057609,-0.349000,-0.710367,0.921139,-0.356622,0.436515,0.291350,-0.826403,0.349000,-0.661051,-0.769303,-0.341547,-0.288776]
[0.000000,0.000000,0.000000,0.346421,1.049749,-0.349000,-0.707100,0.915829,-0.356905,0.433930,0.289625,-0.820209,0.349000,-0.656548,-0.769026,-0.341187,-0.286733]
[0.000000,0.000000,0.000000,0.342470,1.042012,-0.349000,-0.704064,0.910702,-0.357222,0.431310,0.287860,-0.813906,0.349000,-0.652220,-0.769020,-0.340524,-0.284625]
[0.000000,0.000000,0.000000,0.338736,1.034504,-0.349000,-0.701190,0.905725,-0.357651,0.428794,0.286171,-0.807616,0.349000,-0.648065,-0.769081,-0.339624,-0.282511]
[0.000000,0.000000,0.000000,0.335176,1.027358,-0.349000,-0.698315,0.900866,-0.358104,0.426478,0.284669,-0.801636,0.349000,-0.644076,-0.768933,-0.338846,-0.280567]
[0.000000,0.000000,0.000000,0.331770,1.020616,-0.349000,-0.695371,0.896152,-0.358525,0.424381,0.283390,-0.796117,0.349000,-0.640253,-0.768491,-0.338380,-0.278868]
[0.000000,0.000000,0.000000,0.328547,1.014131,-0.349000,-0.692490,0.891736,-0.358929,0.422361,0.282209,-0.790903,0.349000,-0.636620,-0.768051,-0.338058,-0.277281]
[0.000000,0.000000,0.000000,0.325529,1.007758,-0.349000,-0.689812,0.887749,-0.359337,0.420283,0.281000,-0.785823,0.349000,-0.633189,-0.767903,-0.337695,-0.275662]
[0.000000,0.000000,0.000000,0.322658,1.001538,-0.349000,-0.687354,0.884086,-0.359754,0.418190,0.279747,-0.780855,0.349000,-0.629903,-0.767964,-0.337266,-0.273993]
[0.000000,0.000000,0.000000,0.319841,0.995593,-0.349000,-0.685088,0.880543,-0.360173,0.416201,0.278477,-0.776036,0.349000,-0.626669,-0.767993,-0.336813,-0.272305]
[0.000000,0.000000,0.000000,0.316986,0.990040,-0.349000,-0.682980,0.876916,-0.360590,0.414431,0.277218,-0.771405,0.349000,-0.623398,-0.767752,-0.336377,-0.270630]
[0.000000,0.000000,0.000000,0.314000,0.985000,-0.349000,-0.681000,0.873000,-0.361000,0.413000,0.276000,-0.767000,0.349000,-0.620000,-0.767000,-0.336000,-0.269000]
[0.000000,0.000000,0.000000,0.301516,0.962548,-0.349000,-0.674645,0.876065,-0.353774,0.428968,0.266806,-0.751161,0.349000,-0.619065,-0.769258,-0.325581,-0.286710]
[0.000000,0.000000,0.000000,0.289032,0.940097,-0.349000,-0.668290,0.879129,-0.346548,0.444935,0.257613,-0.735323,0.349000,-0.618129,-0.771516,-0.315161,-0.304419]
[0.000000,0.000000,0.000000,0.276548,0.917645,-0.349000,-0.661935,0.882194,-0.339323,0.460903,0.248419,-0.719484,0.349000,-0.617194,-0.773774,-0.304742,-0.322129]
[0.000000,0.000000,0.000000,0.264065,0.895194,-0.349000,-0.655581,0.885258,-0.332097,0.476871,0.239226,-0.703645,0.349000,-0.616258,-0.776032,-0.294323,-0.339839]
[0.000000,0.000000,0.000000,0.251581,0.872742,-0.349000,-0.649226,0.888323,-0.324871,0.492839,0.230032,-0.687806,0.349000,-0.615323,-0.778290,-0.283903,-0.357548]
[0.000000,0.000000,0.000000,0.239097,0.850290,-0.349000,-0.642871,0.891387,-0.317645,0.508806,0.220839,-0.671968,0.349000,-0.614387,-0.780548,-0.273484,-0.375258]
[0.000000,0.000000,0.000000,0.226613,0.827839,-0.349000,-0.636516,0.894452,-0.310419,0.524774,0.211645,-0.656129,0.349000,-0.613452,-0.782806,-0.263065,-0.392968]
[0.000000,0.000000,0.000000,0.214129,0.805387,-0.349000,-0.630161,0.897516,-0.303194,0.540742,0.202452,-0.640290,0.349000,-0.612516,-0.785065,-0.252645,-0.410677]
[0.000000,0.000000,0.000000,0.201645,0.782935,-0.349000,-0.623806,0.900581,-0.295968,0.556710,0.193258,-0.624452,0.349000,-0.611581,-0.787323,-0.242226,-0.428387]
[0.000000,0.000000,0.000000,0.189161,0.760484,-0.349000,-0.617452,0.903645,-0.288742,0.572677,0.184065,-0.608613,0.349000,-0.610645,-0.789581,-0.231806,-0.446097]
[0.000000,0.000000,0.000000,0.176677,0.738032,-0.349000,-0.611097,0.906710,-0.281516,0.588645,0.174871,-0.592774,0.349000,-0.609710,-0.791839,-0.221387,-0.463806]
[0.000000,0.000000,0.000000,0.164194,0.715581,-0.349000,-0.604742,0.909774,-0.274290,0.604613,0.165677,-0.576935,0.349000,-0.608774,-0.794097,-0.210968,-0.481516]
[0.000000,0.000000,0.000000,0.151710,0.693129,-0.349000,-0.598387,0.912839,-0.267065,0.620581,0.156484,-0.561097,0.349000,-0.607839,-0.796355,-0.200548,-0.499226]
[0.000000,0.000000,0.000000,0.139226,0.670677,-0.349000,-0.592032,0.915903,-0.259839,0.636548,0.147290,-0.545258,0.349000,-0.606903,-0.798613,-0.190129,-0.516935]
[0.000000,0.000000,0.000000,0.126742,0.648226,-0.349000,-0.585677,0.918968,-0.252613,0.652516,0.138097,-0.529419,0.349000,-0.605968,-0.800871,-0.179710,-0.534645]
[0.000000,0.000000,0.000000,0.114258,0.625774,-0.349000,-0.579323,0.922032,-0.245387,0.668484,0.128903,-0.513581,0.349000,-0.605032,-0.803129,-0.169290,-0.552355]
[0.000000,0.000000,0.000000,0.101774,0.603323,-0.349000,-0.572968,0.925097,-0.238161,0.684452,0.119710,-0.497742,0.349000,-0.604097,-0.805387,-0.158871,-0.570065]
[0.000000,0.000000,0.000000,0.089290,0.580871,-0.349000,-0.566613,0.928161,-0.230935,0.700419,0.110516,-0.481903,0.349000,-0.603161,-0.807645,-0.148452,-0.587774]
[0.000000,0.000000,0.000000,0.076806,0.558419,-0.349000,-0.560258,0.931226,-0.223710,0.716387,0.101323,-0.466065,0.349000,-0.602226,-0.809903,-0.138032,-0.605484]
[0.000000,0.000000,0.000000,0.064323,0.535968,-0.349000,-0.553903,0.934290,-0.216484,0.732355,0.092129,-0.450226,0.349000,-0.601290,-0.812161,-0.127613,-0.623194]
[0.000000,0.000000,0.000000,0.051839,0.513516,-0.349000,-0.547548,0.937355,-0.209258,0.748323,0.082935,-0.434387,0.349000,-0.600355,-0.814419,-0.117194,-0.640903]
[0.000000,0.000000,0.000000,0.039355,0.491065,-0.349000,-0.541194,0.940419,-0.202032,0.764290,0.073742,-0.418548,0.349000,-0.599419,-0.816677,-0.106774,-0.658613]
[0.000000,0.000000,0.000000,0.026871,0.468613,-0.349000,-0.534839,0.943484,-0.194806,0.780258,0.064548,-0.402710,0.349000,-0.598484,-0.818935,-0.096355,-0.676323]
[0.000000,0.000000,0.000000,0.014387,0.446161,-0.349000,-0.528484,0.946548,-0.187581,0.796226,0.055355,-0.386871,0.349000,-0.597548,-0.821194,-0.085935,-0.694032]
[0.000000,0.000000,0.000000,0.001903,0.423710,-0.349000,-0.522129,0.949613,-0.180355,0.812194,0.046161,-0.371032,0.349000,-0.596613,-0.823452,-0.075516,-0.711742]
[0.000000,0.000000,0.000000,-0.010581,0.401258,-0.349000,-0.515774,0.952677,-0.173129,0.828161,0.036968,-0.355194,0.349000,-0.595677,-0.825710,-0.065097,-0.729452]
[0.000000,0.000000,0.000000,-0.023065,0.378806,-0.349000,-0.509419,0.955742,-0.165903,0.844129,0.027774,-0.339355,0.349000,-0.594742,-0.827968,-0.054677,-0.747161]
[0.000000,0.000000,0.000000,-0.035548,0.356355,-0.349000,-0.503065,0.958806,-0.158677,0.860097,0.018581,-0.323516,0.349000,-0.593806,-0.830226,-0.044258,-0.764871]
[0.000000,0.000000,0.000000,-0.048032,0.333903,-0.349000,-0.496710,0.961871,-0.151452,0.876065,0.009387,-0.307677,0.349000,-0.592871,-0.832484,-0.033839,-0.782581]
[0.000000,0.000000,0.000000,-0.060516,0.311452,-0.349000,-0.490355,0.964935,-0.144226,0.892032,0.000194,-0.291839,0.349000,-0.591935,-0.834742,-0.023419,-0.800290]
[0.000000,0.000000,0.000000,-0.073000,0.289000,-0.349000,-0.484000,0.968000,-0.137000,0.908000,-0.009000,-0.276000,0.349000,-0.591000,-0.837000,-0.013000,-0.818000]
[0.000000,0.000000,0.000000,-0.072968,0.289050,-0.349000,-0.483971,0.967968,-0.136969,0.908017,-0.009016,-0.274972,0.349000,-0.590967,-0.837030,-0.012987,-0.817939]
[0.000000,0.000000,0.000000,-0.071898,0.290024,-0.349000,-0.482885,0.968145,-0.135893,0.907925,-0.008926,-0.275078,0.349000,-0.589903,-0.838110,-0.013058,-0.815783]
[0.000000,0.000000,0.000000,-0.070893,0.290088,-0.349000,-0.481969,0.970102,-0.134922,0.906962,-0.007960,-0.276049,0.349000,-0.588865,-0.839059,-0.014132,-0.813865]
[0.000000,0.000000,0.000000,-0.069670,0.291096,-0.349000,-0.481910,0.970114,-0.135161,0.906873,-0.007882,-0.276059,0.349000,-0.587824,-0.838938,-0.013622,-0.812569]
[0.000000,0.000000,0.000000,-0.067682,0.290928,-0.349000,-0.480695,0.971058,-0.136101,0.905906,-0.006864,-0.277446,0.349000,-0.586741,-0.839232,-0.010287,-0.809431]
[0.000000,0.000000,0.000000,-0.066747,0.291234,-0.349000,-0.479995,0.971207,-0.135915,0.906002,-0.007216,-0.279364,0.349000,-0.585871,-0.839919,-0.007081,-0.807476]
[0.000000,0.000000,0.000000,-0.065707,0.292163,-0.349000,-0.479695,0.972125,-0.136333,0.906140,-0.008391,-0.280299,0.349000,-0.583955,-0.838604,-0.002331,-0.805410]
[0.000000,0.000000,0.000000,-0.064452,0.291670,-0.349000,-0.479089,0.971875,-0.139480,0.907806,-0.011685,-0.281294,0.349000,-0.579427,-0.840343,0.002166,-0.802990]
[0.000000,0.000000,0.000000,-0.061706,0.290672,-0.349000,-0.481120,0.969604,-0.142903,0.908850,-0.019680,-0.279798,0.349000,-0.566597,-0.843789,0.005839,-0.799710]
[0.000000,0.000000,0.000000,-0.059233,0.289065,-0.349000,-0.494048,0.965117,-0.145523,0.897924,-0.038149,-0.271165,0.349000,-0.529619,-0.847354,0.014636,-0.793634]
[0.000000,0.000000,0.000000,-0.055568,0.287550,-0.349000,-0.516201,0.960898,-0.150485,0.880899,-0.070862,-0.257054,0.349000,-0.471328,-0.854011,0.030201,-0.785221]
[0.000000,0.000000,0.000000,-0.047274,0.285729,-0.349000,-0.537117,0.953746,-0.155700,0.868705,-0.109445,-0.242289,0.349000,-0.405349,-0.860762,0.044529,-0.778686]
[0.000000,0.000000,0.000000,-0.037265,0.285689,-0.349000,-0.555953,0.950418,-0.161081,0.864069,-0.150545,-0.228187,0.349000,-0.337006,-0.867786,0.059233,-0.768048]
[0.000000,0.000000,0.000000,-0.025849,0.289586,-0.349000,-0.570821,0.951391,-0.165187,0.866671,-0.192154,-0.215244,0.349000,-0.268921,-0.872730,0.074973,-0.756781]
[0.000000,0.000000,0.000000,-0.016185,0.293086,-0.349000,-0.586365,0.949043,-0.166819,0.865451,-0.230398,-0.203414,0.349000,-0.204396,-0.876081,0.084652,-0.749703]
[0.000000,0.000000,0.000000,-0.010034,0.296258,-0.349000,-0.599656,0.946336,-0.167120,0.860543,-0.263285,-0.192544,0.349000,-0.147312,-0.879158,0.092808,-0.744420]
[0.000000,0.000000,0.000000,-0.007799,0.298547,-0.349000,-0.605658,0.945852,-0.165756,0.861519,-0.290871,-0.183708,0.349000,-0.099903,-0.882379,0.100142,-0.738868]
[0.000000,0.000000,0.000000,-0.010927,0.300760,-0.349000,-0.604807,0.946853,-0.161493,0.862481,-0.311264,-0.176155,0.349000,-0.063320,-0.884711,0.101777,-0.736999]
[0.000000,0.000000,0.000000,-0.019386,0.301034,-0.349000,-0.596783,0.947707,-0.160969,0.869629,-0.323254,-0.170559,0.349000,-0.037976,-0.886582,0.104012,-0.736995]
[0.000000,0.000000,0.000000,-0.035275,0.301021,-0.349000,-0.578117,0.951597,-0.160090,0.879360,-0.323502,-0.167188,0.349000,-0.032569,-0.890701,0.100418,-0.737018]
[0.000000,0.000000,0.000000,-0.057013,0.300073,-0.349000,-0.550336,0.956689,-0.159974,0.884779,-0.313629,-0.166009,0.349000,-0.045044,-0.892897,0.097115,-0.736964]
[0.000000,0.000000,0.000000,-0.082000,0.298000,-0.349000,-0.516000,0.965000,-0.160000,0.889000,-0.294000,-0.168000,0.349000,-0.078000,-0.895000,0.093000,-0.739000]
[0.000000,0.000000,0.000000,-0.117647,0.294785,-0.349000,-0.469820,0.969113,-0.156825,0.885824,-0.262512,-0.178627,0.349000,-0.133659,-0.890705,0.085793,-0.743285]
[0.000000,0.000000,0.000000,-0.155270,0.288430,-0.349000,-0.415946,0.972414,-0.153915,0.884046,-0.227993,-0.195621,0.349000,-0.196606,-0.882095,0.082558,-0.751792]
[0.000000,0.000000,0.000000,-0.192895,0.282170,-0.349000,-0.355050,0.977508,-0.153900,0.886385,-0.193513,-0.214346,0.349000,-0.261347,-0.870443,0.073555,-0.759913]
[0.000000,0.000000,0.000000,-0.228975,0.276029,-0.349000,-0.297562,0.980686,-0.151446,0.887987,-0.160597,-0.230627,0.349000,-0.321993,-0.859135,0.062060,-0.766049]
[0.000000,0.000000,0.000000,-0.260457,0.270857,-0.349000,-0.247706,0.984598,-0.148449,0.886776,-0.132081,-0.245195,0.349000,-0.374935,-0.848713,0.051942,-0.772428]
[0.000000,0.000000,0.000000,-0.287782,0.265773,-0.349000,-0.202324,0.986675,-0.146580,0.887534,-0.106699,-0.259620,0.349000,-0.421621,-0.838428,0.044459,-0.778362]
[0.000000,0.000000,0.000000,-0.312250,0.262005,-0.349000,-0.159380,0.990043,-0.146160,0.891406,-0.084612,-0.273170,0.349000,-0.463239,-0.829339,0.039385,-0.783943]
[0.000000,0.000000,0.000000,-0.334262,0.258847,-0.349000,-0.121445,0.992813,-0.147437,0.894638,-0.065915,-0.286439,0.349000,-0.500218,-0.821394,0.037183,-0.789477]
[0.000000,0.000000,0.000000,-0.352968,0.256161,-0.349000,-0.088890,0.994755,-0.148196,0.895221,-0.049986,-0.298882,0.349000,-0.531656,-0.814120,0.040125,-0.791589]
[0.000000,0.000000,0.000000,-0.367923,0.253742,-0.349000,-0.065493,0.997090,-0.147297,0.893878,-0.039905,-0.308118,0.349000,-0.554219,-0.807048,0.040987,-0.791891]
[0.000000,0.000000,0.000000,-0.378680,0.250472,-0.349000,-0.052928,0.998051,-0.144725,0.890448,-0.037252,-0.310176,0.349000,-0.564416,-0.801943,0.041660,-0.789400]
[0.000000,0.000000,0.000000,-0.383470,0.247372,-0.349000,-0.049713,0.998535,-0.144332,0.887339,-0.045352,-0.306130,0.349000,-0.557968,-0.801560,0.041189,-0.787522]
[0.000000,0.000000,0.000000,-0.380050,0.244221,-0.349000,-0.053791,0.999222,-0.145849,0.884997,-0.064657,-0.293872,0.349000,-0.532328,-0.805693,0.043296,-0.784891]
[0.000000,0.000000,0.000000,-0.366051,0.241107,-0.349000,-0.065245,1.002888,-0.150234,0.891081,-0.096223,-0.275284,0.349000,-0.481559,-0.811971,0.051085,-0.779861]
[0.000000,0.000000,0.000000,-0.344399,0.237895,-0.349000,-0.088420,1.002599,-0.153644,0.896388,-0.136494,-0.253506,0.349000,-0.415192,-0.816791,0.064601,-0.769057]
[0.000000,0.000000,0.000000,-0.318928,0.235414,-0.349000,-0.116766,0.997173,-0.154756,0.899215,-0.177552,-0.233762,0.349000,-0.343838,-0.821068,0.076648,-0.763511]
[0.000000,0.000000,0.000000,-0.292641,0.234220,-0.349000,-0.143509,0.993700,-0.155673,0.901465,-0.216139,-0.215092,0.349000,-0.273494,-0.823535,0.085747,-0.759893]
[0.000000,0.000000,0.000000,-0.267155,0.233118,-0.349000,-0.167964,0.989705,-0.157693,0.904623,-0.250555,-0.196922,0.349000,-0.210041,-0.826473,0.097642,-0.756738]
[0.000000,0.000000,0.000000,-0.244773,0.232993,-0.349000,-0.190255,0.986389,-0.158823,0.905021,-0.279547,-0.181018,0.349000,-0.156438,-0.828756,0.111299,-0.750077]
[0.000000,0.000000,0.000000,-0.223755,0.232962,-0.349000,-0.210355,0.983248,-0.160840,0.905881,-0.304899,-0.165346,0.349000,-0.108928,-0.830819,0.123108,-0.742553]
[0.000000,0.000000,0.000000,-0.204770,0.233954,-0.349000,-0.228271,0.981065,-0.161959,0.906961,-0.328054,-0.150599,0.349000,-0.065776,-0.832898,0.132596,-0.737195]
[0.000000,0.000000,0.000000,-0.188000,0.234000,-0.349000,-0.244000,0.980000,-0.164000,0.908000,-0.348000,-0.138000,0.349000,-0.027000,-0.836000,0.143000,-0.733000]
[0.000000,0.000000,0.000000,-0.170677,0.230226,-0.349000,-0.226774,0.983097,-0.162194,0.889871,-0.327548,-0.143419,0.347548,-0.020161,-0.826226,0.142161,-0.721000]
[0.010000,0.000000,0.000000,-0.153355,0.226452,-0.349000,-0.209548,0.986194,-0.160387,0.871742,-0.307097,-0.148839,0.346097,-0.013323,-0.816452,0.141323,-0.709000]
[0.020000,0.000000,0.000000,-0.136032,0.222677,-0.349000,-0.192323,0.989290,-0.158581,0.853613,-0.286645,-0.154258,0.344645,-0.006484,-0.806677,0.140484,-0.697000]
[0.030000,0.000000,0.000000,-0.118710,0.218903,-0.349000,-0.175097,0.992387,-0.156774,0.835484,-0.266194,-0.159677,0.343194,0.000355,-0.796903,0.139645,-0.685000]
[0.040000,0.000000,0.000000,-0.101387,0.215129,-0.349000,-0.157871,0.995484,-0.154968,0.817355,-0.245742,-0.165097,0.341742,0.007194,-0.787129,0.138806,-0.673000]
[0.050000,0.000000,0.000000,-0.084065,0.211355,-0.349000,-0.140645,0.998581,-0.153161,0.799226,-0.225290,-0.170516,0.340290,0.014032,-0.777355,0.137968,-0.661000]
[0.060000,0.000000,0.000000,-0.066742,0.207581,-0.349000,-0.123419,1.001677,-0.151355,0.781097,-0.204839,-0.175935,0.338839,0.020871,-0.767581,0.137129,-0.649000]
[0.070000,0.000000,0.000000,-0.049419,0.203806,-0.349000,-0.106194,1.004774,-0.149548,0.762968,-0.184387,-0.181355,0.337387,0.027710,-0.757806,0.136290,-0.637000]
[0.080000,0.000000,0.000000,-0.032097,0.200032,-0.349000,-0.088968,1.007871,-0.147742,0.744839,-0.163935,-0.186774,0.335935,0.034548,-0.748032,0.135452,-0.625000]
[0.090000,0.000000,0.000000,-0.014774,0.196258,-0.349000,-0.071742,1.010968,-0.145935,0.726710,-0.143484,-0.192194,0.334484,0.041387,-0.738258,0.134613,-0.613000]
[0.100000,0.000000,0.000000,0.002548,0.192484,-0.349000,-0.054516,1.014065,-0.144129,0.708581,-0.123032,-0.197613,0.333032,0.048226,-0.728484,0.133774,-0.601000]
[0.110000,0.000000,0.000000,0.019871,0.188710,-0.349000,-0.037290,1.017161,-0.142323,0.690452,-0.102581,-0.203032,0.331581,0.055065,-0.718710,0.132935,-0.589000]
[0.120000,0.000000,0.000000,0.037194,0.184935,-0.349000,-0.020065,1.020258,-0.140516,0.672323,-0.082129,-0.208452,0.330129,0.061903,-0.708935,0.132097,-0.577000]
[0.130000,0.000000,0.000000,0.054516,0.181161,-0.349000,-0.002839,1.023355,-0.138710,0.654194,-0.061677,-0.213871,0.328677,0.068742,-0.699161,0.131258,-0.565000]
[0.140000,0.000000,0.000000,0.071839,0.177387,-0.349000,0.014387,1.026452,-0.136903,0.636065,-0.041226,-0.219290,0.327226,0.075581,-0.689387,0.130419,-0.553000]
[0.150000,0.000000,0.000000,0.089161,0.173613,-0.349000,0.031613,1.029548,-0.135097,0.617935,-0.020774,-0.224710,0.325774,0.082419,-0.679613,0.129581,-0.541000]
[0.160000,0.000000,0.000000,0.106484,0.169839,-0.349000,0.048839,1.032645,-0.133290,0.599806,-0.000323,-0.230129,0.324323,0.089258,-0.669839,0.128742,-0.529000]
[0.170000,0.000000,0.000000,0.123806,0.166065,-0.349000,0.066065,1.035742,-0.131484,0.581677,0.020129,-0.235548,0.322871,0.096097,-0.660065,0.127903,-0.517000]
[0.180000,0.000000,0.000000,0.141129,0.162290,-0.349000,0.083290,1.038839,-0.129677,0.563548,0.040581,-0.240968,0.321419,0.102935,-0.650290,0.127065,-0.505000]
[0.190000,0.000000,0.000000,0.158452,0.158516,-0.349000,0.100516,1.041935,-0.127871,0.545419,0.061032,-0.246387,0.319968,0.109774,-0.640516,0.126226,-0.493000]
[0.200000,0.000000,0.000000,0.175774,0.154742,-0.349000,0.117742,1.045032,-0.126065,0.527290,0.081484,-0.251806,0.318516,0.116613,-0.630742,0.125387,-0.481000]
[0.210000,0.000000,0.000000,0.193097,0.150968,-0.349000,0.134968,1.048129,-0.124258,0.509161,0.101935,-0.257226,0.317065,0.123452,-0.620968,0.124548,-0.469000]
[0.220000,0.000000,0.000000,0.210419,0.147194,-0.349000,0.152194,1.051226,-0.122452,0.491032,0.122387,-0.262645,0.315613,0.130290,-0.611194,0.123710,-0.457000]
[0.230000,0.000000,0.000000,0.227742,0.143419,-0.349000,0.169419,1.054323,-0.120645,0.472903,0.142839,-0.268065,0.314161,0.137129,-0.601419,0.122871,-0.445000]
[0.240000,0.000000,0.000000,0.245065,0.139645,-0.349000,0.186645,1.057419,-0.118839,0.454774,0.163290,-0.273484,0.312710,0.143968,-0.591645,0.122032,-0.433000]
[0.250000,0.000000,0.000000,0.262387,0.135871,-0.349000,0.203871,1.060516,-0.117032,0.436645,0.183742,-0.278903,0.311258,0.150806,-0.581871,0.121194,-0.421000]
[0.260000,0.000000,0.000000,0.279710,0.132097,-0.349000,0.221097,1.063613,-0.115226,0.418516,0.204194,-0.284323,0.309806,0.157645,-0.572097,0.120355,-0.409000]
[0.270000,0.000000,0.000000,0.297032,0.128323,-0.349000,0.238323,1.066710,-0.113419,0.400387,0.224645,-0.289742,0.308355,0.164484,-0.562323,0.119516,-0.397000]
[0.280000,0.000000,0.000000,0.314355,0.124548,-0.349000,0.255548,1.069806,-0.111613,0.382258,0.245097,-0.295161,0.306903,0.171323,-0.552548,0.118677,-0.385000]
[0.290000,0.000000,0.000000,0.331677,0.120774,-0.349000,0.272774,1.072903,-0.109806,0.364129,0.265548,-0.300581,0.305452,0.178161,-0.542774,0.117839,-0.373000]
[0.300000,0.000000,0.000000,0.349000,0.117000,-0.349000,0.290000,1.076000,-0.108000,0.346000,0.286000,-0.306000,0.304000,0.185000,-0.533000,0.117000,-0.361000]
[0.300000,0.000000,0.000000,0.359854,0.126737,-0.349000,0.262458,1.062602,-0.108928,0.348828,0.194618,-0.256131,0.311612,0.210197,-0.567407,0.146004,-0.331669]
[0.300000,0.000000,0.000000,0.372292,0.138318,-0.349000,0.232773,1.047823,-0.107837,0.349082,0.103430,-0.214334,0.317098,0.242572,-0.610411,0.163249,-0.285812]
[0.300000,0.000000,0.000000,0.386509,0.148336,-0.349000,0.207177,1.035584,-0.099539,0.346780,0.026095,-0.179706,0.322219,0.274085,-0.648418,0.176659,-0.242078]
[0.300000,0.000000,0.000000,0.397643,0.155085,-0.349000,0.193728,1.023952,-0.086380,0.335482,-0.040570,-0.149871,0.326470,0.296713,-0.679220,0.190690,-0.198145]
[0.300000,0.000000,0.000000,0.405889,0.160293,-0.349000,0.182881,1.012071,-0.076267,0.329544,-0.094788,-0.126096,0.331108,0.318887,-0.713337,0.199223,-0.161972]
[0.300000,0.000000,0.000000,0.412682,0.165302,-0.349000,0.177587,1.004284,-0.061968,0.316102,-0.140398,-0.105433,0.333243,0.334138,-0.737847,0.213191,-0.121814]
[0.300000,0.000000,0.000000,0.419555,0.169492,-0.349000,0.172541,0.994814,-0.051811,0.305788,-0.179355,-0.087574,0.335786,0.348404,-0.762328,0.222670,-0.086356]
[0.300000,0.000000,0.000000,0.424726,0.172546,-0.349000,0.168155,0.986525,-0.046514,0.304930,-0.212572,-0.073842,0.338630,0.363365,-0.784557,0.225567,-0.057720]
[0.300000,0.000000,0.000000,0.427171,0.174076,-0.349000,0.169168,0.983362,-0.041179,0.308541,-0.240136,-0.061720,0.340258,0.374173,-0.796320,0.228726,-0.040215]
[0.300000,0.000000,0.000000,0.428898,0.173980,-0.349000,0.171922,0.978163,-0.038039,0.313703,-0.265483,-0.051578,0.340972,0.379845,-0.799895,0.235532,-0.022965]
[0.300000,0.000000,0.000000,0.430563,0.173369,-0.349000,0.171256,0.974911,-0.038071,0.319187,-0.288830,-0.042998,0.342579,0.383566,-0.794961,0.243031,-0.012983]
[0.300000,0.000000,0.000000,0.432067,0.172787,-0.349000,0.174161,0.970253,-0.036494,0.325318,-0.307900,-0.035873,0.344023,0.389670,-0.792865,0.246787,-0.005627]
[0.300000,0.000000,0.000000,0.432015,0.171989,-0.349000,0.174002,0.963171,-0.033985,0.325888,-0.322725,-0.030097,0.344974,0.393903,-0.789094,0.250937,0.000903]
[0.300000,0.000000,0.000000,0.430334,0.171398,-0.349000,0.174590,0.957014,-0.037730,0.333599,-0.335120,-0.024946,0.344874,0.397115,-0.785226,0.254258,0.005034]
[0.300000,0.000000,0.000000,0.428715,0.169665,-0.349000,0.176295,0.952135,-0.033384,0.329406,-0.343475,-0.021334,0.346125,0.403339,-0.778885,0.257045,0.002236]
[0.300000,0.000000,0.000000,0.425930,0.167971,-0.349000,0.179091,0.952149,-0.032150,0.333239,-0.350163,-0.017933,0.346025,0.404990,-0.772809,0.259072,-0.001092]
[0.300000,0.000000,0.000000,0.421982,0.165576,-0.349000,0.184194,0.960937,-0.042223,0.345276,-0.362248,-0.014469,0.347060,0.396571,-0.755336,0.271685,0.002065]
[0.300000,0.000000,0.000000,0.413016,0.161829,-0.349000,0.192075,0.971322,-0.057729,0.359900,-0.380657,-0.012579,0.347031,0.380587,-0.721547,0.291973,0.002205]
[0.300000,0.000000,0.000000,0.396861,0.156628,-0.349000,0.204732,0.982522,-0.065269,0.372299,-0.396700,-0.010801,0.347077,0.358632,-0.672957,0.319767,0.002475]
[0.300000,0.000000,0.000000,0.374950,0.149887,-0.349000,0.219838,0.991143,-0.070179,0.383130,-0.398115,-0.008992,0.348044,0.328099,-0.621896,0.354832,0.022286]
[0.300000,0.000000,0.000000,0.348207,0.141562,-0.349000,0.239040,0.997275,-0.067766,0.399584,-0.380756,-0.007497,0.348009,0.297739,-0.580424,0.386881,0.031191]
[0.300000,0.000000,0.000000,0.314506,0.133132,-0.349000,0.262375,1.004599,-0.067822,0.412023,-0.342083,-0.005907,0.348007,0.276928,-0.565067,0.392172,0.024764]
[0.300000,0.000000,0.000000,0.276518,0.124726,-0.349000,0.287685,1.007968,-0.061965,0.418570,-0.284204,-0.013981,0.347954,0.243947,-0.550267,0.388118,0.015224]
[0.300000,0.000000,0.000000,0.227225,0.114133,-0.349000,0.319570,1.008405,-0.040312,0.421722,-0.186493,-0.053117,0.343109,0.191660,-0.513570,0.370091,-0.009703]
[0.300000,0.000000,0.000000,0.168261,0.101884,-0.349000,0.364442,1.011651,-0.002254,0.409608,-0.066530,-0.101817,0.325531,0.144856,-0.478618,0.344871,-0.053380]
[0.300000,0.000000,0.000000,0.110199,0.088504,-0.349000,0.417958,1.016829,0.032767,0.393593,0.048599,-0.143497,0.294231,0.106406,-0.444202,0.323780,-0.099287]
[0.300000,0.000000,0.000000,0.059169,0.076139,-0.349000,0.463989,1.020334,0.059933,0.380881,0.148297,-0.178034,0.268001,0.077403,-0.418156,0.304952,-0.142201]
[0.300000,0.000000,0.000000,0.018247,0.066334,-0.349000,0.500247,1.022527,0.081845,0.367247,0.229624,-0.206840,0.248869,0.055125,-0.396195,0.290810,-0.179428]
[0.300000,0.000000,0.000000,-0.016000,0.058000,-0.349000,0.533000,1.025000,0.101000,0.360000,0.296000,-0.231000,0.232000,0.038000,-0.376000,0.279000,-0.211000]
[0.300000,0.000000,0.000000,-0.005000,0.061645,-0.349000,0.522645,1.025258,0.097000,0.358258,0.297129,-0.232097,0.235774,0.044645,-0.384645,0.273452,-0.214516]
[0.300000,0.000000,0.000000,0.006000,0.065290,-0.349000,0.512290,1.025516,0.093000,0.356516,0.298258,-0.233194,0.239548,0.051290,-0.393290,0.267903,-0.218032]
[0.300000,0.000000,0.000000,0.017000,0.068935,-0.349000,0.501935,1.025774,0.089000,0.354774,0.299387,-0.234290,0.243323,0.057935,-0.401935,0.262355,-0.221548]
[0.300000,0.000000,0.000000,0.028000,0.072581,-0.349000,0.491581,1.026032,0.085000,0.353032,0.300516,-0.235387,0.247097,0.064581,-0.410581,0.256806,-0.225065]
[0.300000,0.000000,0.000000,0.039000,0.076226,-0.349000,0.481226,1.026290,0.081000,0.351290,0.301645,-0.236484,0.250871,0.071226,-0.419226,0.251258,-0.228581]
[0.300000,0.000000,0.000000,0.050000,0.079871,-0.349000,0.470871,1.026548,0.077000,0.349548,0.302774,-0.237581,0.254645,0.077871,-0.427871,0.245710,-0.232097]
[0.300000,0.000000,0.000000,0.061000,0.083516,-0.349000,0.460516,1.026806,0.073000,0.347806,0.303903,-0.238677,0.258419,0.084516,-0.436516,0.240161,-0.235613]
[0.300000,0.000000,0.000000,0.072000,0.087161,-0.349000,0.450161,1.027065,0.069000,0.346065,0.305032,-0.239774,0.262194,0.091161,-0.445161,0.234613,-0.239129]
[0.300000,0.000000,0.000000,0.083000,0.090806,-0.349000,0.439806,1.027323,0.065000,0.344323,0.306161,-0.240871,0.265968,0.097806,-0.453806,0.229065,-0.242645]
[0.300000,0.000000,0.000000,0.094000,0.094452,-0.349000,0.429452,1.027581,0.061000,0.342581,0.307290,-0.241968,0.269742,0.104452,-0.462452,0.223516,-0.246161]
[0.300000,0.000000,0.000000,0.105000,0.098097,-0.349000,0.419097,1.027839,0.057000,0.340839,0.308419,-0.243065,0.273516,0.111097,-0.471097,0.217968,-0.249677]
[0.300000,0.000000,0.000000,0.116000,0.101742,-0.349000,0.408742,1.028097,0.053000,0.339097,0.309548,-0.244161,0.277290,0.117742,-0.479742,0.212419,-0.253194]
[0.300000,0.000000,0.000000,0.127000,0.105387,-0.349000,0.398387,1.028355,0.049000,0.337355,0.310677,-0.245258,0.281065,0.124387,-0.488387,0.206871,-0.256710]
[0.300000,0.000000,0.000000,0.138000,0.109032,-0.349000,0.388032,1.028613,0.045000,0.335613,0.311806,-0.246355,0.284839,0.131032,-0.497032,0.201323,-0.260226]
[0.300000,0.000000,0.000000,0.149000,0.112677,-0.349000,0.377677,1.028871,0.041000,0.333871,0.312935,-0.247452,0.288613,0.137677,-0.505677,0.195774,-0.263742]
[0.300000,0.000000,0.000000,0.160000,0.116323,-0.349000,0.367323,1.029129,0.037000,0.332129,0.314065,-0.248548,0.292387,0.144323,-0.514323,0.190226,-0.267258]
[0.300000,0.000000,0.000000,0.171000,0.119968,-0.349000,0.356968,1.029387,0.033000,0.330387,0.315194,-0.249645,0.296161,0.150968,-0.522968,0.184677,-0.270774]
[0.300000,0.000000,0.000000,0.182000,0.123613,-0.349000,0.346613,1.029645,0.029000,0.328645,0.316323,-0.250742,0.299935,0.157613,-0.531613,0.179129,-0.274290]
[0.300000,0.000000,0.000000,0.193000,0.127258,-0.349000,0.336258,1.029903,0.025000,0.326903,0.317452,-0.251839,0.303710,0.164258,-0.540258,0.173581,-0.277806]
[0.300000,0.000000,0.000000,0.204000,0.130903,-0.349000,0.325903,1.030161,0.021000,0.325161,0.318581,-0.252935,0.307484,0.170903,-0.548903,0.168032,-0.281323]
[0.300000,0.000000,0.000000,0.215000,0.134548,-0.349000,0.315548,1.030419,0.017000,0.323419,0.319710,-0.254032,0.311258,0.177548,-0.557548,0.162484,-0.284839]
[0.300000,0.000000,0.000000,0.226000,0.138194,-0.349000,0.305194,1.030677,0.013000,0.321677,0.320839,-0.255129,0.315032,0.184194,-0.566194,0.156935,-0.288355]
[0.300000,0.000000,0.000000,0.237000,0.141839,-0.349000,0.294839,1.030935,0.009000,0.319935,0.321968,-0.256226,0.318806,0.190839,-0.574839,0.151387,-0.291871]
[0.300000,0.000000,0.000000,0.248000,0.145484,-0.349000,0.284484,1.031194,0.005000,0.318194,0.323097,-0.257323,0.322581,0.197484,-0.583484,0.145839,-0.295387]
[0.300000,0.000000,0.000000,0.259000,0.149129,-0.349000,0.274129,1.031452,0.001000,0.316452,0.324226,-0.258419,0.326355,0.204129,-0.592129,0.140290,-0.298903]
[0.300000,0.000000,0.000000,0.270000,0.152774,-0.349000,0.263774,1.031710,-0.003000,0.314710,0.325355,-0.259516,0.330129,0.210774,-0.600774,0.134742,-0.302419]
[0.300000,0.000000,0.000000,0.281000,0.156419,-0.349000,0.253419,1.031968,-0.007000,0.312968,0.326484,-0.260613,0.333903,0.217419,-0.609419,0.129194,-0.305935]
[0.300000,0.000000,0.000000,0.292000,0.160065,-0.349000,0.243065,1.032226,-0.011000,0.311226,0.327613,-0.261710,0.337677,0.224065,-0.618065,0.123645,-0.309452]
[0.300000,0.000000,0.000000,0.303000,0.163710,-0.349000,0.232710,1.032484,-0.015000,0.309484,0.328742,-0.262806,0.341452,0.230710,-0.626710,0.118097,-0.312968]
[0.300000,0.000000,0.000000,0.314000,0.167355,-0.349000,0.222355,1.032742,-0.019000,0.307742,0.329871,-0.263903,0.345226,0.237355,-0.635355,0.112548,-0.316484]
[0.300000,0.000000,0.000000,0.325000,0.171000,-0.349000,0.212000,1.033000,-0.023000,0.306000,0.331000,-0.265000,0.349000,0.244000,-0.644000,0.107000,-0.320000]
[0.290000,0.000000,0.000000,0.324984,0.170977,-0.349000,0.211938,1.032948,-0.023615,0.306462,0.330994,-0.265002,0.349000,0.244000,-0.644265,0.107105,-0.319707]
