callmecarrot/action_slices/13_全7.txt
[waist_yaw_joint,waist_roll_joint,waist_pitch_joint,left_shoulder_pitch_joint,left_shoulder_roll_joint,left_shoulder_yaw_joint,left_elbow_joint,left_wrist_roll_joint,left_wrist_pitch_joint,left_wrist_yaw_joint,right_shoulder_pitch_joint,right_shoulder_roll_joint,right_shoulder_yaw_joint,right_elbow_joint,right_wrist_roll_joint,right_wrist_pitch_joint,right_wrist_yaw_joint]
[0.500000,0.000000,0.000000,0.200774,0.143161,-0.218935,0.105645,0.130806,-0.015903,-0.060387,0.246452,-0.176032,0.225032,0.033355,0.089290,0.055258,0.114161]
[0.500000,0.000000,0.000000,0.209806,0.146710,-0.213516,0.087839,0.093548,-0.020774,-0.077903,0.244387,-0.173742,0.224742,0.033161,0.108677,0.045935,0.127710]
[0.500000,0.000000,0.000000,0.218839,0.150258,-0.208097,0.070032,0.056290,-0.025645,-0.095419,0.242323,-0.171452,0.224452,0.032968,0.128065,0.036613,0.141258]
[0.500000,0.000000,0.000000,0.227871,0.153806,-0.202677,0.052226,0.019032,-0.030516,-0.112935,0.240258,-0.169161,0.224161,0.032774,0.147452,0.027290,0.154806]
[0.500000,0.000000,0.000000,0.236903,0.157355,-0.197258,0.034419,-0.018226,-0.035387,-0.130452,0.238194,-0.166871,0.223871,0.032581,0.166839,0.017968,0.168355]
[0.500000,0.000000,0.000000,0.245935,0.160903,-0.191839,0.016613,-0.055484,-0.040258,-0.147968,0.236129,-0.164581,0.223581,0.032387,0.186226,0.008645,0.181903]
[0.500000,0.000000,0.000000,0.254968,0.164452,-0.186419,-0.001194,-0.092742,-0.045129,-0.165484,0.234065,-0.162290,0.223290,0.032194,0.205613,-0.000677,0.195452]
[0.500000,0.000000,0.000000,0.264000,0.168000,-0.181000,-0.019000,-0.130000,-0.050000,-0.183000,0.232000,-0.160000,0.223000,0.032000,0.225000,-0.010000,0.209000]
[0.483333,0.000000,0.000000,0.264027,0.168000,-0.180634,-0.019529,-0.129834,-0.048812,-0.182848,0.232018,-0.160018,0.223359,0.032753,0.224825,-0.011477,0.209438]
[0.466667,0.000000,0.000000,0.264000,0.168000,-0.181000,-0.020000,-0.130000,-0.048000,-0.183000,0.232000,-0.160000,0.223000,0.034000,0.225000,-0.013000,0.210000]
[0.450000,0.000000,0.000000,0.263973,0.168000,-0.181616,-0.020471,-0.130416,-0.047188,-0.183152,0.231982,-0.159982,0.222391,0.035497,0.225175,-0.014523,0.210562]
[0.433333,0.000000,0.000000,0.264000,0.168000,-0.182000,-0.021000,-0.131000,-0.046000,-0.183000,0.232000,-0.160000,0.222000,0.037000,0.225000,-0.016000,0.211000]
[0.416667,0.000000,0.000000,0.264080,0.168000,-0.181903,-0.021588,-0.131628,-0.044312,-0.182419,0.232053,-0.160054,0.222078,0.038384,0.224224,-0.017431,0.211315]
[0.400000,0.000000,0.000000,0.264000,0.168000,-0.182000,-0.022000,-0.132000,-0.043000,-0.182000,0.232000,-0.160000,0.222000,0.040000,0.223000,-0.019000,0.212000]
[0.383333,0.000000,0.000000,0.263580,0.168000,-0.182899,-0.022051,-0.131948,-0.042814,-0.182296,0.231680,-0.159678,0.221173,0.042216,0.221554,-0.020878,0.213430]
[0.366667,0.000000,0.000000,0.263000,0.168000,-0.184000,-0.022000,-0.132000,-0.043000,-0.183000,0.231000,-0.159000,0.220000,0.045000,0.220000,-0.023000,0.215000]
[0.350000,0.000000,0.000000,0.262474,0.167999,-0.184627,-0.022083,-0.132578,-0.042682,-0.183646,0.229978,-0.157986,0.218981,0.048125,0.218435,-0.025182,0.216091]
[0.333333,0.000000,0.000000,0.262000,0.168000,-0.185000,-0.022000,-0.133000,-0.042000,-0.184000,0.229000,-0.157000,0.218000,0.051000,0.217000,-0.027000,0.217000]
[0.316667,0.000000,0.000000,0.261525,0.168002,-0.185467,-0.021491,-0.132613,-0.041335,-0.183993,0.228407,-0.156380,0.216902,0.053159,0.215831,-0.028144,0.218079]
[0.300000,0.000000,0.000000,0.261000,0.168000,-0.186000,-0.021000,-0.132000,-0.041000,-0.184000,0.228000,-0.156000,0.216000,0.055000,0.215000,-0.029000,0.219000]
[0.283333,0.000000,0.000000,0.260426,0.167993,-0.186504,-0.020951,-0.131845,-0.041105,-0.184381,0.227520,-0.155620,0.215534,0.056991,0.214493,-0.029990,0.219466]
[0.266667,0.000000,0.000000,0.260000,0.168000,-0.187000,-0.021000,-0.132000,-0.041000,-0.185000,0.227000,-0.155000,0.215000,0.059000,0.214000,-0.031000,0.220000]
[0.250000,0.000000,0.000000,0.259894,0.168027,-0.187517,-0.020703,-0.132133,-0.040245,-0.185607,0.226514,-0.154015,0.213962,0.060753,0.213324,-0.031769,0.221058]
[0.233333,0.000000,0.000000,0.260000,0.168000,-0.188000,-0.020000,-0.132000,-0.040000,-0.186000,0.226000,-0.153000,0.213000,0.062000,0.213000,-0.032000,0.222000]
[0.216667,0.000000,0.000000,0.260122,0.167897,-0.188427,-0.018986,-0.131496,-0.041289,-0.186066,0.225423,-0.152322,0.212742,0.062620,0.213460,-0.031559,0.222177]
[0.200000,0.000000,0.000000,0.260000,0.168000,-0.189000,-0.018000,-0.131000,-0.043000,-0.186000,0.225000,-0.152000,0.213000,0.063000,0.214000,-0.031000,0.222000]
[0.183333,0.000000,0.000000,0.259494,0.168508,-0.189900,-0.017354,-0.130881,-0.043849,-0.186004,0.224920,-0.151949,0.213443,0.063515,0.213959,-0.030871,0.221983]
[0.166667,0.000000,0.000000,0.259000,0.169000,-0.191000,-0.017000,-0.131000,-0.044000,-0.186000,0.225000,-0.152000,0.214000,0.064000,0.214000,-0.031000,0.222000]
[0.150000,0.000000,0.000000,0.258901,0.169072,-0.192099,-0.016724,-0.131105,-0.043941,-0.185919,0.225023,-0.152009,0.214610,0.064194,0.214828,-0.031081,0.221891]
[0.133333,0.000000,0.000000,0.259000,0.169000,-0.193000,-0.016000,-0.131000,-0.044000,-0.186000,0.225000,-0.152000,0.215000,0.064000,0.216000,-0.031000,0.222000]
[0.116667,0.000000,0.000000,0.259027,0.169081,-0.193581,-0.014501,-0.130574,-0.044389,-0.186446,0.224987,-0.152017,0.214991,0.063457,0.216980,-0.030679,0.222578]
[0.100000,0.000000,0.000000,0.259000,0.169000,-0.194000,-0.013000,-0.130000,-0.045000,-0.187000,0.225000,-0.152000,0.215000,0.063000,0.218000,-0.030000,0.223000]
[0.083333,0.000000,0.000000,0.258993,0.168481,-0.194454,-0.012273,-0.129474,-0.045630,-0.187421,0.225028,-0.151922,0.215427,0.062978,0.219378,-0.028954,0.222673]
[0.066667,0.000000,0.000000,0.259000,0.168000,-0.195000,-0.012000,-0.129000,-0.046000,-0.188000,0.225000,-0.152000,0.216000,0.063000,0.221000,-0.028000,0.222000]
[0.050000,0.000000,0.000000,0.259002,0.167996,-0.195604,-0.011656,-0.128532,-0.045966,-0.188995,0.224899,-0.152418,0.216426,0.062633,0.222632,-0.027505,0.221481]
[0.033333,0.000000,0.000000,0.259000,0.168000,-0.196000,-0.011000,-0.128000,-0.046000,-0.190000,0.225000,-0.153000,0.217000,0.062000,0.224000,-0.027000,0.221000]
[0.016667,0.000000,0.000000,0.258998,0.167535,-0.196004,-0.009979,-0.127400,-0.046507,-0.190600,0.225500,-0.153529,0.217993,0.061366,0.224970,-0.026025,0.220405]
[0.000000,0.000000,0.000000,0.259000,0.167000,-0.196000,-0.009000,-0.127000,-0.047000,-0.191000,0.226000,-0.154000,0.219000,0.061000,0.226000,-0.025000,0.220000]
[0.000000,0.000000,0.000000,0.259007,0.166865,-0.196381,-0.008430,-0.126993,-0.047005,-0.191480,0.226102,-0.154465,0.219601,0.061027,0.227488,-0.024395,0.220025]
[0.000000,0.000000,0.000000,0.259000,0.167000,-0.197000,-0.008000,-0.127000,-0.047000,-0.192000,0.226000,-0.155000,0.220000,0.061000,0.229000,-0.024000,0.220000]
[0.000000,0.000000,0.000000,0.258973,0.167129,-0.197599,-0.007427,-0.126629,-0.047474,-0.192481,0.225966,-0.155610,0.220480,0.060526,0.230077,-0.023522,0.219493]
[0.000000,0.000000,0.000000,0.259000,0.167000,-0.198000,-0.007000,-0.126000,-0.048000,-0.193000,0.226000,-0.156000,0.221000,0.060000,0.231000,-0.023000,0.219000]
[0.000000,0.000000,0.000000,0.259100,0.166493,-0.198098,-0.006986,-0.125365,-0.048101,-0.193596,0.226034,-0.155971,0.221481,0.059868,0.232080,-0.022519,0.219001]
[0.000000,0.000000,0.000000,0.259000,0.166000,-0.198000,-0.007000,-0.125000,-0.048000,-0.194000,0.226000,-0.156000,0.222000,0.060000,0.233000,-0.022000,0.219000]
[0.000000,0.000000,0.000000,0.258500,0.165900,-0.197882,-0.006629,-0.125036,-0.047998,-0.194008,0.225898,-0.156508,0.222596,0.060127,0.233479,-0.021404,0.218502]
[0.000000,0.000000,0.000000,0.258000,0.166000,-0.198000,-0.006000,-0.125000,-0.048000,-0.194000,0.226000,-0.157000,0.223000,0.060000,0.234000,-0.021000,0.218000]
[0.000000,0.000000,0.000000,0.257900,0.166034,-0.198498,-0.005373,-0.124492,-0.047907,-0.194371,0.226501,-0.156999,0.223008,0.059500,0.235004,-0.020992,0.217990]
[0.000000,0.000000,0.000000,0.258000,0.166000,-0.199000,-0.005000,-0.124000,-0.048000,-0.195000,0.227000,-0.157000,0.223000,0.059000,0.236000,-0.021000,0.218000]
[0.000000,0.000000,0.000000,0.258027,0.165966,-0.199126,-0.005002,-0.123995,-0.048500,-0.195633,0.227100,-0.157498,0.223371,0.058874,0.236506,-0.020629,0.217536]
[0.000000,0.000000,0.000000,0.258000,0.166000,-0.199000,-0.005000,-0.124000,-0.049000,-0.196000,0.227000,-0.158000,0.224000,0.059000,0.237000,-0.020000,0.217000]
[0.000000,0.000000,0.000000,0.257993,0.166102,-0.198873,-0.004618,-0.123526,-0.049094,-0.195974,0.226973,-0.158010,0.224633,0.059128,0.237971,-0.019368,0.216865]
[0.000000,0.000000,0.000000,0.258000,0.166000,-0.199000,-0.004000,-0.123000,-0.049000,-0.196000,0.227000,-0.158000,0.225000,0.059000,0.239000,-0.019000,0.217000]
[0.000000,0.000000,0.000000,0.258002,0.165500,-0.199507,-0.003402,-0.122899,-0.049000,-0.196473,0.227007,-0.158464,0.224974,0.058490,0.239609,-0.019025,0.217128]
[0.000000,0.000000,0.000000,0.258000,0.165000,-0.200000,-0.003000,-0.123000,-0.049000,-0.197000,0.227000,-0.159000,0.225000,0.058000,0.240000,-0.019000,0.217000]
[0.000000,0.000000,0.000000,0.257999,0.164899,-0.200100,-0.002901,-0.123002,-0.048908,-0.197133,0.227000,-0.159136,0.225472,0.057911,0.240469,-0.018532,0.216498]
[0.000000,0.000000,0.000000,0.258000,0.165000,-0.200000,-0.003000,-0.123000,-0.049000,-0.197000,0.227000,-0.159000,0.226000,0.058000,0.241000,-0.018000,0.216000]
[0.000000,0.000000,0.000000,0.258000,0.165028,-0.199970,-0.003121,-0.123093,-0.049494,-0.196869,0.226993,-0.158869,0.226138,0.057990,0.241517,-0.017848,0.215881]
[0.000000,0.000000,0.000000,0.258000,0.165000,-0.200000,-0.003000,-0.123000,-0.050000,-0.197000,0.227000,-0.159000,0.226000,0.058000,0.242000,-0.018000,0.216000]
[0.000000,0.000000,0.000000,0.257999,0.164990,-0.200022,-0.002490,-0.122501,-0.050117,-0.197514,0.227027,-0.159513,0.225852,0.058130,0.242463,-0.018202,0.216105]
[0.000000,0.000000,0.000000,0.258000,0.165000,-0.200000,-0.002000,-0.122000,-0.050000,-0.198000,0.227000,-0.160000,0.226000,0.058000,0.243000,-0.018000,0.216000]
