callmecarrot/action_slices/14_小7.txt
[waist_yaw_joint,waist_roll_joint,waist_pitch_joint,left_shoulder_pitch_joint,left_shoulder_roll_joint,left_shoulder_yaw_joint,left_elbow_joint,left_wrist_roll_joint,left_wrist_pitch_joint,left_wrist_yaw_joint,right_shoulder_pitch_joint,right_shoulder_roll_joint,right_shoulder_yaw_joint,right_elbow_joint,right_wrist_roll_joint,right_wrist_pitch_joint,right_wrist_yaw_joint]
[0.000000,0.000000,0.000000,0.258004,0.165014,-0.199942,-0.001917,-0.121905,-0.049914,-0.198073,0.226899,-0.160079,0.226579,0.057366,0.243630,-0.017221,0.215701]
[0.000000,0.000000,0.000000,0.258000,0.165000,-0.200000,-0.002000,-0.122000,-0.050000,-0.198000,0.227000,-0.160000,0.227000,0.057000,0.244000,-0.017000,0.216000]
[0.000000,0.000000,0.000000,0.257985,0.164955,-0.200333,-0.001966,-0.122006,-0.050228,-0.198068,0.227501,-0.160046,0.226707,0.057654,0.243766,-0.018290,0.217468]
[0.000000,0.000000,0.000000,0.258000,0.165000,-0.201000,-0.002000,-0.122000,-0.050000,-0.198000,0.228000,-0.160000,0.226000,0.059000,0.243000,-0.020000,0.219000]
[0.000000,0.000000,0.000000,0.258054,0.165290,-0.201975,-0.002343,-0.122198,-0.048800,-0.197528,0.228099,-0.159613,0.225344,0.060516,0.241933,-0.020992,0.219428]
[0.000000,0.000000,0.000000,0.258000,0.166000,-0.203000,-0.003000,-0.123000,-0.047000,-0.197000,0.228000,-0.159000,0.225000,0.062000,0.241000,-0.022000,0.219000]
[0.000000,0.000000,0.000000,0.257672,0.167261,-0.203892,-0.003912,-0.124701,-0.045071,-0.196694,0.227980,-0.158376,0.225042,0.063408,0.240504,-0.023865,0.218319]
[0.000000,0.000000,0.000000,0.257000,0.169000,-0.205000,-0.005000,-0.127000,-0.043000,-0.196000,0.228000,-0.158000,0.225000,0.065000,0.240000,-0.026000,0.218000]
[0.000000,0.000000,0.000000,0.256007,0.171040,-0.206580,-0.006135,-0.129496,-0.040791,-0.194447,0.227980,-0.158007,0.224489,0.066979,0.239051,-0.027673,0.218421]
[0.000000,0.000000,0.000000,0.255000,0.173000,-0.208000,-0.007000,-0.132000,-0.039000,-0.193000,0.228000,-0.158000,0.224000,0.069000,0.238000,-0.029000,0.219000]
[0.000000,0.000000,0.000000,0.254299,0.174577,-0.208662,-0.007299,-0.134315,-0.038140,-0.192644,0.228099,-0.157597,0.224003,0.070677,0.237293,-0.030191,0.219123]
[0.000000,0.000000,0.000000,0.254000,0.176000,-0.209000,-0.007000,-0.136000,-0.038000,-0.193000,0.228000,-0.157000,0.224000,0.072000,0.237000,-0.031000,0.219000]
[0.000000,0.000000,0.000000,0.254046,0.177527,-0.209523,-0.006171,-0.136743,-0.038272,-0.193477,0.227500,-0.156481,0.223499,0.073061,0.237027,-0.031186,0.218962]
[0.000000,0.000000,0.000000,0.254000,0.179000,-0.210000,-0.005000,-0.137000,-0.039000,-0.194000,0.227000,-0.156000,0.223000,0.074000,0.237000,-0.031000,0.219000]
[0.000000,0.000000,0.000000,0.253516,0.180192,-0.210121,-0.003769,-0.137340,-0.040146,-0.194573,0.226901,-0.155480,0.223000,0.074952,0.236599,-0.030815,0.219029]
[0.000000,0.000000,0.000000,0.253000,0.181000,-0.210000,-0.003000,-0.138000,-0.041000,-0.195000,0.227000,-0.155000,0.223000,0.076000,0.236000,-0.031000,0.219000]
[0.000000,0.000000,0.000000,0.252888,0.181456,-0.209867,-0.003002,-0.139024,-0.041020,-0.195107,0.227019,-0.154598,0.222502,0.077130,0.235453,-0.031679,0.218922]
[0.000000,0.000000,0.000000,0.253000,0.182000,-0.210000,-0.003000,-0.140000,-0.041000,-0.195000,0.227000,-0.154000,0.222000,0.078000,0.235000,-0.032000,0.219000]
[0.000000,0.000000,0.000000,0.253055,0.182984,-0.210535,-0.002221,-0.140563,-0.041774,-0.194876,0.227021,-0.153001,0.221992,0.078403,0.234588,-0.031345,0.219409]
[0.000000,0.000000,0.000000,0.253000,0.184000,-0.211000,-0.001000,-0.141000,-0.043000,-0.195000,0.227000,-0.152000,0.222000,0.079000,0.234000,-0.031000,0.220000]
[0.000000,0.000000,0.000000,0.252891,0.184607,-0.210994,0.000138,-0.141599,-0.044134,-0.195514,0.226896,-0.151397,0.221530,0.080384,0.233070,-0.032193,0.220568]
[0.000000,0.000000,0.000000,0.253000,0.185000,-0.211000,0.001000,-0.142000,-0.045000,-0.196000,0.227000,-0.151000,0.221000,0.082000,0.232000,-0.034000,0.221000]
[0.000000,0.000000,0.000000,0.253504,0.185463,-0.211491,0.001545,-0.141915,-0.045564,-0.196067,0.227521,-0.150534,0.220890,0.083186,0.231006,-0.035258,0.221193]
[0.000000,0.000000,0.000000,0.254000,0.186000,-0.212000,0.002000,-0.142000,-0.046000,-0.196000,0.228000,-0.150000,0.221000,0.084000,0.230000,-0.036000,0.221000]
[0.000000,0.000000,0.000000,0.254092,0.186540,-0.212043,0.002558,-0.142867,-0.046486,-0.196094,0.228019,-0.149466,0.221037,0.084620,0.228906,-0.036525,0.220408]
[0.000000,0.000000,0.000000,0.254000,0.187000,-0.212000,0.003000,-0.144000,-0.047000,-0.196000,0.228000,-0.149000,0.221000,0.085000,0.228000,-0.037000,0.220000]
[0.000000,0.000000,0.000000,0.254002,0.187378,-0.212338,0.003224,-0.144741,-0.047619,-0.195434,0.228401,-0.148603,0.220964,0.085083,0.227494,-0.037518,0.220299]
[0.000000,0.000000,0.000000,0.254000,0.188000,-0.213000,0.004000,-0.145000,-0.049000,-0.195000,0.229000,-0.148000,0.221000,0.085000,0.227000,-0.038000,0.221000]
[0.000000,0.000000,0.000000,0.253899,0.189072,-0.213729,0.005920,-0.144918,-0.051538,-0.195297,0.229502,-0.146998,0.221108,0.084922,0.226119,-0.038403,0.221645]
[0.000000,0.000000,0.000000,0.254000,0.190000,-0.214000,0.008000,-0.145000,-0.054000,-0.196000,0.230000,-0.146000,0.221000,0.085000,0.225000,-0.039000,0.222000]
[0.000000,0.000000,0.000000,0.254527,0.190208,-0.213497,0.009219,-0.145588,-0.055230,-0.196628,0.230591,-0.145405,0.220480,0.085353,0.223906,-0.039994,0.221995]
[0.000000,0.000000,0.000000,0.255000,0.190000,-0.213000,0.010000,-0.146000,-0.056000,-0.197000,0.231000,-0.145000,0.220000,0.086000,0.223000,-0.041000,0.222000]
[0.000000,0.000000,0.000000,0.254995,0.189844,-0.213282,0.010952,-0.145604,-0.057292,-0.197066,0.231007,-0.144508,0.219973,0.086915,0.222382,-0.041619,0.222374]
[0.000000,0.000000,0.000000,0.255000,0.190000,-0.214000,0.012000,-0.145000,-0.059000,-0.197000,0.231000,-0.144000,0.220000,0.088000,0.222000,-0.042000,0.223000]
[0.000000,0.000000,0.000000,0.255495,0.190539,-0.214625,0.012974,-0.144870,-0.060727,-0.196982,0.231380,-0.143564,0.219627,0.089111,0.221692,-0.042404,0.223632]
[0.000000,0.000000,0.000000,0.256000,0.191000,-0.215000,0.014000,-0.145000,-0.062000,-0.197000,0.232000,-0.143000,0.219000,0.090000,0.221000,-0.043000,0.224000]
[0.000000,0.000000,0.000000,0.256027,0.190998,-0.215093,0.015154,-0.145040,-0.062549,-0.197005,0.232599,-0.142110,0.218392,0.090514,0.219599,-0.043891,0.223972]
[0.000000,0.000000,0.000000,0.256000,0.191000,-0.215000,0.016000,-0.145000,-0.063000,-0.197000,0.233000,-0.141000,0.218000,0.091000,0.218000,-0.045000,0.224000]
[0.000000,0.000000,0.000000,0.256399,0.191468,-0.214877,0.016160,-0.144971,-0.063952,-0.196997,0.233101,-0.139872,0.217930,0.091832,0.216788,-0.046158,0.224479]
[0.000000,0.000000,0.000000,0.257000,0.192000,-0.215000,0.016000,-0.145000,-0.065000,-0.197000,0.233000,-0.139000,0.218000,0.093000,0.216000,-0.047000,0.225000]
[0.000000,0.000000,0.000000,0.257502,0.192129,-0.215524,0.015956,-0.145076,-0.065644,-0.197008,0.232873,-0.138529,0.218014,0.094284,0.215499,-0.047229,0.225111]
[0.000000,0.000000,0.000000,0.258000,0.192000,-0.216000,0.016000,-0.145000,-0.066000,-0.197000,0.233000,-0.138000,0.218000,0.095000,0.215000,-0.047000,0.225000]
[0.000000,0.000000,0.000000,0.258592,0.191892,-0.216026,0.016017,-0.144601,-0.066348,-0.196973,0.233532,-0.137014,0.218015,0.094658,0.214340,-0.046553,0.224951]
[0.000000,0.000000,0.000000,0.259000,0.192000,-0.216000,0.016000,-0.144000,-0.067000,-0.197000,0.234000,-0.136000,0.218000,0.094000,0.214000,-0.046000,0.225000]
[0.000000,0.000000,0.000000,0.259006,0.192428,-0.216371,0.015977,-0.143397,-0.068090,-0.197102,0.233997,-0.135417,0.217926,0.093836,0.214390,-0.045434,0.225083]
[0.000000,0.000000,0.000000,0.259000,0.193000,-0.217000,0.016000,-0.143000,-0.069000,-0.197000,0.234000,-0.135000,0.218000,0.094000,0.215000,-0.045000,0.225000]
[0.000000,0.000000,0.000000,0.259385,0.193520,-0.217615,0.016074,-0.142937,-0.069169,-0.196495,0.234478,-0.134443,0.218407,0.094124,0.215223,-0.044836,0.224591]
[0.000000,0.000000,0.000000,0.260000,0.194000,-0.218000,0.016000,-0.143000,-0.069000,-0.196000,0.235000,-0.134000,0.219000,0.094000,0.215000,-0.045000,0.224000]
[0.000000,0.000000,0.000000,0.260580,0.194493,-0.218045,0.015600,-0.142979,-0.068985,-0.195918,0.235091,-0.133936,0.219573,0.093542,0.214467,-0.045471,0.223428]
[0.000000,0.000000,0.000000,0.261000,0.195000,-0.218000,0.015000,-0.143000,-0.069000,-0.196000,0.235000,-0.134000,0.220000,0.093000,0.214000,-0.046000,0.223000]
[0.000000,0.000000,0.000000,0.261170,0.195507,-0.218205,0.014400,-0.143271,-0.068765,-0.195832,0.235159,-0.133814,0.220177,0.092708,0.214033,-0.046279,0.222822]
[0.000000,0.000000,0.000000,0.261000,0.196000,-0.219000,0.014000,-0.144000,-0.068000,-0.195000,0.236000,-0.133000,0.220000,0.093000,0.215000,-0.046000,0.223000]
[0.000000,0.000000,0.000000,0.263839,0.193452,-0.223194,0.022903,-0.104645,-0.069290,-0.177548,0.237613,-0.138581,0.222710,0.095968,0.190871,-0.040742,0.204161]
[0.000000,0.000000,0.000000,0.266677,0.190903,-0.227387,0.031806,-0.065290,-0.070581,-0.160097,0.239226,-0.144161,0.225419,0.098935,0.166742,-0.035484,0.185323]
[0.000000,0.000000,0.000000,0.269516,0.188355,-0.231581,0.040710,-0.025935,-0.071871,-0.142645,0.240839,-0.149742,0.228129,0.101903,0.142613,-0.030226,0.166484]
[0.000000,0.000000,0.000000,0.272355,0.185806,-0.235774,0.049613,0.013419,-0.073161,-0.125194,0.242452,-0.155323,0.230839,0.104871,0.118484,-0.024968,0.147645]
[0.000000,0.000000,0.000000,0.275194,0.183258,-0.239968,0.058516,0.052774,-0.074452,-0.107742,0.244065,-0.160903,0.233548,0.107839,0.094355,-0.019710,0.128806]
[0.000000,0.000000,0.000000,0.278032,0.180710,-0.244161,0.067419,0.092129,-0.075742,-0.090290,0.245677,-0.166484,0.236258,0.110806,0.070226,-0.014452,0.109968]
[0.000000,0.000000,0.000000,0.280871,0.178161,-0.248355,0.076323,0.131484,-0.077032,-0.072839,0.247290,-0.172065,0.238968,0.113774,0.046097,-0.009194,0.091129]
[0.000000,0.000000,0.000000,0.283710,0.175613,-0.252548,0.085226,0.170839,-0.078323,-0.055387,0.248903,-0.177645,0.241677,0.116742,0.021968,-0.003935,0.072290]
[0.000000,0.000000,0.000000,0.286548,0.173065,-0.256742,0.094129,0.210194,-0.079613,-0.037935,0.250516,-0.183226,0.244387,0.119710,-0.002161,0.001323,0.053452]
[0.000000,0.000000,0.000000,0.289387,0.170516,-0.260935,0.103032,0.249548,-0.080903,-0.020484,0.252129,-0.188806,0.247097,0.122677,-0.026290,0.006581,0.034613]
[0.000000,0.000000,0.000000,0.292226,0.167968,-0.265129,0.111935,0.288903,-0.082194,-0.003032,0.253742,-0.194387,0.249806,0.125645,-0.050419,0.011839,0.015774]
[0.000000,0.000000,0.000000,0.295065,0.165419,-0.269323,0.120839,0.328258,-0.083484,0.014419,0.255355,-0.199968,0.252516,0.128613,-0.074548,0.017097,-0.003065]
[0.000000,0.000000,0.000000,0.297903,0.162871,-0.273516,0.129742,0.367613,-0.084774,0.031871,0.256968,-0.205548,0.255226,0.131581,-0.098677,0.022355,-0.021903]
[0.000000,0.000000,0.000000,0.300742,0.160323,-0.277710,0.138645,0.406968,-0.086065,0.049323,0.258581,-0.211129,0.257935,0.134548,-0.122806,0.027613,-0.040742]
[0.000000,0.000000,0.000000,0.303581,0.157774,-0.281903,0.147548,0.446323,-0.087355,0.066774,0.260194,-0.216710,0.260645,0.137516,-0.146935,0.032871,-0.059581]
[0.000000,0.000000,0.000000,0.306419,0.155226,-0.286097,0.156452,0.485677,-0.088645,0.084226,0.261806,-0.222290,0.263355,0.140484,-0.171065,0.038129,-0.078419]
[0.000000,0.000000,0.000000,0.309258,0.152677,-0.290290,0.165355,0.525032,-0.089935,0.101677,0.263419,-0.227871,0.266065,0.143452,-0.195194,0.043387,-0.097258]
[0.000000,0.000000,0.000000,0.312097,0.150129,-0.294484,0.174258,0.564387,-0.091226,0.119129,0.265032,-0.233452,0.268774,0.146419,-0.219323,0.048645,-0.116097]
[0.000000,0.000000,0.000000,0.314935,0.147581,-0.298677,0.183161,0.603742,-0.092516,0.136581,0.266645,-0.239032,0.271484,0.149387,-0.243452,0.053903,-0.134935]
[0.000000,0.000000,0.000000,0.317774,0.145032,-0.302871,0.192065,0.643097,-0.093806,0.154032,0.268258,-0.244613,0.274194,0.152355,-0.267581,0.059161,-0.153774]
[0.000000,0.000000,0.000000,0.320613,0.142484,-0.307065,0.200968,0.682452,-0.095097,0.171484,0.269871,-0.250194,0.276903,0.155323,-0.291710,0.064419,-0.172613]
[0.000000,0.000000,0.000000,0.323452,0.139935,-0.311258,0.209871,0.721806,-0.096387,0.188935,0.271484,-0.255774,0.279613,0.158290,-0.315839,0.069677,-0.191452]
[0.000000,0.000000,0.000000,0.326290,0.137387,-0.315452,0.218774,0.761161,-0.097677,0.206387,0.273097,-0.261355,0.282323,0.161258,-0.339968,0.074935,-0.210290]
[0.000000,0.000000,0.000000,0.329129,0.134839,-0.319645,0.227677,0.800516,-0.098968,0.223839,0.274710,-0.266935,0.285032,0.164226,-0.364097,0.080194,-0.229129]
[0.000000,0.000000,0.000000,0.331968,0.132290,-0.323839,0.236581,0.839871,-0.100258,0.241290,0.276323,-0.272516,0.287742,0.167194,-0.388226,0.085452,-0.247968]
[0.000000,0.000000,0.000000,0.334806,0.129742,-0.328032,0.245484,0.879226,-0.101548,0.258742,0.277935,-0.278097,0.290452,0.170161,-0.412355,0.090710,-0.266806]
[0.000000,0.000000,0.000000,0.337645,0.127194,-0.332226,0.254387,0.918581,-0.102839,0.276194,0.279548,-0.283677,0.293161,0.173129,-0.436484,0.095968,-0.285645]
[0.000000,0.000000,0.000000,0.340484,0.124645,-0.336419,0.263290,0.957935,-0.104129,0.293645,0.281161,-0.289258,0.295871,0.176097,-0.460613,0.101226,-0.304484]
[0.000000,0.000000,0.000000,0.343323,0.122097,-0.340613,0.272194,0.997290,-0.105419,0.311097,0.282774,-0.294839,0.298581,0.179065,-0.484742,0.106484,-0.323323]
[0.000000,0.000000,0.000000,0.346161,0.119548,-0.344806,0.281097,1.036645,-0.106710,0.328548,0.284387,-0.300419,0.301290,0.182032,-0.508871,0.111742,-0.342161]
[0.000000,0.000000,0.000000,0.349000,0.117000,-0.349000,0.290000,1.076000,-0.108000,0.346000,0.286000,-0.306000,0.304000,0.185000,-0.533000,0.117000,-0.361000]
[0.000000,0.000000,0.000000,0.350938,0.118467,-0.349000,0.284186,1.072950,-0.108669,0.346815,0.268201,-0.294012,0.305063,0.188840,-0.539512,0.121776,-0.356230]
[0.000000,0.000000,0.000000,0.353198,0.120375,-0.349000,0.278345,1.070067,-0.108953,0.347539,0.248879,-0.282812,0.306640,0.193797,-0.546521,0.127951,-0.350654]
[0.000000,0.000000,0.000000,0.355671,0.122624,-0.349000,0.272415,1.067255,-0.108996,0.348149,0.228528,-0.272253,0.308513,0.199612,-0.554049,0.134872,-0.344197]
[0.000000,0.000000,0.000000,0.358249,0.125114,-0.349000,0.266335,1.064418,-0.108944,0.348618,0.207639,-0.262191,0.310462,0.206027,-0.562117,0.141888,-0.336784]
[0.000000,0.000000,0.000000,0.360824,0.127745,-0.349000,0.260043,1.061459,-0.108942,0.348922,0.186703,-0.252479,0.312265,0.212784,-0.570748,0.148346,-0.328340]
[0.000000,0.000000,0.000000,0.363295,0.130417,-0.349000,0.253489,1.058288,-0.109121,0.349038,0.166198,-0.242979,0.313716,0.219634,-0.579954,0.153619,-0.318809]
[0.000000,0.000000,0.000000,0.365741,0.133038,-0.349000,0.246802,1.054958,-0.109324,0.349021,0.146300,-0.233696,0.314823,0.226515,-0.589533,0.157566,-0.308504]
[0.000000,0.000000,0.000000,0.368407,0.135519,-0.349000,0.240282,1.051654,-0.109128,0.348995,0.126906,-0.224766,0.315798,0.233538,-0.599089,0.160497,-0.298081]
[0.000000,0.000000,0.000000,0.371494,0.137793,-0.349000,0.234187,1.048542,-0.108171,0.349060,0.107934,-0.216308,0.316834,0.240795,-0.608262,0.162755,-0.288132]
[0.000000,0.000000,0.000000,0.374858,0.139947,-0.349000,0.228402,1.045625,-0.106624,0.349119,0.089532,-0.208272,0.317947,0.248166,-0.617028,0.164804,-0.278667]
[0.000000,0.000000,0.000000,0.378198,0.142138,-0.349000,0.222643,1.042831,-0.104897,0.348983,0.071952,-0.200532,0.319068,0.255438,-0.625514,0.167163,-0.269437]
[0.000000,0.000000,0.000000,0.381287,0.144443,-0.349000,0.216789,1.040122,-0.103253,0.348509,0.055336,-0.193003,0.320153,0.262412,-0.633800,0.170178,-0.260191]
[0.000000,0.000000,0.000000,0.384154,0.146670,-0.349000,0.211265,1.037574,-0.101460,0.347706,0.039448,-0.185725,0.321240,0.268934,-0.641812,0.173619,-0.250679]
[0.000000,0.000000,0.000000,0.386879,0.148572,-0.349000,0.206602,1.035286,-0.099187,0.346613,0.023976,-0.178767,0.322381,0.274863,-0.649444,0.177137,-0.240660]
[0.000000,0.000000,0.000000,0.389505,0.150086,-0.349000,0.202989,1.033198,-0.096350,0.345156,0.008769,-0.172116,0.323554,0.280185,-0.656631,0.180512,-0.230222]
[0.000000,0.000000,0.000000,0.392014,0.151438,-0.349000,0.200078,1.031003,-0.093257,0.343084,-0.006074,-0.165633,0.324626,0.285079,-0.663374,0.183730,-0.219976]
[0.000000,0.000000,0.000000,0.394386,0.152861,-0.349000,0.197481,1.028394,-0.090243,0.340175,-0.020433,-0.159180,0.325463,0.289747,-0.669702,0.186788,-0.210544]
[0.000000,0.000000,0.000000,0.396616,0.154372,-0.349000,0.194958,1.025421,-0.087534,0.336897,-0.034185,-0.152830,0.326136,0.294403,-0.675997,0.189542,-0.202024]
[0.000000,0.000000,0.000000,0.398711,0.155810,-0.349000,0.192380,1.022413,-0.085277,0.334264,-0.047207,-0.146817,0.326875,0.299273,-0.682921,0.191745,-0.194102]
[0.000000,0.000000,0.000000,0.400679,0.157041,-0.349000,0.189669,1.019658,-0.083534,0.333068,-0.059421,-0.141333,0.327869,0.304508,-0.690944,0.193245,-0.186461]
[0.000000,0.000000,0.000000,0.402512,0.158108,-0.349000,0.187025,1.017134,-0.081874,0.332659,-0.071040,-0.136270,0.329021,0.309770,-0.699319,0.194514,-0.178845]
[0.000000,0.000000,0.000000,0.404198,0.159126,-0.349000,0.184752,1.014703,-0.079683,0.331837,-0.082385,-0.131408,0.330126,0.314540,-0.706834,0.196264,-0.171024]
[0.000000,0.000000,0.000000,0.405737,0.160181,-0.349000,0.183032,1.012310,-0.076619,0.329812,-0.093637,-0.126592,0.331028,0.318512,-0.712786,0.198911,-0.162838]
[0.000000,0.000000,0.000000,0.407164,0.161291,-0.349000,0.181709,1.010132,-0.073117,0.326939,-0.104578,-0.121846,0.331702,0.321970,-0.717887,0.202059,-0.154332]
[0.000000,0.000000,0.000000,0.408521,0.162460,-0.349000,0.180565,1.008383,-0.069736,0.323769,-0.114927,-0.117228,0.332146,0.325297,-0.723077,0.205174,-0.145586]
[0.000000,0.000000,0.000000,0.409891,0.163634,-0.349000,0.179465,1.007006,-0.066732,0.320692,-0.124615,-0.112767,0.332449,0.328656,-0.728683,0.208055,-0.136733]
[0.000000,0.000000,0.000000,0.411412,0.164687,-0.349000,0.178378,1.005584,-0.063948,0.317883,-0.133856,-0.108459,0.332818,0.331919,-0.734206,0.210945,-0.127977]
[0.000000,0.000000,0.000000,0.413202,0.165503,-0.349000,0.177283,1.003714,-0.061216,0.315479,-0.142869,-0.104299,0.333444,0.334950,-0.739144,0.214079,-0.119516]
[0.000000,0.000000,0.000000,0.415126,0.166173,-0.349000,0.176181,1.001455,-0.058570,0.313349,-0.151707,-0.100263,0.334245,0.337823,-0.743706,0.217222,-0.111410]
[0.000000,0.000000,0.000000,0.416875,0.166928,-0.349000,0.175088,0.999175,-0.056179,0.311187,-0.160310,-0.096319,0.334954,0.340752,-0.748569,0.219828,-0.103623]
[0.000000,0.000000,0.000000,0.418205,0.167942,-0.349000,0.174013,0.997180,-0.054164,0.308786,-0.168625,-0.092457,0.335374,0.343908,-0.754237,0.221476,-0.096115]
[0.000000,0.000000,0.000000,0.419231,0.169099,-0.349000,0.172926,0.995406,-0.052399,0.306474,-0.176651,-0.088777,0.335665,0.347238,-0.760285,0.222421,-0.088828]
[0.000000,0.000000,0.000000,0.420178,0.170185,-0.349000,0.171784,0.993678,-0.050678,0.304750,-0.184404,-0.085411,0.336104,0.350619,-0.765990,0.223135,-0.081700]
[0.000000,0.000000,0.000000,0.421209,0.171055,-0.349000,0.170599,0.991877,-0.048951,0.303917,-0.191896,-0.082401,0.336822,0.353959,-0.770948,0.223915,-0.074763]
[0.000000,0.000000,0.000000,0.422339,0.171715,-0.349000,0.169507,0.990026,-0.047526,0.303820,-0.199127,-0.079565,0.337619,0.357231,-0.775502,0.224661,-0.068276]
[0.000000,0.000000,0.000000,0.423556,0.172196,-0.349000,0.168658,0.988171,-0.046746,0.304237,-0.206097,-0.076697,0.338249,0.360420,-0.780083,0.225219,-0.062524]
[0.000000,0.000000,0.000000,0.424765,0.172557,-0.349000,0.168143,0.986473,-0.046508,0.304957,-0.212799,-0.073740,0.338641,0.363467,-0.784713,0.225578,-0.057560]
[0.000000,0.000000,0.000000,0.425776,0.172895,-0.349000,0.167980,0.985229,-0.046194,0.305776,-0.219219,-0.070813,0.338921,0.366263,-0.788935,0.225894,-0.053177]
[0.000000,0.000000,0.000000,0.426414,0.173291,-0.349000,0.168170,0.984685,-0.045226,0.306513,-0.225349,-0.068036,0.339218,0.368713,-0.792301,0.226328,-0.049166]
[0.000000,0.000000,0.000000,0.426751,0.173699,-0.349000,0.168578,0.984503,-0.043686,0.307197,-0.231220,-0.065449,0.339575,0.370890,-0.794648,0.226993,-0.045459]
[0.000000,0.000000,0.000000,0.426995,0.173996,-0.349000,0.168993,0.984018,-0.042032,0.307982,-0.236886,-0.063047,0.339991,0.372958,-0.795983,0.227976,-0.042066]
[0.000000,0.000000,0.000000,0.427314,0.174095,-0.349000,0.169275,0.982760,-0.040649,0.308977,-0.242408,-0.060809,0.340444,0.375016,-0.796428,0.229316,-0.038932]
[0.000000,0.000000,0.000000,0.427700,0.174057,-0.349000,0.169589,0.981118,-0.039595,0.310115,-0.247867,-0.058647,0.340830,0.376880,-0.796598,0.230849,-0.035723]
[0.000000,0.000000,0.000000,0.428095,0.173984,-0.349000,0.170184,0.979708,-0.038842,0.311283,-0.253349,-0.056455,0.341023,0.378290,-0.797238,0.232356,-0.032031]
[0.000000,0.000000,0.000000,0.428465,0.173950,-0.349000,0.171074,0.978848,-0.038353,0.312405,-0.258880,-0.054204,0.341004,0.379158,-0.798563,0.233750,-0.027809]
[0.000000,0.000000,0.000000,0.428824,0.173969,-0.349000,0.171828,0.978276,-0.038076,0.313484,-0.264364,-0.052011,0.340963,0.379735,-0.799752,0.235205,-0.023724]
[0.000000,0.000000,0.000000,0.429186,0.174047,-0.349000,0.171981,0.977670,-0.037954,0.314533,-0.269695,-0.050007,0.341107,0.380306,-0.799900,0.236910,-0.020496]
[0.000000,0.000000,0.000000,0.429556,0.174118,-0.349000,0.171559,0.976929,-0.037939,0.315591,-0.274849,-0.048185,0.341467,0.381001,-0.798883,0.238815,-0.018225]
[0.000000,0.000000,0.000000,0.429920,0.174049,-0.349000,0.171067,0.976163,-0.037986,0.316727,-0.279881,-0.046408,0.341906,0.381806,-0.797347,0.240634,-0.016402]
[0.000000,0.000000,0.000000,0.430271,0.173731,-0.349000,0.170977,0.975471,-0.038048,0.318004,-0.284836,-0.044553,0.342294,0.382708,-0.795914,0.242101,-0.014553]
[0.000000,0.000000,0.000000,0.430626,0.173296,-0.349000,0.171347,0.974787,-0.038070,0.319449,-0.289643,-0.042680,0.342639,0.383763,-0.794789,0.243199,-0.012663]
[0.000000,0.000000,0.000000,0.431017,0.172993,-0.349000,0.172032,0.973962,-0.037994,0.321070,-0.294178,-0.040933,0.343017,0.385059,-0.793973,0.244030,-0.010935]
[0.000000,0.000000,0.000000,0.431449,0.172973,-0.349000,0.172872,0.972910,-0.037770,0.322800,-0.298368,-0.039403,0.343459,0.386606,-0.793451,0.244712,-0.009482]
[0.000000,0.000000,0.000000,0.431829,0.173042,-0.349000,0.173638,0.971761,-0.037378,0.324302,-0.302320,-0.037989,0.343845,0.388131,-0.793141,0.245411,-0.008086]
[0.000000,0.000000,0.000000,0.432041,0.172933,-0.349000,0.174093,0.970689,-0.036805,0.325181,-0.306180,-0.036548,0.344025,0.389303,-0.792947,0.246303,-0.006463]
[0.000000,0.000000,0.000000,0.432060,0.172559,-0.349000,0.174162,0.969713,-0.036083,0.325327,-0.309982,-0.035037,0.343987,0.390040,-0.792734,0.247421,-0.004557]
[0.000000,0.000000,0.000000,0.432010,0.172136,-0.349000,0.174048,0.968591,-0.035316,0.325106,-0.313570,-0.033577,0.343953,0.390671,-0.792302,0.248561,-0.002694]
[0.000000,0.000000,0.000000,0.432016,0.171896,-0.349000,0.173971,0.967075,-0.034614,0.324921,-0.316785,-0.032295,0.344151,0.391545,-0.791465,0.249507,-0.001220]
[0.000000,0.000000,0.000000,0.432066,0.171881,-0.349000,0.173983,0.965213,-0.034115,0.325081,-0.319688,-0.031194,0.344561,0.392683,-0.790311,0.250237,-0.000137]
[0.000000,0.000000,0.000000,0.432025,0.171981,-0.349000,0.174002,0.963297,-0.033977,0.325811,-0.322526,-0.030168,0.344954,0.393830,-0.789164,0.250891,0.000833]
[0.000000,0.000000,0.000000,0.431781,0.172082,-0.349000,0.173961,0.961593,-0.034329,0.327274,-0.325501,-0.029120,0.345128,0.394758,-0.788298,0.251593,0.001929]
[0.000000,0.000000,0.000000,0.431387,0.172104,-0.349000,0.173926,0.960139,-0.035093,0.329210,-0.328496,-0.028024,0.345103,0.395469,-0.787627,0.252339,0.003080]
[0.000000,0.000000,0.000000,0.430958,0.171978,-0.349000,0.174019,0.958879,-0.036111,0.331192,-0.331265,-0.026881,0.344987,0.396057,-0.786919,0.253073,0.004091]
[0.000000,0.000000,0.000000,0.430578,0.171674,-0.349000,0.174311,0.957752,-0.037170,0.332827,-0.333650,-0.025717,0.344885,0.396635,-0.785997,0.253767,0.004788]
[0.000000,0.000000,0.000000,0.430226,0.171267,-0.349000,0.174724,0.956683,-0.037896,0.333823,-0.335751,-0.024617,0.344894,0.397371,-0.784844,0.254490,0.005073]
[0.000000,0.000000,0.000000,0.429864,0.170853,-0.349000,0.175153,0.955592,-0.037891,0.333913,-0.337713,-0.023680,0.345106,0.398442,-0.783472,0.255322,0.004860]
[0.000000,0.000000,0.000000,0.429484,0.170479,-0.349000,0.175538,0.954465,-0.037037,0.333073,-0.339606,-0.022922,0.345500,0.399865,-0.781964,0.256202,0.004199]
[0.000000,0.000000,0.000000,0.429121,0.170128,-0.349000,0.175882,0.953375,-0.035609,0.331620,-0.341385,-0.022248,0.345894,0.401432,-0.780494,0.256865,0.003325]
[0.000000,0.000000,0.000000,0.428808,0.169776,-0.349000,0.176197,0.952402,-0.033913,0.329911,-0.343005,-0.021557,0.346105,0.402923,-0.779231,0.257066,0.002476]
[0.000000,0.000000,0.000000,0.428490,0.169414,-0.349000,0.176530,0.951609,-0.032285,0.328477,-0.344478,-0.020825,0.346113,0.404149,-0.778155,0.256956,0.001734]
[0.000000,0.000000,0.000000,0.428055,0.169039,-0.349000,0.176949,0.951043,-0.031084,0.327973,-0.345862,-0.020076,0.346013,0.404949,-0.777111,0.256974,0.001065]
[0.000000,0.000000,0.000000,0.427418,0.168654,-0.349000,0.177519,0.950785,-0.030627,0.328901,-0.347219,-0.019333,0.345901,0.405213,-0.775943,0.257470,0.000428]
[0.000000,0.000000,0.000000,0.426650,0.168281,-0.349000,0.178255,0.951088,-0.031012,0.330922,-0.348654,-0.018602,0.345878,0.405129,-0.774507,0.258294,-0.000276]
[0.000000,0.000000,0.000000,0.425879,0.167950,-0.349000,0.179159,0.952264,-0.032264,0.333413,-0.350284,-0.017884,0.346044,0.404983,-0.772666,0.259123,-0.001161]
[0.000000,0.000000,0.000000,0.425173,0.167651,-0.349000,0.180211,0.954360,-0.034282,0.335932,-0.352213,-0.017170,0.346419,0.404808,-0.770272,0.259940,-0.002108]
[0.000000,0.000000,0.000000,0.424454,0.167285,-0.349000,0.181345,0.956763,-0.036658,0.338490,-0.354505,-0.016438,0.346829,0.404006,-0.767163,0.261475,-0.002415]
[0.000000,0.000000,0.000000,0.423626,0.166738,-0.349000,0.182486,0.958777,-0.038945,0.341162,-0.357217,-0.015660,0.347073,0.401908,-0.763175,0.264546,-0.001325]
[0.000000,0.000000,0.000000,0.422622,0.166009,-0.349000,0.183595,0.960223,-0.041039,0.343867,-0.360354,-0.014871,0.347098,0.398583,-0.758316,0.269040,0.000897]
[0.000000,0.000000,0.000000,0.421414,0.165228,-0.349000,0.184675,0.961546,-0.043249,0.346335,-0.363862,-0.014177,0.347023,0.394995,-0.752791,0.273727,0.002749]
[0.000000,0.000000,0.000000,0.419974,0.164518,-0.349000,0.185749,0.963198,-0.045889,0.348360,-0.367676,-0.013674,0.346970,0.392045,-0.746784,0.277457,0.002839]
[0.000000,0.000000,0.000000,0.418232,0.163836,-0.349000,0.187044,0.965325,-0.049081,0.350511,-0.371703,-0.013326,0.346971,0.389438,-0.740106,0.280678,0.001695]
[0.000000,0.000000,0.000000,0.416097,0.163037,-0.349000,0.188907,0.967887,-0.052835,0.353825,-0.375831,-0.013014,0.346999,0.386163,-0.732346,0.284793,0.000995]
[0.000000,0.000000,0.000000,0.413505,0.162021,-0.349000,0.191559,0.970802,-0.057016,0.358921,-0.379953,-0.012646,0.347028,0.381496,-0.723232,0.290797,0.001935]
[0.000000,0.000000,0.000000,0.410521,0.160879,-0.349000,0.194643,0.973807,-0.060857,0.364504,-0.383985,-0.012262,0.347032,0.376075,-0.713142,0.297797,0.003471]
[0.000000,0.000000,0.000000,0.407244,0.159757,-0.349000,0.197639,0.976590,-0.063417,0.368745,-0.387849,-0.011935,0.346983,0.370915,-0.702632,0.304367,0.003927]
[0.000000,0.000000,0.000000,0.403740,0.158712,-0.349000,0.200263,0.978968,-0.064375,0.370752,-0.391441,-0.011665,0.346905,0.366516,-0.692075,0.309831,0.002757]
[0.000000,0.000000,0.000000,0.400002,0.157621,-0.349000,0.202722,0.981030,-0.064706,0.371595,-0.394604,-0.011290,0.346916,0.362305,-0.681459,0.315069,0.001764]
[0.000000,0.000000,0.000000,0.396015,0.156345,-0.349000,0.205280,0.982899,-0.065512,0.372557,-0.397175,-0.010640,0.347145,0.357587,-0.670723,0.321123,0.002973]
[0.000000,0.000000,0.000000,0.391751,0.154879,-0.349000,0.208091,0.984694,-0.067040,0.374212,-0.398999,-0.009799,0.347553,0.352030,-0.659825,0.328283,0.006749]
[0.000000,0.000000,0.000000,0.387173,0.153363,-0.349000,0.211192,0.986531,-0.068664,0.376403,-0.399926,-0.009106,0.347935,0.345673,-0.648744,0.336061,0.011751]
[0.000000,0.000000,0.000000,0.382258,0.151919,-0.349000,0.214609,0.988495,-0.069769,0.378958,-0.399833,-0.008866,0.348101,0.338602,-0.637492,0.343959,0.016641]
[0.000000,0.000000,0.000000,0.377109,0.150500,-0.349000,0.218275,0.990423,-0.070190,0.381837,-0.398787,-0.008947,0.348077,0.331168,-0.626362,0.351707,0.020820]
[0.000000,0.000000,0.000000,0.371894,0.148967,-0.349000,0.222078,0.992028,-0.069990,0.385070,-0.396956,-0.008998,0.347999,0.323855,-0.615793,0.359148,0.024055]
[0.000000,0.000000,0.000000,0.366690,0.147226,-0.349000,0.225948,0.993151,-0.069295,0.388640,-0.394436,-0.008761,0.347971,0.317021,-0.606097,0.366200,0.026261]
[0.000000,0.000000,0.000000,0.361237,0.145354,-0.349000,0.229969,0.994132,-0.068459,0.392366,-0.391061,-0.008329,0.347985,0.310542,-0.597120,0.373064,0.027883]
[0.000000,0.000000,0.000000,0.355195,0.143465,-0.349000,0.234260,0.995426,-0.067885,0.396027,-0.386604,-0.007880,0.348004,0.304183,-0.588600,0.380001,0.029486]
[0.000000,0.000000,0.000000,0.348449,0.141625,-0.349000,0.238876,0.997208,-0.067765,0.399470,-0.380970,-0.007509,0.348009,0.297947,-0.580676,0.386672,0.031142]
[0.000000,0.000000,0.000000,0.341276,0.139812,-0.349000,0.243749,0.999163,-0.067909,0.402658,-0.374294,-0.007164,0.348003,0.292255,-0.574196,0.391686,0.032061]
[0.000000,0.000000,0.000000,0.333981,0.137999,-0.349000,0.248801,1.000940,-0.068096,0.405569,-0.366728,-0.006784,0.347996,0.287538,-0.570014,0.393646,0.031413]
[0.000000,0.000000,0.000000,0.326688,0.136174,-0.349000,0.253942,1.002436,-0.068173,0.408204,-0.358284,-0.006384,0.347993,0.283613,-0.567825,0.393050,0.029273]
[0.000000,0.000000,0.000000,0.319355,0.134338,-0.349000,0.259068,1.003764,-0.068051,0.410588,-0.348850,-0.006048,0.347998,0.279759,-0.566312,0.392052,0.026506]
[0.000000,0.000000,0.000000,0.311929,0.132496,-0.349000,0.264105,1.005026,-0.067648,0.412735,-0.338347,-0.005882,0.348012,0.275290,-0.564278,0.392502,0.023918]
[0.000000,0.000000,0.000000,0.304300,0.130663,-0.349000,0.269165,1.006165,-0.066935,0.414600,-0.326966,-0.006134,0.348020,0.269897,-0.561635,0.393719,0.021718]
[0.000000,0.000000,0.000000,0.296334,0.128854,-0.349000,0.274444,1.007061,-0.065904,0.416108,-0.315010,-0.007115,0.347996,0.263428,-0.558766,0.393938,0.019860]
[0.000000,0.000000,0.000000,0.287924,0.127068,-0.349000,0.280076,1.007634,-0.064511,0.417257,-0.302487,-0.009161,0.347943,0.255739,-0.555751,0.392048,0.018157]
[0.000000,0.000000,0.000000,0.279049,0.125245,-0.349000,0.286008,1.007927,-0.062604,0.418276,-0.288477,-0.012689,0.347936,0.246697,-0.551706,0.388989,0.015995]
[0.000000,0.000000,0.000000,0.269704,0.123313,-0.349000,0.292150,1.008009,-0.060012,0.419430,-0.271894,-0.018125,0.348062,0.236180,-0.545583,0.386084,0.012681]
[0.000000,0.000000,0.000000,0.259830,0.121218,-0.349000,0.298512,1.007978,-0.056557,0.420723,-0.252398,-0.025512,0.348131,0.224480,-0.537321,0.383672,0.007980]
[0.000000,0.000000,0.000000,0.249294,0.118938,-0.349000,0.305250,1.007968,-0.052062,0.421759,-0.230772,-0.034323,0.347541,0.212509,-0.528343,0.380622,0.002335]
[0.000000,0.000000,0.000000,0.237969,0.116459,-0.349000,0.312527,1.008113,-0.046364,0.422126,-0.207853,-0.043999,0.345710,0.201173,-0.520107,0.375781,-0.003787]
[0.000000,0.000000,0.000000,0.225959,0.113863,-0.349000,0.320414,1.008448,-0.039567,0.421630,-0.183978,-0.054189,0.342774,0.190586,-0.512844,0.369397,-0.010426]
[0.000000,0.000000,0.000000,0.213536,0.111303,-0.349000,0.328916,1.008932,-0.031970,0.420234,-0.159115,-0.064700,0.339408,0.180269,-0.505869,0.362765,-0.017990]
[0.000000,0.000000,0.000000,0.200936,0.108882,-0.349000,0.338049,1.009533,-0.023860,0.417941,-0.133276,-0.075348,0.336151,0.169831,-0.498568,0.357000,-0.026819]
[0.000000,0.000000,0.000000,0.188159,0.106403,-0.349000,0.347899,1.010259,-0.015410,0.414940,-0.106816,-0.085987,0.332665,0.159482,-0.490856,0.352023,-0.036783]
[0.000000,0.000000,0.000000,0.175118,0.103560,-0.349000,0.358581,1.011135,-0.006756,0.411489,-0.080208,-0.096486,0.328298,0.149641,-0.482840,0.347327,-0.047583]
[0.000000,0.000000,0.000000,0.161837,0.100243,-0.349000,0.370066,1.012165,0.001918,0.407825,-0.053858,-0.106706,0.322671,0.140550,-0.474669,0.342561,-0.058823]
[0.000000,0.000000,0.000000,0.148632,0.096850,-0.349000,0.381957,1.013300,0.010306,0.404130,-0.027995,-0.116486,0.316124,0.131968,-0.466606,0.337783,-0.069853]
[0.000000,0.000000,0.000000,0.135859,0.093848,-0.349000,0.393802,1.014486,0.018083,0.400577,-0.002817,-0.125666,0.309108,0.123585,-0.458930,0.333116,-0.079996]
[0.000000,0.000000,0.000000,0.123643,0.091322,-0.349000,0.405321,1.015650,0.025183,0.397232,0.021607,-0.134239,0.302013,0.115332,-0.451774,0.328637,-0.089170]
[0.000000,0.000000,0.000000,0.111812,0.088863,-0.349000,0.416455,1.016698,0.031863,0.394028,0.045368,-0.142394,0.295144,0.107450,-0.445090,0.324354,-0.098045]
[0.000000,0.000000,0.000000,0.100191,0.086072,-0.349000,0.427165,1.017550,0.038376,0.390900,0.068552,-0.150320,0.288776,0.100177,-0.438819,0.320269,-0.107285]
[0.000000,0.000000,0.000000,0.088775,0.083039,-0.349000,0.437464,1.018256,0.044704,0.387901,0.091068,-0.158056,0.282902,0.093526,-0.432913,0.316285,-0.116886]
[0.000000,0.000000,0.000000,0.077668,0.080162,-0.349000,0.447402,1.018954,0.050652,0.385157,0.112708,-0.165550,0.277335,0.087364,-0.427332,0.312252,-0.126427]
[0.000000,0.000000,0.000000,0.066969,0.077748,-0.349000,0.457001,1.019740,0.056084,0.382720,0.133314,-0.172757,0.271934,0.081573,-0.422031,0.308080,-0.135555]
[0.000000,0.000000,0.000000,0.056749,0.075645,-0.349000,0.466147,1.020510,0.061126,0.380262,0.152958,-0.179680,0.266794,0.076115,-0.416944,0.303989,-0.144274]
[0.000000,0.000000,0.000000,0.047072,0.073563,-0.349000,0.474687,1.021098,0.065988,0.377348,0.171782,-0.186338,0.262081,0.070977,-0.411999,0.300292,-0.152701]
[0.000000,0.000000,0.000000,0.037963,0.071346,-0.349000,0.482589,1.021452,0.070803,0.373877,0.189868,-0.192740,0.257861,0.066118,-0.407156,0.297151,-0.160909]
[0.000000,0.000000,0.000000,0.029371,0.069124,-0.349000,0.490090,1.021769,0.075538,0.370499,0.207165,-0.198867,0.253983,0.061442,-0.402439,0.294388,-0.168878]
[0.000000,0.000000,0.000000,0.021232,0.067060,-0.349000,0.497456,1.022270,0.080141,0.367940,0.223609,-0.204701,0.250264,0.056850,-0.397882,0.291786,-0.176580]
[0.000000,0.000000,0.000000,0.013462,0.065199,-0.349000,0.504803,1.022997,0.084586,0.366353,0.239227,-0.210262,0.246599,0.052351,-0.393471,0.289221,-0.184002]
