callmecarrot/action_slices/1_全1.txt
[waist_yaw_joint,waist_roll_joint,waist_pitch_joint,left_shoulder_pitch_joint,left_shoulder_roll_joint,left_shoulder_yaw_joint,left_elbow_joint,left_wrist_roll_joint,left_wrist_pitch_joint,left_wrist_yaw_joint,right_shoulder_pitch_joint,right_shoulder_roll_joint,right_shoulder_yaw_joint,right_elbow_joint,right_wrist_roll_joint,right_wrist_pitch_joint,right_wrist_yaw_joint]
[0.000000,0.000000,0.000000,-0.078000,0.000000,0.493000,1.235000,0.626000,-0.137000,-0.083000,0.137000,0.000000,-0.133000,0.881000,-0.557000,-0.034000,-0.008000]
[0.000000,0.000000,0.000000,-0.077448,0.000000,0.492793,1.235000,0.626000,-0.137000,-0.083000,0.137000,0.000000,-0.133000,0.881000,-0.557000,-0.034000,-0.008000]
[0.000000,0.000000,0.000000,-0.076897,0.000000,0.492586,1.235000,0.626000,-0.137000,-0.083000,0.137000,0.000000,-0.133000,0.881000,-0.557000,-0.034000,-0.008000]
[0.000000,0.000000,0.000000,-0.076345,0.000000,0.492379,1.235000,0.626000,-0.137000,-0.083000,0.137000,0.000000,-0.133000,0.881000,-0.557000,-0.034000,-0.008000]
[0.000000,0.000000,0.000000,-0.075793,0.000000,0.492172,1.235000,0.626000,-0.137000,-0.083000,0.137000,0.000000,-0.133000,0.881000,-0.557000,-0.034000,-0.008000]
[0.000000,0.000000,0.000000,-0.075241,0.000000,0.491966,1.235000,0.626000,-0.137000,-0.083000,0.137000,0.000000,-0.133000,0.881000,-0.557000,-0.034000,-0.008000]
[0.000000,0.000000,0.000000,-0.074690,0.000000,0.491759,1.235000,0.626000,-0.137000,-0.083000,0.137000,0.000000,-0.133000,0.881000,-0.557000,-0.034000,-0.008000]
[0.000000,0.000000,0.000000,-0.074138,0.000000,0.491552,1.235000,0.626000,-0.137000,-0.083000,0.137000,0.000000,-0.133000,0.881000,-0.557000,-0.034000,-0.008000]
[0.000000,0.000000,0.000000,-0.073586,0.000000,0.491345,1.235000,0.626000,-0.137000,-0.083000,0.137000,0.000000,-0.133000,0.881000,-0.557000,-0.034000,-0.008000]
[0.000000,0.000000,0.000000,-0.073034,0.000000,0.491138,1.235000,0.626000,-0.137000,-0.083000,0.137000,0.000000,-0.133000,0.881000,-0.557000,-0.034000,-0.008000]
[0.000000,0.000000,0.000000,-0.072483,0.000000,0.490931,1.235000,0.626000,-0.137000,-0.083000,0.137000,0.000000,-0.133000,0.881000,-0.557000,-0.034000,-0.008000]
[0.000000,0.000000,0.000000,-0.071931,0.000000,0.490724,1.235000,0.626000,-0.137000,-0.083000,0.137000,0.000000,-0.133000,0.881000,-0.557000,-0.034000,-0.008000]
[0.000000,0.000000,0.000000,-0.071379,0.000000,0.490517,1.235000,0.626000,-0.137000,-0.083000,0.137000,0.000000,-0.133000,0.881000,-0.557000,-0.034000,-0.008000]
[0.000000,0.000000,0.000000,-0.070828,0.000000,0.490310,1.235000,0.626000,-0.137000,-0.083000,0.137000,0.000000,-0.133000,0.881000,-0.557000,-0.034000,-0.008000]
[0.000000,0.000000,0.000000,-0.070276,0.000000,0.490103,1.235000,0.626000,-0.137000,-0.083000,0.137000,0.000000,-0.133000,0.881000,-0.557000,-0.034000,-0.008000]
[0.000000,0.000000,0.000000,-0.070276,0.000000,0.490103,1.235000,0.626000,-0.137000,-0.083000,0.137000,0.000000,-0.133000,0.881000,-0.557000,-0.034000,-0.008000]
[0.000000,0.000000,0.000000,-0.070828,0.000000,0.490310,1.235000,0.626000,-0.137000,-0.083000,0.137000,0.000000,-0.133000,0.881000,-0.557000,-0.034000,-0.008000]
[0.000000,0.000000,0.000000,-0.071379,0.000000,0.490517,1.235000,0.626000,-0.137000,-0.083000,0.137000,0.000000,-0.133000,0.881000,-0.557000,-0.034000,-0.008000]
[0.000000,0.000000,0.000000,-0.071931,0.000000,0.490724,1.235000,0.626000,-0.137000,-0.083000,0.137000,0.000000,-0.133000,0.881000,-0.557000,-0.034000,-0.008000]
[0.000000,0.000000,0.000000,-0.072483,0.000000,0.490931,1.235000,0.626000,-0.137000,-0.083000,0.137000,0.000000,-0.133000,0.881000,-0.557000,-0.034000,-0.008000]
[0.000000,0.000000,0.000000,-0.073034,0.000000,0.491138,1.235000,0.626000,-0.137000,-0.083000,0.137000,0.000000,-0.133000,0.881000,-0.557000,-0.034000,-0.008000]
[0.000000,0.000000,0.000000,-0.073586,0.000000,0.491345,1.235000,0.626000,-0.137000,-0.083000,0.137000,0.000000,-0.133000,0.881000,-0.557000,-0.034000,-0.008000]
[0.000000,0.000000,0.000000,-0.074138,0.000000,0.491552,1.235000,0.626000,-0.137000,-0.083000,0.137000,0.000000,-0.133000,0.881000,-0.557000,-0.034000,-0.008000]
[0.000000,0.000000,0.000000,-0.074690,0.000000,0.491759,1.235000,0.626000,-0.137000,-0.083000,0.137000,0.000000,-0.133000,0.881000,-0.557000,-0.034000,-0.008000]
[0.000000,0.000000,0.000000,-0.075241,0.000000,0.491966,1.235000,0.626000,-0.137000,-0.083000,0.137000,0.000000,-0.133000,0.881000,-0.557000,-0.034000,-0.008000]
[0.000000,0.000000,0.000000,-0.075793,0.000000,0.492172,1.235000,0.626000,-0.137000,-0.083000,0.137000,0.000000,-0.133000,0.881000,-0.557000,-0.034000,-0.008000]
[0.000000,0.000000,0.000000,-0.076345,0.000000,0.492379,1.235000,0.626000,-0.137000,-0.083000,0.137000,0.000000,-0.133000,0.881000,-0.557000,-0.034000,-0.008000]
[0.000000,0.000000,0.000000,-0.076897,0.000000,0.492586,1.235000,0.626000,-0.137000,-0.083000,0.137000,0.000000,-0.133000,0.881000,-0.557000,-0.034000,-0.008000]
[0.000000,0.000000,0.000000,-0.077448,0.000000,0.492793,1.235000,0.626000,-0.137000,-0.083000,0.137000,0.000000,-0.133000,0.881000,-0.557000,-0.034000,-0.008000]
[0.000000,0.000000,0.000000,-0.078000,0.000000,0.493000,1.235000,0.626000,-0.137000,-0.083000,0.137000,0.000000,-0.133000,0.881000,-0.557000,-0.034000,-0.008000]
[0.000000,0.000000,0.000000,-0.066968,0.005419,0.471258,1.194548,0.601613,-0.134194,-0.086226,0.140065,-0.005161,-0.121516,0.853613,-0.531774,-0.033226,-0.001000]
[0.000000,0.000000,0.000000,-0.055935,0.010839,0.449516,1.154097,0.577226,-0.131387,-0.089452,0.143129,-0.010323,-0.110032,0.826226,-0.506548,-0.032452,0.006000]
[0.000000,0.000000,0.000000,-0.044903,0.016258,0.427774,1.113645,0.552839,-0.128581,-0.092677,0.146194,-0.015484,-0.098548,0.798839,-0.481323,-0.031677,0.013000]
[0.000000,0.000000,0.000000,-0.033871,0.021677,0.406032,1.073194,0.528452,-0.125774,-0.095903,0.149258,-0.020645,-0.087065,0.771452,-0.456097,-0.030903,0.020000]
[0.000000,0.000000,0.000000,-0.022839,0.027097,0.384290,1.032742,0.504065,-0.122968,-0.099129,0.152323,-0.025806,-0.075581,0.744065,-0.430871,-0.030129,0.027000]
[0.000000,0.000000,0.000000,-0.011806,0.032516,0.362548,0.992290,0.479677,-0.120161,-0.102355,0.155387,-0.030968,-0.064097,0.716677,-0.405645,-0.029355,0.034000]
[0.000000,0.000000,0.000000,-0.000774,0.037935,0.340806,0.951839,0.455290,-0.117355,-0.105581,0.158452,-0.036129,-0.052613,0.689290,-0.380419,-0.028581,0.041000]
[0.000000,0.000000,0.000000,0.010258,0.043355,0.319065,0.911387,0.430903,-0.114548,-0.108806,0.161516,-0.041290,-0.041129,0.661903,-0.355194,-0.027806,0.048000]
[0.000000,0.000000,0.000000,0.021290,0.048774,0.297323,0.870935,0.406516,-0.111742,-0.112032,0.164581,-0.046452,-0.029645,0.634516,-0.329968,-0.027032,0.055000]
[0.000000,0.000000,0.000000,0.032323,0.054194,0.275581,0.830484,0.382129,-0.108935,-0.115258,0.167645,-0.051613,-0.018161,0.607129,-0.304742,-0.026258,0.062000]
[0.000000,0.000000,0.000000,0.043355,0.059613,0.253839,0.790032,0.357742,-0.106129,-0.118484,0.170710,-0.056774,-0.006677,0.579742,-0.279516,-0.025484,0.069000]
[0.000000,0.000000,0.000000,0.054387,0.065032,0.232097,0.749581,0.333355,-0.103323,-0.121710,0.173774,-0.061935,0.004806,0.552355,-0.254290,-0.024710,0.076000]
[0.000000,0.000000,0.000000,0.065419,0.070452,0.210355,0.709129,0.308968,-0.100516,-0.124935,0.176839,-0.067097,0.016290,0.524968,-0.229065,-0.023935,0.083000]
[0.000000,0.000000,0.000000,0.076452,0.075871,0.188613,0.668677,0.284581,-0.097710,-0.128161,0.179903,-0.072258,0.027774,0.497581,-0.203839,-0.023161,0.090000]
[0.000000,0.000000,0.000000,0.087484,0.081290,0.166871,0.628226,0.260194,-0.094903,-0.131387,0.182968,-0.077419,0.039258,0.470194,-0.178613,-0.022387,0.097000]
[0.000000,0.000000,0.000000,0.098516,0.086710,0.145129,0.587774,0.235806,-0.092097,-0.134613,0.186032,-0.082581,0.050742,0.442806,-0.153387,-0.021613,0.104000]
[0.000000,0.000000,0.000000,0.109548,0.092129,0.123387,0.547323,0.211419,-0.089290,-0.137839,0.189097,-0.087742,0.062226,0.415419,-0.128161,-0.020839,0.111000]
[0.000000,0.000000,0.000000,0.120581,0.097548,0.101645,0.506871,0.187032,-0.086484,-0.141065,0.192161,-0.092903,0.073710,0.388032,-0.102935,-0.020065,0.118000]
[0.000000,0.000000,0.000000,0.131613,0.102968,0.079903,0.466419,0.162645,-0.083677,-0.144290,0.195226,-0.098065,0.085194,0.360645,-0.077710,-0.019290,0.125000]
[0.000000,0.000000,0.000000,0.142645,0.108387,0.058161,0.425968,0.138258,-0.080871,-0.147516,0.198290,-0.103226,0.096677,0.333258,-0.052484,-0.018516,0.132000]
[0.000000,0.000000,0.000000,0.153677,0.113806,0.036419,0.385516,0.113871,-0.078065,-0.150742,0.201355,-0.108387,0.108161,0.305871,-0.027258,-0.017742,0.139000]
[0.000000,0.000000,0.000000,0.164710,0.119226,0.014677,0.345065,0.089484,-0.075258,-0.153968,0.204419,-0.113548,0.119645,0.278484,-0.002032,-0.016968,0.146000]
[0.000000,0.000000,0.000000,0.175742,0.124645,-0.007065,0.304613,0.065097,-0.072452,-0.157194,0.207484,-0.118710,0.131129,0.251097,0.023194,-0.016194,0.153000]
[0.000000,0.000000,0.000000,0.186774,0.130065,-0.028806,0.264161,0.040710,-0.069645,-0.160419,0.210548,-0.123871,0.142613,0.223710,0.048419,-0.015419,0.160000]
[0.000000,0.000000,0.000000,0.197806,0.135484,-0.050548,0.223710,0.016323,-0.066839,-0.163645,0.213613,-0.129032,0.154097,0.196323,0.073645,-0.014645,0.167000]
[0.000000,0.000000,0.000000,0.208839,0.140903,-0.072290,0.183258,-0.008065,-0.064032,-0.166871,0.216677,-0.134194,0.165581,0.168935,0.098871,-0.013871,0.174000]
[0.000000,0.000000,0.000000,0.219871,0.146323,-0.094032,0.142806,-0.032452,-0.061226,-0.170097,0.219742,-0.139355,0.177065,0.141548,0.124097,-0.013097,0.181000]
[0.000000,0.000000,0.000000,0.230903,0.151742,-0.115774,0.102355,-0.056839,-0.058419,-0.173323,0.222806,-0.144516,0.188548,0.114161,0.149323,-0.012323,0.188000]
[0.000000,0.000000,0.000000,0.241935,0.157161,-0.137516,0.061903,-0.081226,-0.055613,-0.176548,0.225871,-0.149677,0.200032,0.086774,0.174548,-0.011548,0.195000]
[0.000000,0.000000,0.000000,0.252968,0.162581,-0.159258,0.021452,-0.105613,-0.052806,-0.179774,0.228935,-0.154839,0.211516,0.059387,0.199774,-0.010774,0.202000]
[0.000000,0.000000,0.000000,0.264000,0.168000,-0.181000,-0.019000,-0.130000,-0.050000,-0.183000,0.232000,-0.160000,0.223000,0.032000,0.225000,-0.010000,0.209000]
[0.000000,0.000000,0.000000,0.264027,0.168000,-0.180634,-0.019529,-0.129834,-0.048812,-0.182848,0.232018,-0.160018,0.223359,0.032753,0.224825,-0.011477,0.209438]
[0.000000,0.000000,0.000000,0.264000,0.168000,-0.181000,-0.020000,-0.130000,-0.048000,-0.183000,0.232000,-0.160000,0.223000,0.034000,0.225000,-0.013000,0.210000]
[0.000000,0.000000,0.000000,0.263973,0.168000,-0.181616,-0.020471,-0.130416,-0.047188,-0.183152,0.231982,-0.159982,0.222391,0.035497,0.225175,-0.014523,0.210562]
[0.000000,0.000000,0.000000,0.264000,0.168000,-0.182000,-0.021000,-0.131000,-0.046000,-0.183000,0.232000,-0.160000,0.222000,0.037000,0.225000,-0.016000,0.211000]
[0.000000,0.000000,0.000000,0.264080,0.168000,-0.181903,-0.021588,-0.131628,-0.044312,-0.182419,0.232053,-0.160054,0.222078,0.038384,0.224224,-0.017431,0.211315]
[0.000000,0.000000,0.000000,0.264000,0.168000,-0.182000,-0.022000,-0.132000,-0.043000,-0.182000,0.232000,-0.160000,0.222000,0.040000,0.223000,-0.019000,0.212000]
[0.000000,0.000000,0.000000,0.263580,0.168000,-0.182899,-0.022051,-0.131948,-0.042814,-0.182296,0.231680,-0.159678,0.221173,0.042216,0.221554,-0.020878,0.213430]
[0.000000,0.000000,0.000000,0.263000,0.168000,-0.184000,-0.022000,-0.132000,-0.043000,-0.183000,0.231000,-0.159000,0.220000,0.045000,0.220000,-0.023000,0.215000]
[0.000000,0.000000,0.000000,0.262474,0.167999,-0.184627,-0.022083,-0.132578,-0.042682,-0.183646,0.229978,-0.157986,0.218981,0.048125,0.218435,-0.025182,0.216091]
[0.000000,0.000000,0.000000,0.262000,0.168000,-0.185000,-0.022000,-0.133000,-0.042000,-0.184000,0.229000,-0.157000,0.218000,0.051000,0.217000,-0.027000,0.217000]
[0.000000,0.000000,0.000000,0.261525,0.168002,-0.185467,-0.021491,-0.132613,-0.041335,-0.183993,0.228407,-0.156380,0.216902,0.053159,0.215831,-0.028144,0.218079]
[0.000000,0.000000,0.000000,0.261000,0.168000,-0.186000,-0.021000,-0.132000,-0.041000,-0.184000,0.228000,-0.156000,0.216000,0.055000,0.215000,-0.029000,0.219000]
[0.000000,0.000000,0.000000,0.260426,0.167993,-0.186504,-0.020951,-0.131845,-0.041105,-0.184381,0.227520,-0.155620,0.215534,0.056991,0.214493,-0.029990,0.219466]
[0.000000,0.000000,0.000000,0.260000,0.168000,-0.187000,-0.021000,-0.132000,-0.041000,-0.185000,0.227000,-0.155000,0.215000,0.059000,0.214000,-0.031000,0.220000]
[0.000000,0.000000,0.000000,0.259894,0.168027,-0.187517,-0.020703,-0.132133,-0.040245,-0.185607,0.226514,-0.154015,0.213962,0.060753,0.213324,-0.031769,0.221058]
[0.000000,0.000000,0.000000,0.260000,0.168000,-0.188000,-0.020000,-0.132000,-0.040000,-0.186000,0.226000,-0.153000,0.213000,0.062000,0.213000,-0.032000,0.222000]
[0.000000,0.000000,0.000000,0.260122,0.167897,-0.188427,-0.018986,-0.131496,-0.041289,-0.186066,0.225423,-0.152322,0.212742,0.062620,0.213460,-0.031559,0.222177]
[0.000000,0.000000,0.000000,0.260000,0.168000,-0.189000,-0.018000,-0.131000,-0.043000,-0.186000,0.225000,-0.152000,0.213000,0.063000,0.214000,-0.031000,0.222000]
[0.000000,0.000000,0.000000,0.259494,0.168508,-0.189900,-0.017354,-0.130881,-0.043849,-0.186004,0.224920,-0.151949,0.213443,0.063515,0.213959,-0.030871,0.221983]
[0.000000,0.000000,0.000000,0.259000,0.169000,-0.191000,-0.017000,-0.131000,-0.044000,-0.186000,0.225000,-0.152000,0.214000,0.064000,0.214000,-0.031000,0.222000]
[0.000000,0.000000,0.000000,0.258901,0.169072,-0.192099,-0.016724,-0.131105,-0.043941,-0.185919,0.225023,-0.152009,0.214610,0.064194,0.214828,-0.031081,0.221891]
[0.000000,0.000000,0.000000,0.259000,0.169000,-0.193000,-0.016000,-0.131000,-0.044000,-0.186000,0.225000,-0.152000,0.215000,0.064000,0.216000,-0.031000,0.222000]
[0.000000,0.000000,0.000000,0.259027,0.169081,-0.193581,-0.014501,-0.130574,-0.044389,-0.186446,0.224987,-0.152017,0.214991,0.063457,0.216980,-0.030679,0.222578]
[0.000000,0.000000,0.000000,0.259000,0.169000,-0.194000,-0.013000,-0.130000,-0.045000,-0.187000,0.225000,-0.152000,0.215000,0.063000,0.218000,-0.030000,0.223000]
[0.000000,0.000000,0.000000,0.258993,0.168481,-0.194454,-0.012273,-0.129474,-0.045630,-0.187421,0.225028,-0.151922,0.215427,0.062978,0.219378,-0.028954,0.222673]
[0.000000,0.000000,0.000000,0.259000,0.168000,-0.195000,-0.012000,-0.129000,-0.046000,-0.188000,0.225000,-0.152000,0.216000,0.063000,0.221000,-0.028000,0.222000]
[0.000000,0.000000,0.000000,0.259002,0.167996,-0.195604,-0.011656,-0.128532,-0.045966,-0.188995,0.224899,-0.152418,0.216426,0.062633,0.222632,-0.027505,0.221481]
[0.000000,0.000000,0.000000,0.259000,0.168000,-0.196000,-0.011000,-0.128000,-0.046000,-0.190000,0.225000,-0.153000,0.217000,0.062000,0.224000,-0.027000,0.221000]
[0.000000,0.000000,0.000000,0.258998,0.167535,-0.196004,-0.009979,-0.127400,-0.046507,-0.190600,0.225500,-0.153529,0.217993,0.061366,0.224970,-0.026025,0.220405]
[0.000000,0.000000,0.000000,0.259000,0.167000,-0.196000,-0.009000,-0.127000,-0.047000,-0.191000,0.226000,-0.154000,0.219000,0.061000,0.226000,-0.025000,0.220000]
[0.000000,0.000000,0.000000,0.259007,0.166865,-0.196381,-0.008430,-0.126993,-0.047005,-0.191480,0.226102,-0.154465,0.219601,0.061027,0.227488,-0.024395,0.220025]
[0.000000,0.000000,0.000000,0.259000,0.167000,-0.197000,-0.008000,-0.127000,-0.047000,-0.192000,0.226000,-0.155000,0.220000,0.061000,0.229000,-0.024000,0.220000]
[0.000000,0.000000,0.000000,0.258973,0.167129,-0.197599,-0.007427,-0.126629,-0.047474,-0.192481,0.225966,-0.155610,0.220480,0.060526,0.230077,-0.023522,0.219493]
[0.000000,0.000000,0.000000,0.259000,0.167000,-0.198000,-0.007000,-0.126000,-0.048000,-0.193000,0.226000,-0.156000,0.221000,0.060000,0.231000,-0.023000,0.219000]
[0.000000,0.000000,0.000000,0.259100,0.166493,-0.198098,-0.006986,-0.125365,-0.048101,-0.193596,0.226034,-0.155971,0.221481,0.059868,0.232080,-0.022519,0.219001]
[0.000000,0.000000,0.000000,0.259000,0.166000,-0.198000,-0.007000,-0.125000,-0.048000,-0.194000,0.226000,-0.156000,0.222000,0.060000,0.233000,-0.022000,0.219000]
[0.000000,0.000000,0.000000,0.258500,0.165900,-0.197882,-0.006629,-0.125036,-0.047998,-0.194008,0.225898,-0.156508,0.222596,0.060127,0.233479,-0.021404,0.218502]
[0.000000,0.000000,0.000000,0.258000,0.166000,-0.198000,-0.006000,-0.125000,-0.048000,-0.194000,0.226000,-0.157000,0.223000,0.060000,0.234000,-0.021000,0.218000]
[0.000000,0.000000,0.000000,0.257900,0.166034,-0.198498,-0.005373,-0.124492,-0.047907,-0.194371,0.226501,-0.156999,0.223008,0.059500,0.235004,-0.020992,0.217990]
[0.000000,0.000000,0.000000,0.258000,0.166000,-0.199000,-0.005000,-0.124000,-0.048000,-0.195000,0.227000,-0.157000,0.223000,0.059000,0.236000,-0.021000,0.218000]
[0.000000,0.000000,0.000000,0.258027,0.165966,-0.199126,-0.005002,-0.123995,-0.048500,-0.195633,0.227100,-0.157498,0.223371,0.058874,0.236506,-0.020629,0.217536]
[0.000000,0.000000,0.000000,0.258000,0.166000,-0.199000,-0.005000,-0.124000,-0.049000,-0.196000,0.227000,-0.158000,0.224000,0.059000,0.237000,-0.020000,0.217000]
[0.000000,0.000000,0.000000,0.257993,0.166102,-0.198873,-0.004618,-0.123526,-0.049094,-0.195974,0.226973,-0.158010,0.224633,0.059128,0.237971,-0.019368,0.216865]
[0.000000,0.000000,0.000000,0.258000,0.166000,-0.199000,-0.004000,-0.123000,-0.049000,-0.196000,0.227000,-0.158000,0.225000,0.059000,0.239000,-0.019000,0.217000]
[0.000000,0.000000,0.000000,0.258002,0.165500,-0.199507,-0.003402,-0.122899,-0.049000,-0.196473,0.227007,-0.158464,0.224974,0.058490,0.239609,-0.019025,0.217128]
[0.000000,0.000000,0.000000,0.258000,0.165000,-0.200000,-0.003000,-0.123000,-0.049000,-0.197000,0.227000,-0.159000,0.225000,0.058000,0.240000,-0.019000,0.217000]
[0.000000,0.000000,0.000000,0.257999,0.164899,-0.200100,-0.002901,-0.123002,-0.048908,-0.197133,0.227000,-0.159136,0.225472,0.057911,0.240469,-0.018532,0.216498]
[0.000000,0.000000,0.000000,0.258000,0.165000,-0.200000,-0.003000,-0.123000,-0.049000,-0.197000,0.227000,-0.159000,0.226000,0.058000,0.241000,-0.018000,0.216000]
[0.000000,0.000000,0.000000,0.258000,0.165028,-0.199970,-0.003121,-0.123093,-0.049494,-0.196869,0.226993,-0.158869,0.226138,0.057990,0.241517,-0.017848,0.215881]
[0.000000,0.000000,0.000000,0.258000,0.165000,-0.200000,-0.003000,-0.123000,-0.050000,-0.197000,0.227000,-0.159000,0.226000,0.058000,0.242000,-0.018000,0.216000]
[0.000000,0.000000,0.000000,0.257999,0.164990,-0.200022,-0.002490,-0.122501,-0.050117,-0.197514,0.227027,-0.159513,0.225852,0.058130,0.242463,-0.018202,0.216105]
[0.000000,0.000000,0.000000,0.258000,0.165000,-0.200000,-0.002000,-0.122000,-0.050000,-0.198000,0.227000,-0.160000,0.226000,0.058000,0.243000,-0.018000,0.216000]
[0.000000,0.000000,0.000000,0.258004,0.165014,-0.199942,-0.001917,-0.121905,-0.049914,-0.198073,0.226899,-0.160079,0.226579,0.057366,0.243630,-0.017221,0.215701]
[0.000000,0.000000,0.000000,0.258000,0.165000,-0.200000,-0.002000,-0.122000,-0.050000,-0.198000,0.227000,-0.160000,0.227000,0.057000,0.244000,-0.017000,0.216000]
[0.000000,0.000000,0.000000,0.257985,0.164955,-0.200333,-0.001966,-0.122006,-0.050228,-0.198068,0.227501,-0.160046,0.226707,0.057654,0.243766,-0.018290,0.217468]
[0.000000,0.000000,0.000000,0.258000,0.165000,-0.201000,-0.002000,-0.122000,-0.050000,-0.198000,0.228000,-0.160000,0.226000,0.059000,0.243000,-0.020000,0.219000]
[0.000000,0.000000,0.000000,0.258054,0.165290,-0.201975,-0.002343,-0.122198,-0.048800,-0.197528,0.228099,-0.159613,0.225344,0.060516,0.241933,-0.020992,0.219428]
[0.000000,0.000000,0.000000,0.258000,0.166000,-0.203000,-0.003000,-0.123000,-0.047000,-0.197000,0.228000,-0.159000,0.225000,0.062000,0.241000,-0.022000,0.219000]
[0.000000,0.000000,0.000000,0.257672,0.167261,-0.203892,-0.003912,-0.124701,-0.045071,-0.196694,0.227980,-0.158376,0.225042,0.063408,0.240504,-0.023865,0.218319]
[0.000000,0.000000,0.000000,0.257000,0.169000,-0.205000,-0.005000,-0.127000,-0.043000,-0.196000,0.228000,-0.158000,0.225000,0.065000,0.240000,-0.026000,0.218000]
[0.000000,0.000000,0.000000,0.256007,0.171040,-0.206580,-0.006135,-0.129496,-0.040791,-0.194447,0.227980,-0.158007,0.224489,0.066979,0.239051,-0.027673,0.218421]
[0.000000,0.000000,0.000000,0.255000,0.173000,-0.208000,-0.007000,-0.132000,-0.039000,-0.193000,0.228000,-0.158000,0.224000,0.069000,0.238000,-0.029000,0.219000]
[0.000000,0.000000,0.000000,0.254299,0.174577,-0.208662,-0.007299,-0.134315,-0.038140,-0.192644,0.228099,-0.157597,0.224003,0.070677,0.237293,-0.030191,0.219123]
[0.000000,0.000000,0.000000,0.254000,0.176000,-0.209000,-0.007000,-0.136000,-0.038000,-0.193000,0.228000,-0.157000,0.224000,0.072000,0.237000,-0.031000,0.219000]
[0.000000,0.000000,0.000000,0.254046,0.177527,-0.209523,-0.006171,-0.136743,-0.038272,-0.193477,0.227500,-0.156481,0.223499,0.073061,0.237027,-0.031186,0.218962]
[0.000000,0.000000,0.000000,0.254000,0.179000,-0.210000,-0.005000,-0.137000,-0.039000,-0.194000,0.227000,-0.156000,0.223000,0.074000,0.237000,-0.031000,0.219000]
[0.000000,0.000000,0.000000,0.253516,0.180192,-0.210121,-0.003769,-0.137340,-0.040146,-0.194573,0.226901,-0.155480,0.223000,0.074952,0.236599,-0.030815,0.219029]
[0.000000,0.000000,0.000000,0.253000,0.181000,-0.210000,-0.003000,-0.138000,-0.041000,-0.195000,0.227000,-0.155000,0.223000,0.076000,0.236000,-0.031000,0.219000]
[0.000000,0.000000,0.000000,0.252888,0.181456,-0.209867,-0.003002,-0.139024,-0.041020,-0.195107,0.227019,-0.154598,0.222502,0.077130,0.235453,-0.031679,0.218922]
[0.000000,0.000000,0.000000,0.253000,0.182000,-0.210000,-0.003000,-0.140000,-0.041000,-0.195000,0.227000,-0.154000,0.222000,0.078000,0.235000,-0.032000,0.219000]
[0.000000,0.000000,0.000000,0.253055,0.182984,-0.210535,-0.002221,-0.140563,-0.041774,-0.194876,0.227021,-0.153001,0.221992,0.078403,0.234588,-0.031345,0.219409]
[0.000000,0.000000,0.000000,0.253000,0.184000,-0.211000,-0.001000,-0.141000,-0.043000,-0.195000,0.227000,-0.152000,0.222000,0.079000,0.234000,-0.031000,0.220000]
[0.000000,0.000000,0.000000,0.252891,0.184607,-0.210994,0.000138,-0.141599,-0.044134,-0.195514,0.226896,-0.151397,0.221530,0.080384,0.233070,-0.032193,0.220568]
[0.000000,0.000000,0.000000,0.253000,0.185000,-0.211000,0.001000,-0.142000,-0.045000,-0.196000,0.227000,-0.151000,0.221000,0.082000,0.232000,-0.034000,0.221000]
[0.000000,0.000000,0.000000,0.253504,0.185463,-0.211491,0.001545,-0.141915,-0.045564,-0.196067,0.227521,-0.150534,0.220890,0.083186,0.231006,-0.035258,0.221193]
[0.000000,0.000000,0.000000,0.254000,0.186000,-0.212000,0.002000,-0.142000,-0.046000,-0.196000,0.228000,-0.150000,0.221000,0.084000,0.230000,-0.036000,0.221000]
[0.000000,0.000000,0.000000,0.254092,0.186540,-0.212043,0.002558,-0.142867,-0.046486,-0.196094,0.228019,-0.149466,0.221037,0.084620,0.228906,-0.036525,0.220408]
[0.000000,0.000000,0.000000,0.254000,0.187000,-0.212000,0.003000,-0.144000,-0.047000,-0.196000,0.228000,-0.149000,0.221000,0.085000,0.228000,-0.037000,0.220000]
[0.000000,0.000000,0.000000,0.254002,0.187378,-0.212338,0.003224,-0.144741,-0.047619,-0.195434,0.228401,-0.148603,0.220964,0.085083,0.227494,-0.037518,0.220299]
[0.000000,0.000000,0.000000,0.254000,0.188000,-0.213000,0.004000,-0.145000,-0.049000,-0.195000,0.229000,-0.148000,0.221000,0.085000,0.227000,-0.038000,0.221000]
[0.000000,0.000000,0.000000,0.253899,0.189072,-0.213729,0.005920,-0.144918,-0.051538,-0.195297,0.229502,-0.146998,0.221108,0.084922,0.226119,-0.038403,0.221645]
[0.000000,0.000000,0.000000,0.254000,0.190000,-0.214000,0.008000,-0.145000,-0.054000,-0.196000,0.230000,-0.146000,0.221000,0.085000,0.225000,-0.039000,0.222000]
[0.000000,0.000000,0.000000,0.254527,0.190208,-0.213497,0.009219,-0.145588,-0.055230,-0.196628,0.230591,-0.145405,0.220480,0.085353,0.223906,-0.039994,0.221995]
[0.000000,0.000000,0.000000,0.255000,0.190000,-0.213000,0.010000,-0.146000,-0.056000,-0.197000,0.231000,-0.145000,0.220000,0.086000,0.223000,-0.041000,0.222000]
[0.000000,0.000000,0.000000,0.254995,0.189844,-0.213282,0.010952,-0.145604,-0.057292,-0.197066,0.231007,-0.144508,0.219973,0.086915,0.222382,-0.041619,0.222374]
[0.000000,0.000000,0.000000,0.255000,0.190000,-0.214000,0.012000,-0.145000,-0.059000,-0.197000,0.231000,-0.144000,0.220000,0.088000,0.222000,-0.042000,0.223000]
[0.000000,0.000000,0.000000,0.255495,0.190539,-0.214625,0.012974,-0.144870,-0.060727,-0.196982,0.231380,-0.143564,0.219627,0.089111,0.221692,-0.042404,0.223632]
[0.000000,0.000000,0.000000,0.256000,0.191000,-0.215000,0.014000,-0.145000,-0.062000,-0.197000,0.232000,-0.143000,0.219000,0.090000,0.221000,-0.043000,0.224000]
[0.000000,0.000000,0.000000,0.256027,0.190998,-0.215093,0.015154,-0.145040,-0.062549,-0.197005,0.232599,-0.142110,0.218392,0.090514,0.219599,-0.043891,0.223972]
[0.000000,0.000000,0.000000,0.256000,0.191000,-0.215000,0.016000,-0.145000,-0.063000,-0.197000,0.233000,-0.141000,0.218000,0.091000,0.218000,-0.045000,0.224000]
[0.000000,0.000000,0.000000,0.256399,0.191468,-0.214877,0.016160,-0.144971,-0.063952,-0.196997,0.233101,-0.139872,0.217930,0.091832,0.216788,-0.046158,0.224479]
[0.000000,0.000000,0.000000,0.257000,0.192000,-0.215000,0.016000,-0.145000,-0.065000,-0.197000,0.233000,-0.139000,0.218000,0.093000,0.216000,-0.047000,0.225000]
[0.000000,0.000000,0.000000,0.257502,0.192129,-0.215524,0.015956,-0.145076,-0.065644,-0.197008,0.232873,-0.138529,0.218014,0.094284,0.215499,-0.047229,0.225111]
[0.000000,0.000000,0.000000,0.258000,0.192000,-0.216000,0.016000,-0.145000,-0.066000,-0.197000,0.233000,-0.138000,0.218000,0.095000,0.215000,-0.047000,0.225000]
[0.000000,0.000000,0.000000,0.258592,0.191892,-0.216026,0.016017,-0.144601,-0.066348,-0.196973,0.233532,-0.137014,0.218015,0.094658,0.214340,-0.046553,0.224951]
[0.000000,0.000000,0.000000,0.259000,0.192000,-0.216000,0.016000,-0.144000,-0.067000,-0.197000,0.234000,-0.136000,0.218000,0.094000,0.214000,-0.046000,0.225000]
[0.000000,0.000000,0.000000,0.259006,0.192428,-0.216371,0.015977,-0.143397,-0.068090,-0.197102,0.233997,-0.135417,0.217926,0.093836,0.214390,-0.045434,0.225083]
[0.000000,0.000000,0.000000,0.259000,0.193000,-0.217000,0.016000,-0.143000,-0.069000,-0.197000,0.234000,-0.135000,0.218000,0.094000,0.215000,-0.045000,0.225000]
[0.000000,0.000000,0.000000,0.259385,0.193520,-0.217615,0.016074,-0.142937,-0.069169,-0.196495,0.234478,-0.134443,0.218407,0.094124,0.215223,-0.044836,0.224591]
[0.000000,0.000000,0.000000,0.260000,0.194000,-0.218000,0.016000,-0.143000,-0.069000,-0.196000,0.235000,-0.134000,0.219000,0.094000,0.215000,-0.045000,0.224000]
[0.000000,0.000000,0.000000,0.260580,0.194493,-0.218045,0.015600,-0.142979,-0.068985,-0.195918,0.235091,-0.133936,0.219573,0.093542,0.214467,-0.045471,0.223428]
[0.000000,0.000000,0.000000,0.261000,0.195000,-0.218000,0.015000,-0.143000,-0.069000,-0.196000,0.235000,-0.134000,0.220000,0.093000,0.214000,-0.046000,0.223000]
[0.000000,0.000000,0.000000,0.261170,0.195507,-0.218205,0.014400,-0.143271,-0.068765,-0.195832,0.235159,-0.133814,0.220177,0.092708,0.214033,-0.046279,0.222822]
[0.000000,0.000000,0.000000,0.261000,0.196000,-0.219000,0.014000,-0.144000,-0.068000,-0.195000,0.236000,-0.133000,0.220000,0.093000,0.215000,-0.046000,0.223000]
[0.000000,0.000000,0.000000,0.256032,0.191806,-0.223194,0.024581,-0.108097,-0.061355,-0.178677,0.235484,-0.134129,0.224161,0.097032,0.181000,-0.038484,0.208226]
[-0.010000,0.000000,0.000000,0.251065,0.187613,-0.227387,0.035161,-0.072194,-0.054710,-0.162355,0.234968,-0.135258,0.228323,0.101065,0.147000,-0.030968,0.193452]
[-0.020000,0.000000,0.000000,0.246097,0.183419,-0.231581,0.045742,-0.036290,-0.048065,-0.146032,0.234452,-0.136387,0.232484,0.105097,0.113000,-0.023452,0.178677]
[-0.030000,0.000000,0.000000,0.241129,0.179226,-0.235774,0.056323,-0.000387,-0.041419,-0.129710,0.233935,-0.137516,0.236645,0.109129,0.079000,-0.015935,0.163903]
[-0.040000,0.000000,0.000000,0.236161,0.175032,-0.239968,0.066903,0.035516,-0.034774,-0.113387,0.233419,-0.138645,0.240806,0.113161,0.045000,-0.008419,0.149129]
[-0.050000,0.000000,0.000000,0.231194,0.170839,-0.244161,0.077484,0.071419,-0.028129,-0.097065,0.232903,-0.139774,0.244968,0.117194,0.011000,-0.000903,0.134355]
[-0.060000,0.000000,0.000000,0.226226,0.166645,-0.248355,0.088065,0.107323,-0.021484,-0.080742,0.232387,-0.140903,0.249129,0.121226,-0.023000,0.006613,0.119581]
[-0.070000,0.000000,0.000000,0.221258,0.162452,-0.252548,0.098645,0.143226,-0.014839,-0.064419,0.231871,-0.142032,0.253290,0.125258,-0.057000,0.014129,0.104806]
[-0.080000,0.000000,0.000000,0.216290,0.158258,-0.256742,0.109226,0.179129,-0.008194,-0.048097,0.231355,-0.143161,0.257452,0.129290,-0.091000,0.021645,0.090032]
[-0.090000,0.000000,0.000000,0.211323,0.154065,-0.260935,0.119806,0.215032,-0.001548,-0.031774,0.230839,-0.144290,0.261613,0.133323,-0.125000,0.029161,0.075258]
[-0.100000,0.000000,0.000000,0.206355,0.149871,-0.265129,0.130387,0.250935,0.005097,-0.015452,0.230323,-0.145419,0.265774,0.137355,-0.159000,0.036677,0.060484]
[-0.110000,0.000000,0.000000,0.201387,0.145677,-0.269323,0.140968,0.286839,0.011742,0.000871,0.229806,-0.146548,0.269935,0.141387,-0.193000,0.044194,0.045710]
[-0.120000,0.000000,0.000000,0.196419,0.141484,-0.273516,0.151548,0.322742,0.018387,0.017194,0.229290,-0.147677,0.274097,0.145419,-0.227000,0.051710,0.030935]
[-0.130000,0.000000,0.000000,0.191452,0.137290,-0.277710,0.162129,0.358645,0.025032,0.033516,0.228774,-0.148806,0.278258,0.149452,-0.261000,0.059226,0.016161]
[-0.140000,0.000000,0.000000,0.186484,0.133097,-0.281903,0.172710,0.394548,0.031677,0.049839,0.228258,-0.149935,0.282419,0.153484,-0.295000,0.066742,0.001387]
[-0.150000,0.000000,0.000000,0.181516,0.128903,-0.286097,0.183290,0.430452,0.038323,0.066161,0.227742,-0.151065,0.286581,0.157516,-0.329000,0.074258,-0.013387]
[-0.160000,0.000000,0.000000,0.176548,0.124710,-0.290290,0.193871,0.466355,0.044968,0.082484,0.227226,-0.152194,0.290742,0.161548,-0.363000,0.081774,-0.028161]
[-0.170000,0.000000,0.000000,0.171581,0.120516,-0.294484,0.204452,0.502258,0.051613,0.098806,0.226710,-0.153323,0.294903,0.165581,-0.397000,0.089290,-0.042935]
[-0.180000,0.000000,0.000000,0.166613,0.116323,-0.298677,0.215032,0.538161,0.058258,0.115129,0.226194,-0.154452,0.299065,0.169613,-0.431000,0.096806,-0.057710]
[-0.190000,0.000000,0.000000,0.161645,0.112129,-0.302871,0.225613,0.574065,0.064903,0.131452,0.225677,-0.155581,0.303226,0.173645,-0.465000,0.104323,-0.072484]
[-0.200000,0.000000,0.000000,0.156677,0.107935,-0.307065,0.236194,0.609968,0.071548,0.147774,0.225161,-0.156710,0.307387,0.177677,-0.499000,0.111839,-0.087258]
[-0.210000,0.000000,0.000000,0.151710,0.103742,-0.311258,0.246774,0.645871,0.078194,0.164097,0.224645,-0.157839,0.311548,0.181710,-0.533000,0.119355,-0.102032]
[-0.220000,0.000000,0.000000,0.146742,0.099548,-0.315452,0.257355,0.681774,0.084839,0.180419,0.224129,-0.158968,0.315710,0.185742,-0.567000,0.126871,-0.116806]
[-0.230000,0.000000,0.000000,0.141774,0.095355,-0.319645,0.267935,0.717677,0.091484,0.196742,0.223613,-0.160097,0.319871,0.189774,-0.601000,0.134387,-0.131581]
[-0.240000,0.000000,0.000000,0.136806,0.091161,-0.323839,0.278516,0.753581,0.098129,0.213065,0.223097,-0.161226,0.324032,0.193806,-0.635000,0.141903,-0.146355]
[-0.250000,0.000000,0.000000,0.131839,0.086968,-0.328032,0.289097,0.789484,0.104774,0.229387,0.222581,-0.162355,0.328194,0.197839,-0.669000,0.149419,-0.161129]
[-0.260000,0.000000,0.000000,0.126871,0.082774,-0.332226,0.299677,0.825387,0.111419,0.245710,0.222065,-0.163484,0.332355,0.201871,-0.703000,0.156935,-0.175903]
