callmecarrot/action_slices/22_小11.txt
[waist_yaw_joint,waist_roll_joint,waist_pitch_joint,left_shoulder_pitch_joint,left_shoulder_roll_joint,left_shoulder_yaw_joint,left_elbow_joint,left_wrist_roll_joint,left_wrist_pitch_joint,left_wrist_yaw_joint,right_shoulder_pitch_joint,right_shoulder_roll_joint,right_shoulder_yaw_joint,right_elbow_joint,right_wrist_roll_joint,right_wrist_pitch_joint,right_wrist_yaw_joint]
[0.000000,0.000000,0.000000,0.329990,0.291995,-0.349000,0.368973,1.103007,0.085010,0.472996,0.419006,-1.169997,-1.282989,-0.812018,0.532988,-0.151997,-0.645004]
[0.000000,0.000000,0.000000,0.330792,0.292084,-0.349000,0.370588,1.102240,0.084253,0.473562,0.418256,-1.170098,-1.283053,-0.811253,0.533080,-0.151997,-0.644297]
[0.000000,0.000000,0.000000,0.331188,0.291488,-0.349000,0.371875,1.101709,0.083398,0.475792,0.417446,-1.169379,-1.282948,-0.810245,0.532832,-0.152061,-0.643280]
[0.000000,0.000000,0.000000,0.330643,0.290606,-0.349000,0.374730,1.102687,0.082660,0.477474,0.416454,-1.168979,-1.283088,-0.810244,0.533516,-0.151761,-0.643020]
[0.000000,0.000000,0.000000,0.329890,0.289835,-0.349000,0.378682,1.104230,0.081784,0.476643,0.414463,-1.168875,-1.282864,-0.811129,0.535481,-0.150738,-0.642852]
[0.000000,0.000000,0.000000,0.329973,0.289035,-0.349000,0.380912,1.104957,0.081008,0.475024,0.412064,-1.168018,-1.282023,-0.811027,0.536999,-0.149989,-0.642008]
[0.000000,0.000000,0.000000,0.330830,0.288230,-0.349000,0.383264,1.106474,0.081138,0.475644,0.411318,-1.168048,-1.281943,-0.810201,0.535629,-0.151341,-0.642672]
[0.000000,0.000000,0.000000,0.331002,0.287469,-0.349000,0.385669,1.108128,0.079928,0.476570,0.409433,-1.167424,-1.282051,-0.809854,0.533807,-0.153458,-0.643593]
[0.000000,0.000000,0.000000,0.331245,0.286569,-0.349000,0.388128,1.109753,0.078603,0.477481,0.407129,-1.166971,-1.281922,-0.810194,0.532308,-0.153838,-0.644374]
[0.000000,0.000000,0.000000,0.332172,0.285965,-0.349000,0.390357,1.111229,0.077725,0.477930,0.405741,-1.166887,-1.282112,-0.809738,0.530707,-0.154450,-0.645103]
[0.000000,0.000000,0.000000,0.332951,0.286014,-0.349000,0.391900,1.111973,0.076063,0.477032,0.403272,-1.166024,-1.282956,-0.808904,0.531672,-0.155300,-0.645049]
[0.000000,0.000000,0.000000,0.333750,0.285336,-0.349000,0.393552,1.112531,0.075934,0.477479,0.396909,-1.166115,-1.283581,-0.812634,0.540918,-0.143811,-0.638256]
[0.000000,0.000000,0.000000,0.334513,0.284324,-0.349000,0.394643,1.114677,0.075900,0.479379,0.386534,-1.165013,-1.285560,-0.815825,0.554096,-0.124193,-0.598228]
[0.000000,0.000000,0.000000,0.335421,0.283991,-0.349000,0.395261,1.116475,0.076411,0.479736,0.372788,-1.163514,-1.287757,-0.818214,0.567915,-0.103121,-0.539131]
[0.000000,0.000000,0.000000,0.336018,0.283916,-0.349000,0.396216,1.117207,0.076908,0.479085,0.357402,-1.162901,-1.287808,-0.823042,0.581109,-0.082463,-0.486758]
[0.000000,0.000000,0.000000,0.335962,0.283061,-0.349000,0.397846,1.118882,0.075174,0.480848,0.344725,-1.162091,-1.285293,-0.827925,0.590546,-0.064955,-0.447394]
[0.000000,0.000000,0.000000,0.336850,0.282833,-0.349000,0.399555,1.119754,0.073446,0.481898,0.339816,-1.161085,-1.281448,-0.825223,0.592765,-0.059121,-0.429325]
[0.000000,0.000000,0.000000,0.336573,0.283579,-0.349000,0.400570,1.120657,0.072326,0.482050,0.337174,-1.161461,-1.277339,-0.823228,0.594226,-0.054734,-0.426079]
[0.000000,0.000000,0.000000,0.335864,0.284044,-0.349000,0.401370,1.120858,0.071957,0.481920,0.335914,-1.162115,-1.276101,-0.819582,0.594637,-0.056595,-0.435538]
[0.000000,0.000000,0.000000,0.336021,0.284054,-0.349000,0.402033,1.119849,0.071981,0.480655,0.337250,-1.161996,-1.278403,-0.810657,0.591402,-0.070368,-0.453713]
[0.000000,0.000000,0.000000,0.336006,0.284895,-0.349000,0.401979,1.119067,0.071946,0.478133,0.339609,-1.162025,-1.281560,-0.802741,0.588137,-0.085615,-0.471870]
[0.000000,0.000000,0.000000,0.335989,0.285759,-0.349000,0.402631,1.118381,0.072831,0.478481,0.343910,-1.161754,-1.286721,-0.796981,0.589307,-0.094327,-0.491686]
[0.000000,0.000000,0.000000,0.336022,0.286392,-0.349000,0.403602,1.117040,0.072636,0.479644,0.345047,-1.163318,-1.293196,-0.796093,0.595536,-0.087550,-0.495328]
[0.000000,0.000000,0.000000,0.335953,0.287600,-0.349000,0.404108,1.115413,0.071756,0.480149,0.340866,-1.165909,-1.299033,-0.797313,0.607084,-0.067246,-0.471832]
[0.000000,0.000000,0.000000,0.336054,0.289135,-0.349000,0.403951,1.113749,0.072145,0.479886,0.332800,-1.168378,-1.303548,-0.799594,0.621852,-0.041639,-0.430519]
[0.000000,0.000000,0.000000,0.336867,0.289864,-0.349000,0.403170,1.111345,0.073793,0.478265,0.322389,-1.171637,-1.306831,-0.806202,0.634642,-0.016779,-0.389083]
[0.000000,0.000000,0.000000,0.337825,0.291403,-0.349000,0.401546,1.108733,0.074927,0.476342,0.312080,-1.173670,-1.306180,-0.810485,0.643489,0.001661,-0.351384]
[0.000000,0.000000,0.000000,0.337954,0.292599,-0.349000,0.400496,1.107363,0.074781,0.476128,0.305600,-1.174130,-1.302552,-0.810788,0.649353,0.014128,-0.322440]
[0.000000,0.000000,0.000000,0.338285,0.293262,-0.349000,0.399517,1.106734,0.075686,0.475320,0.301433,-1.173923,-1.298808,-0.809634,0.653126,0.022804,-0.302723]
[0.000000,0.000000,0.000000,0.339000,0.294085,-0.349000,0.397832,1.105930,0.078208,0.472809,0.297735,-1.174050,-1.295603,-0.808926,0.653858,0.028431,-0.292563]
[0.000000,0.000000,0.000000,0.338163,0.294872,-0.349000,0.396283,1.105872,0.079009,0.472065,0.297613,-1.174858,-1.291530,-0.808131,0.649926,0.028098,-0.300422]
[0.000000,0.000000,0.000000,0.337280,0.295750,-0.349000,0.393997,1.107340,0.078836,0.471361,0.302160,-1.175423,-1.289103,-0.806644,0.642221,0.013932,-0.335553]
[0.000000,0.000000,0.000000,0.336565,0.296116,-0.349000,0.391654,1.108615,0.079816,0.470417,0.309606,-1.173327,-1.289878,-0.801146,0.631072,-0.013231,-0.375861]
[0.000000,0.000000,0.000000,0.335668,0.295903,-0.349000,0.388965,1.109190,0.081467,0.467724,0.315491,-1.170020,-1.293435,-0.798075,0.625842,-0.030782,-0.399460]
[0.000000,0.000000,0.000000,0.334979,0.296064,-0.349000,0.386982,1.110112,0.080762,0.464987,0.316997,-1.167820,-1.298455,-0.802420,0.632849,-0.022664,-0.400237]
[0.000000,0.000000,0.000000,0.335027,0.296969,-0.349000,0.388608,1.111727,0.076623,0.467477,0.315511,-1.165457,-1.303373,-0.807093,0.644010,-0.004053,-0.381007]
[0.000000,0.000000,0.000000,0.334439,0.296354,-0.349000,0.390477,1.113231,0.074376,0.469545,0.311763,-1.162490,-1.305759,-0.813235,0.655442,0.011057,-0.347069]
[0.000000,0.000000,0.000000,0.333425,0.295968,-0.349000,0.391534,1.115353,0.073477,0.470591,0.307937,-1.158773,-1.305836,-0.819347,0.665641,0.022108,-0.314250]
[0.000000,0.000000,0.000000,0.332962,0.295801,-0.349000,0.392174,1.117622,0.072921,0.470965,0.305253,-1.154718,-1.304390,-0.824725,0.672844,0.032236,-0.287890]
[0.000000,0.000000,0.000000,0.332985,0.294976,-0.349000,0.391924,1.119085,0.073006,0.469893,0.302812,-1.150744,-1.301813,-0.830372,0.677284,0.042685,-0.263486]
[0.000000,0.000000,0.000000,0.332237,0.295027,-0.349000,0.390228,1.120617,0.073007,0.468795,0.298940,-1.146740,-1.298643,-0.836039,0.681495,0.053183,-0.241562]
[0.000000,0.000000,0.000000,0.330773,0.294421,-0.349000,0.389885,1.122942,0.072996,0.471866,0.294057,-1.143179,-1.295046,-0.840402,0.682448,0.061402,-0.227271]
[0.000000,0.000000,0.000000,0.328952,0.293587,-0.349000,0.389943,1.125136,0.072915,0.476331,0.293870,-1.141017,-1.289916,-0.843790,0.681174,0.065766,-0.230649]
[0.000000,0.000000,0.000000,0.325811,0.292637,-0.349000,0.390243,1.128170,0.071147,0.480162,0.300526,-1.139459,-1.284646,-0.844909,0.677453,0.057266,-0.255351]
[0.000000,0.000000,0.000000,0.320773,0.290914,-0.349000,0.392108,1.133228,0.067901,0.484168,0.310424,-1.136864,-1.281945,-0.842895,0.670704,0.033988,-0.292611]
[0.000000,0.000000,0.000000,0.315272,0.288590,-0.349000,0.394645,1.138149,0.067569,0.488114,0.319974,-1.132999,-1.282405,-0.839935,0.663687,0.011248,-0.328065]
[0.000000,0.000000,0.000000,0.308957,0.285542,-0.349000,0.395544,1.141519,0.070614,0.492346,0.329879,-1.127795,-1.286540,-0.834527,0.655248,-0.015630,-0.359132]
[0.000000,0.000000,0.000000,0.302929,0.282288,-0.349000,0.397200,1.145047,0.072666,0.495232,0.341282,-1.121659,-1.291554,-0.830004,0.649892,-0.039867,-0.388869]
[0.000000,0.000000,0.000000,0.297481,0.279120,-0.349000,0.399407,1.149017,0.073300,0.496106,0.353200,-1.115227,-1.296463,-0.827162,0.647004,-0.061400,-0.417707]
[0.000000,0.000000,0.000000,0.291881,0.275933,-0.349000,0.400013,1.152056,0.075038,0.495993,0.364231,-1.108865,-1.302118,-0.823937,0.642930,-0.085479,-0.443516]
[0.000000,0.000000,0.000000,0.286308,0.272764,-0.349000,0.400835,1.154471,0.076622,0.495321,0.375299,-1.102487,-1.307621,-0.821469,0.640571,-0.105613,-0.466705]
[0.000000,0.000000,0.000000,0.280704,0.269468,-0.349000,0.401413,1.156767,0.078089,0.493825,0.387158,-1.096144,-1.313900,-0.819669,0.637531,-0.124316,-0.489310]
[0.000000,0.000000,0.000000,0.275231,0.266716,-0.349000,0.403234,1.159450,0.076786,0.495725,0.398862,-1.089667,-1.319941,-0.818469,0.634893,-0.141291,-0.510551]
[0.000000,0.000000,0.000000,0.269414,0.264361,-0.349000,0.407135,1.163026,0.073100,0.501583,0.409701,-1.083535,-1.325437,-0.817921,0.633803,-0.155335,-0.529769]
[0.000000,0.000000,0.000000,0.262000,0.261000,-0.349000,0.412000,1.168000,0.072000,0.506000,0.420000,-1.079000,-1.332000,-0.818000,0.633000,-0.167000,-0.548000]
[0.000000,0.000000,0.000000,0.264516,0.257613,-0.349000,0.401258,1.162194,0.069226,0.506290,0.418806,-1.051581,-1.277774,-0.794355,0.595097,-0.162935,-0.539581]
[0.000000,0.000000,0.000000,0.267032,0.254226,-0.349000,0.390516,1.156387,0.066452,0.506581,0.417613,-1.024161,-1.223548,-0.770710,0.557194,-0.158871,-0.531161]
[0.000000,0.000000,0.000000,0.269548,0.250839,-0.349000,0.379774,1.150581,0.063677,0.506871,0.416419,-0.996742,-1.169323,-0.747065,0.519290,-0.154806,-0.522742]
[0.000000,0.000000,0.000000,0.272065,0.247452,-0.349000,0.369032,1.144774,0.060903,0.507161,0.415226,-0.969323,-1.115097,-0.723419,0.481387,-0.150742,-0.514323]
[0.000000,0.000000,0.000000,0.274581,0.244065,-0.349000,0.358290,1.138968,0.058129,0.507452,0.414032,-0.941903,-1.060871,-0.699774,0.443484,-0.146677,-0.505903]
[0.000000,0.000000,0.000000,0.277097,0.240677,-0.349000,0.347548,1.133161,0.055355,0.507742,0.412839,-0.914484,-1.006645,-0.676129,0.405581,-0.142613,-0.497484]
[0.000000,0.000000,0.000000,0.279613,0.237290,-0.349000,0.336806,1.127355,0.052581,0.508032,0.411645,-0.887065,-0.952419,-0.652484,0.367677,-0.138548,-0.489065]
[0.000000,0.000000,0.000000,0.282129,0.233903,-0.349000,0.326065,1.121548,0.049806,0.508323,0.410452,-0.859645,-0.898194,-0.628839,0.329774,-0.134484,-0.480645]
[0.000000,0.000000,0.000000,0.284645,0.230516,-0.349000,0.315323,1.115742,0.047032,0.508613,0.409258,-0.832226,-0.843968,-0.605194,0.291871,-0.130419,-0.472226]
[0.000000,0.000000,0.000000,0.287161,0.227129,-0.349000,0.304581,1.109935,0.044258,0.508903,0.408065,-0.804806,-0.789742,-0.581548,0.253968,-0.126355,-0.463806]
[0.000000,0.000000,0.000000,0.289677,0.223742,-0.349000,0.293839,1.104129,0.041484,0.509194,0.406871,-0.777387,-0.735516,-0.557903,0.216065,-0.122290,-0.455387]
[0.000000,0.000000,0.000000,0.292194,0.220355,-0.349000,0.283097,1.098323,0.038710,0.509484,0.405677,-0.749968,-0.681290,-0.534258,0.178161,-0.118226,-0.446968]
[0.000000,0.000000,0.000000,0.294710,0.216968,-0.349000,0.272355,1.092516,0.035935,0.509774,0.404484,-0.722548,-0.627065,-0.510613,0.140258,-0.114161,-0.438548]
[0.000000,0.000000,0.000000,0.297226,0.213581,-0.349000,0.261613,1.086710,0.033161,0.510065,0.403290,-0.695129,-0.572839,-0.486968,0.102355,-0.110097,-0.430129]
[0.000000,0.000000,0.000000,0.299742,0.210194,-0.349000,0.250871,1.080903,0.030387,0.510355,0.402097,-0.667710,-0.518613,-0.463323,0.064452,-0.106032,-0.421710]
[0.000000,0.000000,0.000000,0.302258,0.206806,-0.349000,0.240129,1.075097,0.027613,0.510645,0.400903,-0.640290,-0.464387,-0.439677,0.026548,-0.101968,-0.413290]
[0.000000,0.000000,0.000000,0.304774,0.203419,-0.349000,0.229387,1.069290,0.024839,0.510935,0.399710,-0.612871,-0.410161,-0.416032,-0.011355,-0.097903,-0.404871]
[0.000000,0.000000,0.000000,0.307290,0.200032,-0.349000,0.218645,1.063484,0.022065,0.511226,0.398516,-0.585452,-0.355935,-0.392387,-0.049258,-0.093839,-0.396452]
[0.000000,0.000000,0.000000,0.309806,0.196645,-0.349000,0.207903,1.057677,0.019290,0.511516,0.397323,-0.558032,-0.301710,-0.368742,-0.087161,-0.089774,-0.388032]
[0.000000,0.000000,0.000000,0.312323,0.193258,-0.349000,0.197161,1.051871,0.016516,0.511806,0.396129,-0.530613,-0.247484,-0.345097,-0.125065,-0.085710,-0.379613]
[0.000000,0.000000,0.000000,0.314839,0.189871,-0.349000,0.186419,1.046065,0.013742,0.512097,0.394935,-0.503194,-0.193258,-0.321452,-0.162968,-0.081645,-0.371194]
[0.000000,0.000000,0.000000,0.317355,0.186484,-0.349000,0.175677,1.040258,0.010968,0.512387,0.393742,-0.475774,-0.139032,-0.297806,-0.200871,-0.077581,-0.362774]
[0.000000,0.000000,0.000000,0.319871,0.183097,-0.349000,0.164935,1.034452,0.008194,0.512677,0.392548,-0.448355,-0.084806,-0.274161,-0.238774,-0.073516,-0.354355]
[0.000000,0.000000,0.000000,0.322387,0.179710,-0.349000,0.154194,1.028645,0.005419,0.512968,0.391355,-0.420935,-0.030581,-0.250516,-0.276677,-0.069452,-0.345935]
[0.000000,0.000000,0.000000,0.324903,0.176323,-0.349000,0.143452,1.022839,0.002645,0.513258,0.390161,-0.393516,0.023645,-0.226871,-0.314581,-0.065387,-0.337516]
[0.000000,0.000000,0.000000,0.327419,0.172935,-0.349000,0.132710,1.017032,-0.000129,0.513548,0.388968,-0.366097,0.077871,-0.203226,-0.352484,-0.061323,-0.329097]
[0.000000,0.000000,0.000000,0.329935,0.169548,-0.349000,0.121968,1.011226,-0.002903,0.513839,0.387774,-0.338677,0.132097,-0.179581,-0.390387,-0.057258,-0.320677]
[0.000000,0.000000,0.000000,0.332452,0.166161,-0.349000,0.111226,1.005419,-0.005677,0.514129,0.386581,-0.311258,0.186323,-0.155935,-0.428290,-0.053194,-0.312258]
[0.000000,0.000000,0.000000,0.334968,0.162774,-0.349000,0.100484,0.999613,-0.008452,0.514419,0.385387,-0.283839,0.240548,-0.132290,-0.466194,-0.049129,-0.303839]
[0.000000,0.000000,0.000000,0.337484,0.159387,-0.349000,0.089742,0.993806,-0.011226,0.514710,0.384194,-0.256419,0.294774,-0.108645,-0.504097,-0.045065,-0.295419]
[0.000000,0.000000,0.000000,0.340000,0.156000,-0.349000,0.079000,0.988000,-0.014000,0.515000,0.383000,-0.229000,0.349000,-0.085000,-0.542000,-0.041000,-0.287000]
[0.000000,0.000000,0.000000,0.339993,0.155995,-0.349000,0.079048,0.987982,-0.014079,0.515212,0.383006,-0.229000,0.349000,-0.084996,-0.540958,-0.041093,-0.286991]
[0.000000,0.000000,0.000000,0.340031,0.156025,-0.349000,0.080156,0.988086,-0.016393,0.519523,0.382972,-0.229000,0.349000,-0.085020,-0.541124,-0.041941,-0.287043]
[0.000000,0.000000,0.000000,0.339820,0.155854,-0.349000,0.081130,0.989223,-0.019516,0.522385,0.383168,-0.229001,0.349000,-0.084877,-0.542044,-0.040932,-0.286743]
[0.000000,0.000000,0.000000,0.338957,0.154766,-0.349000,0.082670,0.990253,-0.023384,0.526899,0.384104,-0.228996,0.349000,-0.083650,-0.542194,-0.040821,-0.284350]
[0.000000,0.000000,0.000000,0.338720,0.153356,-0.349000,0.085959,0.991403,-0.027695,0.532744,0.383952,-0.229020,0.349000,-0.082978,-0.543200,-0.039718,-0.282678]
[0.000000,0.000000,0.000000,0.337868,0.151478,-0.349000,0.086975,0.992063,-0.028422,0.531455,0.384093,-0.228913,0.349000,-0.082705,-0.542524,-0.038141,-0.281153]
[0.000000,0.000000,0.000000,0.338099,0.150580,-0.349000,0.087849,0.992069,-0.028790,0.530828,0.383534,-0.229471,0.349000,-0.081471,-0.542243,-0.036821,-0.279816]
[0.000000,0.000000,0.000000,0.337554,0.149346,-0.349000,0.089584,0.991483,-0.027108,0.531798,0.382883,-0.230089,0.349000,-0.080573,-0.543967,-0.037016,-0.280023]
[0.000000,0.000000,0.000000,0.336265,0.149020,-0.349000,0.091123,0.990808,-0.028473,0.535288,0.383110,-0.230001,0.349000,-0.078745,-0.546787,-0.037104,-0.280082]
[0.000000,0.000000,0.000000,0.336038,0.148394,-0.349000,0.093385,0.991724,-0.032475,0.539928,0.382360,-0.229918,0.349000,-0.077302,-0.549991,-0.036271,-0.279351]
[0.000000,0.000000,0.000000,0.335287,0.147232,-0.349000,0.095461,0.992055,-0.032239,0.542480,0.381284,-0.230713,0.349000,-0.076097,-0.553843,-0.036031,-0.277927]
[0.000000,0.000000,0.000000,0.334242,0.146214,-0.349000,0.097712,0.991976,-0.032790,0.545444,0.379522,-0.231785,0.348999,-0.077343,-0.559639,-0.035739,-0.271448]
[0.000000,0.000000,0.000000,0.332257,0.145051,-0.349000,0.098849,0.992042,-0.033025,0.547831,0.374176,-0.234351,0.349003,-0.085087,-0.568867,-0.040160,-0.264503]
[0.000000,0.000000,0.000000,0.330100,0.145028,-0.349000,0.100039,0.991072,-0.033013,0.547254,0.358885,-0.243445,0.348995,-0.113984,-0.578579,-0.048598,-0.261178]
[0.000000,0.000000,0.000000,0.327967,0.143997,-0.349000,0.096939,0.988951,-0.031971,0.536776,0.330218,-0.259379,0.341631,-0.162790,-0.578733,-0.052951,-0.254853]
[0.000000,0.000000,0.000000,0.325816,0.145121,-0.349000,0.093790,0.985828,-0.031122,0.523095,0.258264,-0.292016,0.302311,-0.205833,-0.543357,-0.040430,-0.245451]
[0.000000,0.000000,0.000000,0.323804,0.146046,-0.349000,0.091817,0.984931,-0.034443,0.513611,0.165906,-0.336279,0.256712,-0.230004,-0.496685,-0.017840,-0.243066]
[0.000000,0.000000,0.000000,0.322723,0.145991,-0.349000,0.090693,0.983468,-0.036275,0.502677,0.056885,-0.396651,0.217999,-0.228292,-0.455648,0.003619,-0.245820]
[0.000000,0.000000,0.000000,0.322134,0.145969,-0.349000,0.088143,0.980112,-0.037146,0.492569,-0.062662,-0.465403,0.190315,-0.204688,-0.419471,0.025419,-0.250054]
[0.000000,0.000000,0.000000,0.323342,0.146209,-0.349000,0.085178,0.976866,-0.036591,0.484084,-0.179869,-0.532160,0.170124,-0.169046,-0.391954,0.042079,-0.252515]
[0.000000,0.000000,0.000000,0.324752,0.147787,-0.349000,0.083225,0.974137,-0.036226,0.476231,-0.306133,-0.594801,0.158496,-0.113928,-0.369392,0.057141,-0.250296]
[0.000000,0.000000,0.000000,0.327001,0.149997,-0.349000,0.080702,0.971622,-0.037471,0.470293,-0.430870,-0.649084,0.152238,-0.049343,-0.354365,0.070621,-0.244230]
[0.000000,0.000000,0.000000,0.329141,0.152121,-0.349000,0.076720,0.968320,-0.035081,0.462503,-0.548488,-0.694543,0.148952,0.014410,-0.341957,0.086147,-0.240449]
[0.000000,0.000000,0.000000,0.331148,0.154232,-0.349000,0.073096,0.965039,-0.034938,0.455040,-0.660811,-0.733414,0.149970,0.079321,-0.333462,0.099614,-0.235702]
[0.000000,0.000000,0.000000,0.334113,0.156472,-0.349000,0.069740,0.962559,-0.036977,0.449344,-0.764943,-0.767443,0.153667,0.142954,-0.326185,0.110933,-0.232981]
[0.000000,0.000000,0.000000,0.336581,0.157803,-0.349000,0.068247,0.960480,-0.036339,0.445633,-0.858738,-0.795819,0.158632,0.199468,-0.318150,0.125764,-0.233006]
[0.000000,0.000000,0.000000,0.338635,0.158823,-0.349000,0.066326,0.958355,-0.035011,0.442529,-0.941641,-0.824529,0.165788,0.249447,-0.306961,0.139107,-0.233011]
[0.000000,0.000000,0.000000,0.340840,0.159900,-0.349000,0.065064,0.956158,-0.035935,0.439286,-1.016303,-0.850694,0.173231,0.295023,-0.295056,0.150844,-0.232969]
[0.000000,0.000000,0.000000,0.341972,0.160966,-0.349000,0.064057,0.955035,-0.035973,0.436125,-1.083006,-0.874265,0.181756,0.333816,-0.285249,0.162689,-0.233045]
[0.000000,0.000000,0.000000,0.343040,0.162032,-0.349000,0.061952,0.953988,-0.038070,0.431891,-1.142814,-0.896664,0.188194,0.371170,-0.278811,0.170213,-0.230977]
[0.000000,0.000000,0.000000,0.344042,0.163123,-0.349000,0.060839,0.953948,-0.038959,0.429889,-1.196834,-0.915692,0.194607,0.406106,-0.272335,0.177817,-0.232153]
[0.000000,0.000000,0.000000,0.343981,0.164026,-0.349000,0.058736,0.952842,-0.037840,0.428787,-1.244216,-0.932605,0.201081,0.435187,-0.264722,0.187727,-0.233075]
[0.000000,0.000000,0.000000,0.344019,0.164186,-0.349000,0.057851,0.951579,-0.036566,0.426163,-1.287068,-0.948418,0.207037,0.460945,-0.257805,0.196110,-0.232816]
[0.000000,0.000000,0.000000,0.343932,0.165092,-0.349000,0.056361,0.949532,-0.034600,0.421846,-1.325951,-0.963056,0.211507,0.486853,-0.253999,0.199014,-0.231709]
[0.000000,0.000000,0.000000,0.344352,0.165054,-0.349000,0.054805,0.948966,-0.033603,0.419557,-1.361998,-0.976662,0.216304,0.508323,-0.251299,0.203471,-0.230437]
[0.000000,0.000000,0.000000,0.345105,0.164558,-0.349000,0.055069,0.948922,-0.032868,0.418223,-1.393874,-0.988583,0.219354,0.530411,-0.251474,0.205132,-0.227612]
[0.000000,0.000000,0.000000,0.344975,0.163979,-0.349000,0.054910,0.949506,-0.033323,0.416148,-1.424553,-0.998804,0.222054,0.551204,-0.251633,0.205541,-0.225239]
[0.000000,0.000000,0.000000,0.344998,0.163517,-0.349000,0.055500,0.950092,-0.035291,0.416756,-1.452339,-1.007061,0.224537,0.567251,-0.250562,0.209819,-0.224973]
[0.000000,0.000000,0.000000,0.345029,0.162342,-0.349000,0.056692,0.949973,-0.036033,0.415762,-1.475693,-1.015136,0.228593,0.581524,-0.248143,0.214621,-0.224998]
[0.000000,0.000000,0.000000,0.344892,0.161264,-0.349000,0.057592,0.950027,-0.036692,0.414815,-1.497392,-1.023090,0.232295,0.594458,-0.245396,0.218655,-0.224668]
[0.000000,0.000000,0.000000,0.345834,0.160316,-0.349000,0.059642,0.949924,-0.037602,0.415640,-1.517204,-1.029843,0.234514,0.607768,-0.243797,0.217804,-0.220685]
[0.000000,0.000000,0.000000,0.345973,0.158256,-0.349000,0.060740,0.950831,-0.040638,0.418457,-1.534725,-1.034440,0.237509,0.614051,-0.236638,0.223655,-0.219911]
[0.000000,0.000000,0.000000,0.346899,0.157107,-0.349000,0.063771,0.951899,-0.041104,0.422609,-1.548267,-1.038643,0.240759,0.607336,-0.222411,0.233868,-0.219952]
[0.000000,0.000000,0.000000,0.347983,0.155035,-0.349000,0.065954,0.953950,-0.039998,0.427922,-1.552993,-1.043893,0.243941,0.581530,-0.202343,0.249815,-0.220054]
[0.000000,0.000000,0.000000,0.349038,0.152878,-0.349000,0.070227,0.958245,-0.041036,0.433357,-1.543850,-1.048996,0.241254,0.537098,-0.182188,0.257479,-0.211400]
[0.000000,0.000000,0.000000,0.348851,0.149584,-0.349000,0.075782,0.963569,-0.040979,0.443179,-1.499305,-1.038898,0.209348,0.457993,-0.171497,0.270109,-0.196070]
[0.000000,0.000000,0.000000,0.346555,0.145079,-0.349000,0.083066,0.969129,-0.041014,0.453934,-1.422636,-1.009665,0.164181,0.358281,-0.170997,0.274191,-0.179515]
[0.000000,0.000000,0.000000,0.342760,0.139947,-0.349000,0.088412,0.975105,-0.040961,0.464138,-1.320678,-0.965345,0.120596,0.246284,-0.171442,0.267862,-0.168866]
[0.000000,0.000000,0.000000,0.335627,0.135431,-0.349000,0.097216,0.979724,-0.041210,0.472742,-1.191238,-0.908364,0.086468,0.143169,-0.177743,0.244679,-0.164994]
[0.000000,0.000000,0.000000,0.326289,0.130390,-0.349000,0.109658,0.986357,-0.042545,0.477238,-1.036510,-0.843331,0.078948,0.069655,-0.189573,0.213031,-0.168339]
[0.000000,0.000000,0.000000,0.315100,0.125831,-0.349000,0.122630,0.993002,-0.042792,0.475735,-0.884685,-0.783462,0.087919,0.033939,-0.209398,0.179663,-0.174110]
[0.000000,0.000000,0.000000,0.302706,0.120317,-0.349000,0.138258,1.001266,-0.044571,0.479747,-0.746434,-0.730326,0.102526,0.024547,-0.242221,0.143856,-0.184626]
[0.000000,0.000000,0.000000,0.290285,0.115150,-0.349000,0.155094,1.009102,-0.046266,0.482853,-0.621184,-0.681468,0.115789,0.028282,-0.276294,0.110889,-0.196374]
[0.000000,0.000000,0.000000,0.279428,0.109000,-0.349000,0.170313,1.017384,-0.045643,0.483835,-0.508907,-0.636578,0.126770,0.040103,-0.306085,0.087451,-0.204178]
[0.000000,0.000000,0.000000,0.268064,0.103318,-0.349000,0.184713,1.024470,-0.042035,0.482714,-0.410111,-0.595004,0.135978,0.056533,-0.333434,0.067012,-0.210313]
[0.000000,0.000000,0.000000,0.256141,0.097963,-0.349000,0.196691,1.030795,-0.039409,0.480319,-0.322606,-0.556879,0.143664,0.073903,-0.358419,0.048381,-0.216840]
[0.000000,0.000000,0.000000,0.245384,0.093510,-0.349000,0.210165,1.037084,-0.036365,0.479732,-0.244335,-0.522155,0.150198,0.089136,-0.382103,0.030980,-0.222392]
[0.000000,0.000000,0.000000,0.232958,0.089294,-0.349000,0.224975,1.044628,-0.031748,0.483734,-0.174189,-0.490889,0.156606,0.104059,-0.403729,0.017709,-0.226742]
[0.000000,0.000000,0.000000,0.214000,0.084000,-0.349000,0.244000,1.045000,-0.004000,0.484000,-0.112000,-0.462000,0.162000,0.118000,-0.422000,0.007000,-0.231000]
[0.000000,0.000000,0.000000,0.218742,0.086710,-0.349000,0.241290,1.036355,-0.003226,0.475290,-0.095065,-0.455677,0.168032,0.126065,-0.443645,0.002645,-0.238484]
[0.000000,0.000000,0.000000,0.223484,0.089419,-0.349000,0.238581,1.027710,-0.002452,0.466581,-0.078129,-0.449355,0.174065,0.134129,-0.465290,-0.001710,-0.245968]
[0.000000,0.000000,0.000000,0.228226,0.092129,-0.349000,0.235871,1.019065,-0.001677,0.457871,-0.061194,-0.443032,0.180097,0.142194,-0.486935,-0.006065,-0.253452]
[0.000000,0.000000,0.000000,0.232968,0.094839,-0.349000,0.233161,1.010419,-0.000903,0.449161,-0.044258,-0.436710,0.186129,0.150258,-0.508581,-0.010419,-0.260935]
[0.000000,0.000000,0.000000,0.237710,0.097548,-0.349000,0.230452,1.001774,-0.000129,0.440452,-0.027323,-0.430387,0.192161,0.158323,-0.530226,-0.014774,-0.268419]
[0.000000,0.000000,0.000000,0.242452,0.100258,-0.349000,0.227742,0.993129,0.000645,0.431742,-0.010387,-0.424065,0.198194,0.166387,-0.551871,-0.019129,-0.275903]
[0.000000,0.000000,0.000000,0.247194,0.102968,-0.349000,0.225032,0.984484,0.001419,0.423032,0.006548,-0.417742,0.204226,0.174452,-0.573516,-0.023484,-0.283387]
[0.000000,0.000000,0.000000,0.251935,0.105677,-0.349000,0.222323,0.975839,0.002194,0.414323,0.023484,-0.411419,0.210258,0.182516,-0.595161,-0.027839,-0.290871]
[0.000000,0.000000,0.000000,0.256677,0.108387,-0.349000,0.219613,0.967194,0.002968,0.405613,0.040419,-0.405097,0.216290,0.190581,-0.616806,-0.032194,-0.298355]
[0.000000,0.000000,0.000000,0.261419,0.111097,-0.349000,0.216903,0.958548,0.003742,0.396903,0.057355,-0.398774,0.222323,0.198645,-0.638452,-0.036548,-0.305839]
[0.000000,0.000000,0.000000,0.266161,0.113806,-0.349000,0.214194,0.949903,0.004516,0.388194,0.074290,-0.392452,0.228355,0.206710,-0.660097,-0.040903,-0.313323]
[0.000000,0.000000,0.000000,0.270903,0.116516,-0.349000,0.211484,0.941258,0.005290,0.379484,0.091226,-0.386129,0.234387,0.214774,-0.681742,-0.045258,-0.320806]
[0.000000,0.000000,0.000000,0.275645,0.119226,-0.349000,0.208774,0.932613,0.006065,0.370774,0.108161,-0.379806,0.240419,0.222839,-0.703387,-0.049613,-0.328290]
[0.000000,0.000000,0.000000,0.280387,0.121935,-0.349000,0.206065,0.923968,0.006839,0.362065,0.125097,-0.373484,0.246452,0.230903,-0.725032,-0.053968,-0.335774]
[0.000000,0.000000,0.000000,0.285129,0.124645,-0.349000,0.203355,0.915323,0.007613,0.353355,0.142032,-0.367161,0.252484,0.238968,-0.746677,-0.058323,-0.343258]
[0.000000,0.000000,0.000000,0.289871,0.127355,-0.349000,0.200645,0.906677,0.008387,0.344645,0.158968,-0.360839,0.258516,0.247032,-0.768323,-0.062677,-0.350742]
[0.000000,0.000000,0.000000,0.294613,0.130065,-0.349000,0.197935,0.898032,0.009161,0.335935,0.175903,-0.354516,0.264548,0.255097,-0.789968,-0.067032,-0.358226]
[0.000000,0.000000,0.000000,0.299355,0.132774,-0.349000,0.195226,0.889387,0.009935,0.327226,0.192839,-0.348194,0.270581,0.263161,-0.811613,-0.071387,-0.365710]
[0.000000,0.000000,0.000000,0.304097,0.135484,-0.349000,0.192516,0.880742,0.010710,0.318516,0.209774,-0.341871,0.276613,0.271226,-0.833258,-0.075742,-0.373194]
[0.000000,0.000000,0.000000,0.308839,0.138194,-0.349000,0.189806,0.872097,0.011484,0.309806,0.226710,-0.335548,0.282645,0.279290,-0.854903,-0.080097,-0.380677]
[0.000000,0.000000,0.000000,0.313581,0.140903,-0.349000,0.187097,0.863452,0.012258,0.301097,0.243645,-0.329226,0.288677,0.287355,-0.876548,-0.084452,-0.388161]
[0.000000,0.000000,0.000000,0.318323,0.143613,-0.349000,0.184387,0.854806,0.013032,0.292387,0.260581,-0.322903,0.294710,0.295419,-0.898194,-0.088806,-0.395645]
[0.000000,0.000000,0.000000,0.323065,0.146323,-0.349000,0.181677,0.846161,0.013806,0.283677,0.277516,-0.316581,0.300742,0.303484,-0.919839,-0.093161,-0.403129]
[0.000000,0.000000,0.000000,0.327806,0.149032,-0.349000,0.178968,0.837516,0.014581,0.274968,0.294452,-0.310258,0.306774,0.311548,-0.941484,-0.097516,-0.410613]
[0.000000,0.000000,0.000000,0.332548,0.151742,-0.349000,0.176258,0.828871,0.015355,0.266258,0.311387,-0.303935,0.312806,0.319613,-0.963129,-0.101871,-0.418097]
[0.000000,0.000000,0.000000,0.337290,0.154452,-0.349000,0.173548,0.820226,0.016129,0.257548,0.328323,-0.297613,0.318839,0.327677,-0.984774,-0.106226,-0.425581]
[0.000000,0.000000,0.000000,0.342032,0.157161,-0.349000,0.170839,0.811581,0.016903,0.248839,0.345258,-0.291290,0.324871,0.335742,-1.006419,-0.110581,-0.433065]
[0.000000,0.000000,0.000000,0.346774,0.159871,-0.349000,0.168129,0.802935,0.017677,0.240129,0.362194,-0.284968,0.330903,0.343806,-1.028065,-0.114935,-0.440548]
[0.000000,0.000000,0.000000,0.351516,0.162581,-0.349000,0.165419,0.794290,0.018452,0.231419,0.379129,-0.278645,0.336935,0.351871,-1.049710,-0.119290,-0.448032]
[0.000000,0.000000,0.000000,0.356258,0.165290,-0.349000,0.162710,0.785645,0.019226,0.222710,0.396065,-0.272323,0.342968,0.359935,-1.071355,-0.123645,-0.455516]
[0.000000,0.000000,0.000000,0.361000,0.168000,-0.349000,0.160000,0.777000,0.020000,0.214000,0.413000,-0.266000,0.349000,0.368000,-1.093000,-0.128000,-0.463000]
[0.000000,0.000000,0.000000,0.361001,0.168002,-0.349000,0.160339,0.776789,0.020070,0.213483,0.413000,-0.266000,0.349000,0.368017,-1.093186,-0.128008,-0.463764]
[0.000000,0.000000,0.000000,0.361000,0.168001,-0.349000,0.160145,0.776903,0.020027,0.213114,0.413000,-0.266000,0.349000,0.368007,-1.093087,-0.128003,-0.463996]
[0.000000,0.000000,0.000000,0.361000,0.167999,-0.349000,0.159678,0.777237,0.019953,0.212783,0.413000,-0.266000,0.349000,0.367988,-1.092781,-0.127995,-0.463956]
[0.000000,0.000000,0.000000,0.360999,0.167998,-0.349000,0.159201,0.777681,0.019935,0.212381,0.413000,-0.266000,0.349000,0.367984,-1.092342,-0.127993,-0.463905]
[0.000000,0.000000,0.000000,0.361000,0.168002,-0.349000,0.158970,0.778131,0.020057,0.211798,0.413000,-0.266000,0.349000,0.368013,-1.091849,-0.128006,-0.464098]
[0.000000,0.000000,0.000000,0.361002,0.168006,-0.349000,0.159020,0.778542,0.020387,0.210996,0.413000,-0.266000,0.349000,0.368053,-1.091378,-0.128024,-0.464572]
[0.000000,0.000000,0.000000,0.361000,0.168001,-0.349000,0.159008,0.778979,0.020967,0.210045,0.413000,-0.266000,0.349000,0.368006,-1.091013,-0.128003,-0.464989]
[0.000000,0.000000,0.000000,0.360994,0.167982,-0.349000,0.158658,0.779475,0.021797,0.209052,0.413000,-0.266000,0.349000,0.367840,-1.090830,-0.127926,-0.465072]
[0.000000,0.000000,0.000000,0.360995,0.167984,-0.349000,0.158163,0.779896,0.022687,0.208227,0.413000,-0.266000,0.349000,0.367857,-1.090894,-0.127934,-0.465002]
[0.000000,0.000000,0.000000,0.361014,0.168044,-0.349000,0.157838,0.780070,0.023402,0.207794,0.412999,-0.266000,0.349000,0.368418,-1.091250,-0.128194,-0.465078]
[0.000000,0.000000,0.000000,0.361026,0.168084,-0.349000,0.157818,0.780038,0.023845,0.207791,0.412998,-0.266000,0.349000,0.369367,-1.091737,-0.128655,-0.465467]
[0.000000,0.000000,0.000000,0.360980,0.167935,-0.349000,0.158102,0.780001,0.024021,0.208105,0.413002,-0.266000,0.349000,0.370161,-1.092046,-0.129102,-0.466237]
[0.000000,0.000000,0.000000,0.360904,0.167538,-0.349000,0.158586,0.780041,0.024004,0.208581,0.413008,-0.266001,0.349000,0.370565,-1.092053,-0.129312,-0.467096]
[0.000000,0.000000,0.000000,0.360979,0.167043,-0.349000,0.158980,0.780012,0.023993,0.208977,0.413002,-0.266000,0.349000,0.370951,-1.091998,-0.129054,-0.467080]
[0.000000,0.000000,0.000000,0.361344,0.166595,-0.349000,0.159108,0.779824,0.024125,0.209155,0.412977,-0.265996,0.349000,0.371670,-1.092086,-0.128154,-0.465443]
[0.000000,0.000000,0.000000,0.361824,0.166184,-0.349000,0.159524,0.779820,0.024135,0.209573,0.412977,-0.265996,0.349000,0.372598,-1.092103,-0.126732,-0.462993]
[0.000000,0.000000,0.000000,0.362150,0.165753,-0.349000,0.160967,0.780457,0.023653,0.210838,0.413053,-0.266010,0.349000,0.373474,-1.091719,-0.125008,-0.460990]
[0.000000,0.000000,0.000000,0.362187,0.165312,-0.349000,0.163250,0.781753,0.022740,0.212714,0.413110,-0.266021,0.349000,0.374283,-1.090874,-0.123237,-0.459751]
[0.000000,0.000000,0.000000,0.361916,0.164925,-0.349000,0.165399,0.783348,0.021827,0.214253,0.412932,-0.265987,0.349000,0.375220,-1.089744,-0.121707,-0.458794]
[0.000000,0.000000,0.000000,0.361425,0.164578,-0.349000,0.166835,0.785002,0.021230,0.214902,0.412467,-0.265926,0.349000,0.376273,-1.088482,-0.120491,-0.457699]
[0.000000,0.000000,0.000000,0.361028,0.164088,-0.349000,0.167868,0.786753,0.021002,0.215003,0.412036,-0.265976,0.349000,0.376964,-1.087175,-0.119203,-0.456236]
[0.000000,0.000000,0.000000,0.360984,0.163304,-0.349000,0.168855,0.788624,0.021152,0.214974,0.411930,-0.266263,0.349000,0.376875,-1.085891,-0.117508,-0.454318]
[0.000000,0.000000,0.000000,0.361053,0.162397,-0.349000,0.169709,0.790340,0.021649,0.214973,0.411998,-0.266738,0.349000,0.376294,-1.084620,-0.115726,-0.452547]
[0.000000,0.000000,0.000000,0.360827,0.161649,-0.349000,0.170200,0.791538,0.022430,0.215063,0.411932,-0.267294,0.349000,0.375731,-1.083318,-0.114385,-0.451733]
[0.000000,0.000000,0.000000,0.360324,0.161186,-0.349000,0.170499,0.792308,0.023084,0.215390,0.411562,-0.268034,0.348999,0.374837,-1.081763,-0.113308,-0.451584]
[0.000000,0.000000,0.000000,0.359969,0.160983,-0.349000,0.171161,0.793176,0.022873,0.216173,0.410856,-0.269252,0.349000,0.372439,-1.079568,-0.111641,-0.450755]
[0.000000,0.000000,0.000000,0.359979,0.160972,-0.349000,0.172435,0.794435,0.021559,0.217447,0.409785,-0.271126,0.349003,0.367434,-1.076380,-0.109027,-0.448729]
[0.000000,0.000000,0.000000,0.360021,0.161003,-0.349000,0.173796,0.795780,0.020166,0.218789,0.408311,-0.273526,0.349001,0.358956,-1.071947,-0.106390,-0.447103]
[0.000000,0.000000,0.000000,0.359746,0.160945,-0.349000,0.174715,0.796859,0.019715,0.219785,0.406329,-0.276372,0.348991,0.346074,-1.066009,-0.104714,-0.447506]
[0.000000,0.000000,0.000000,0.359252,0.160921,-0.349000,0.175465,0.797654,0.019917,0.220560,0.403287,-0.280246,0.348989,0.327125,-1.058125,-0.104053,-0.449604]
[0.000000,0.000000,0.000000,0.358815,0.161151,-0.349000,0.176638,0.798289,0.019948,0.221461,0.398467,-0.285980,0.349020,0.300243,-1.047801,-0.104066,-0.452252]
[0.000000,0.000000,0.000000,0.358455,0.161617,-0.349000,0.178355,0.799009,0.019522,0.222675,0.391815,-0.293561,0.349050,0.266357,-1.035208,-0.104244,-0.454831]
[0.000000,0.000000,0.000000,0.357914,0.162040,-0.349000,0.180226,0.800182,0.018928,0.224206,0.383993,-0.302069,0.348983,0.229404,-1.021228,-0.103907,-0.457298]
[0.000000,0.000000,0.000000,0.357063,0.162201,-0.349000,0.181963,0.801932,0.018419,0.225973,0.375488,-0.310708,0.348612,0.192287,-1.006584,-0.102603,-0.459494]
[0.000000,0.000000,0.000000,0.356172,0.162070,-0.349000,0.183625,0.803679,0.018058,0.227666,0.366211,-0.319153,0.347433,0.154632,-0.991457,-0.100537,-0.460868]
[0.000000,0.000000,0.000000,0.355538,0.161670,-0.349000,0.185317,0.804821,0.017837,0.228998,0.356025,-0.327189,0.344970,0.115691,-0.975936,-0.098029,-0.460934]
[0.000000,0.000000,0.000000,0.355160,0.161197,-0.349000,0.187032,0.805549,0.017459,0.230195,0.345244,-0.334800,0.341383,0.076245,-0.960134,-0.095415,-0.460277]
[0.000000,0.000000,0.000000,0.354886,0.160922,-0.349000,0.188708,0.806423,0.016497,0.231710,0.334384,-0.342063,0.337131,0.037791,-0.944178,-0.093026,-0.459976]
[0.000000,0.000000,0.000000,0.354546,0.160916,-0.349000,0.190372,0.807672,0.015068,0.233535,0.323709,-0.348986,0.332509,0.001150,-0.928290,-0.090921,-0.460398]
[0.000000,0.000000,0.000000,0.353938,0.161006,-0.349000,0.192147,0.809116,0.013941,0.235100,0.313175,-0.355495,0.327606,-0.033674,-0.912805,-0.088829,-0.461047]
[0.000000,0.000000,0.000000,0.353006,0.161046,-0.349000,0.194041,0.810548,0.013655,0.235946,0.302772,-0.361576,0.322515,-0.066705,-0.897972,-0.086597,-0.461523]
[0.000000,0.000000,0.000000,0.352153,0.161018,-0.349000,0.195668,0.811746,0.013903,0.236075,0.292655,-0.367429,0.317375,-0.097906,-0.883746,-0.084497,-0.461896]
[0.000000,0.000000,0.000000,0.351814,0.160939,-0.349000,0.196613,0.812511,0.014253,0.235592,0.283015,-0.373285,0.312341,-0.127239,-0.870034,-0.082822,-0.462280]
[0.000000,0.000000,0.000000,0.351900,0.160916,-0.349000,0.196949,0.812886,0.014655,0.234679,0.274073,-0.379247,0.307634,-0.154793,-0.856850,-0.081234,-0.462354]
[0.000000,0.000000,0.000000,0.352036,0.161106,-0.349000,0.197012,0.813046,0.015267,0.233563,0.266064,-0.385347,0.303505,-0.180722,-0.844267,-0.079069,-0.461573]
[0.000000,0.000000,0.000000,0.352041,0.161527,-0.349000,0.197013,0.813086,0.016113,0.232344,0.259039,-0.391449,0.300004,-0.205071,-0.832249,-0.076331,-0.460086]
[0.000000,0.000000,0.000000,0.351999,0.162016,-0.349000,0.197000,0.812995,0.017030,0.230949,0.252800,-0.397183,0.296899,-0.227735,-0.820612,-0.073935,-0.458981]
[0.000000,0.000000,0.000000,0.351986,0.162442,-0.349000,0.196997,0.812822,0.017806,0.229415,0.247202,-0.402343,0.294038,-0.248592,-0.809327,-0.072598,-0.459052]
[0.000000,0.000000,0.000000,0.351996,0.162857,-0.349000,0.197000,0.812877,0.018080,0.228216,0.242347,-0.407359,0.291623,-0.267487,-0.798960,-0.072072,-0.459771]
[0.000000,0.000000,0.000000,0.352004,0.163336,-0.349000,0.196999,0.813480,0.017526,0.227851,0.238392,-0.412750,0.289922,-0.284259,-0.790157,-0.071938,-0.460373]
[0.000000,0.000000,0.000000,0.352003,0.163795,-0.349000,0.196997,0.814431,0.016521,0.228006,0.235417,-0.418386,0.289070,-0.298743,-0.782988,-0.072293,-0.460743]
[0.000000,0.000000,0.000000,0.351999,0.164055,-0.349000,0.197004,0.815218,0.015863,0.227879,0.233451,-0.423744,0.289118,-0.310775,-0.777172,-0.073546,-0.461166]
[0.000000,0.000000,0.000000,0.351997,0.164071,-0.349000,0.197014,0.815642,0.015850,0.227107,0.232406,-0.428556,0.289911,-0.320569,-0.772349,-0.075850,-0.461870]
[0.000000,0.000000,0.000000,0.352000,0.164001,-0.349000,0.197000,0.815995,0.015999,0.226013,0.232002,-0.432952,0.290988,-0.328911,-0.768047,-0.078962,-0.462985]
[0.000000,0.000000,0.000000,0.352007,0.163983,-0.349000,0.196955,0.816501,0.015850,0.224951,0.232027,-0.437051,0.292022,-0.336440,-0.763994,-0.082611,-0.464562]
[0.000000,0.000000,0.000000,0.352006,0.163999,-0.349000,0.196963,0.816930,0.015298,0.224170,0.232611,-0.440776,0.293352,-0.342971,-0.760788,-0.086555,-0.466360]
[0.000000,0.000000,0.000000,0.351983,0.163990,-0.349000,0.197132,0.816980,0.014362,0.223864,0.233959,-0.444022,0.295437,-0.348160,-0.759172,-0.090562,-0.468086]
[0.000000,0.000000,0.000000,0.351970,0.163976,-0.349000,0.197538,0.816865,0.013392,0.223920,0.236086,-0.446944,0.298102,-0.352300,-0.758897,-0.094435,-0.469746]
[0.000000,0.000000,0.000000,0.352026,0.164024,-0.349000,0.198236,0.817160,0.012962,0.224011,0.238876,-0.449876,0.300728,-0.356127,-0.759027,-0.098000,-0.471556]
[0.000000,0.000000,0.000000,0.352112,0.164104,-0.349000,0.199147,0.818036,0.013290,0.223822,0.242179,-0.452933,0.302959,-0.360031,-0.759014,-0.101145,-0.473625]
[0.000000,0.000000,0.000000,0.352015,0.164014,-0.349000,0.199964,0.818959,0.013962,0.223065,0.245792,-0.455847,0.304897,-0.363798,-0.758997,-0.103860,-0.475871]
[0.000000,0.000000,0.000000,0.351596,0.163616,-0.349000,0.200449,0.819470,0.014557,0.221636,0.249539,-0.458349,0.306546,-0.367306,-0.759107,-0.106235,-0.478231]
[0.000000,0.000000,0.000000,0.351120,0.163138,-0.349000,0.200811,0.819810,0.014929,0.220290,0.253400,-0.460346,0.307213,-0.371158,-0.759109,-0.108779,-0.480835]
[0.000000,0.000000,0.000000,0.350949,0.162903,-0.349000,0.201375,0.820400,0.015021,0.219970,0.257387,-0.461812,0.306007,-0.376152,-0.758677,-0.112045,-0.483855]
[0.000000,0.000000,0.000000,0.351020,0.162932,-0.349000,0.202227,0.821286,0.014967,0.220549,0.261307,-0.463002,0.302127,-0.382779,-0.757804,-0.115388,-0.487270]
[0.000000,0.000000,0.000000,0.350948,0.163014,-0.349000,0.203271,0.822223,0.015046,0.221075,0.264809,-0.464384,0.294848,-0.391289,-0.756729,-0.117239,-0.490915]
[0.000000,0.000000,0.000000,0.350547,0.163022,-0.349000,0.204458,0.823070,0.015260,0.221211,0.267799,-0.466134,0.283997,-0.401280,-0.755713,-0.117451,-0.494976]
[0.000000,0.000000,0.000000,0.350046,0.163001,-0.349000,0.205846,0.823911,0.015066,0.221864,0.270694,-0.467847,0.270476,-0.411089,-0.755038,-0.118699,-0.500346]
[0.000000,0.000000,0.000000,0.349656,0.163005,-0.349000,0.207473,0.824821,0.014022,0.223793,0.273724,-0.469223,0.254890,-0.419355,-0.754620,-0.122869,-0.507597]
[0.000000,0.000000,0.000000,0.349252,0.163010,-0.349000,0.209221,0.825680,0.012579,0.226160,0.275793,-0.470897,0.235559,-0.427148,-0.752358,-0.125769,-0.515136]
[0.000000,0.000000,0.000000,0.348602,0.162973,-0.349000,0.210927,0.826312,0.011451,0.227659,0.275406,-0.473806,0.210152,-0.436226,-0.745614,-0.121480,-0.520715]
[0.000000,0.000000,0.000000,0.347719,0.162940,-0.349000,0.212596,0.826723,0.010693,0.228307,0.271925,-0.478589,0.178520,-0.445858,-0.734453,-0.109961,-0.523503]
[0.000000,0.000000,0.000000,0.346830,0.163036,-0.349000,0.214377,0.827074,0.009777,0.229280,0.265459,-0.485621,0.142429,-0.453142,-0.721297,-0.096319,-0.523915]
[0.000000,0.000000,0.000000,0.346037,0.163353,-0.349000,0.216385,0.827481,0.008458,0.231243,0.256393,-0.495267,0.103516,-0.455902,-0.707854,-0.084043,-0.522817]
[0.000000,0.000000,0.000000,0.345151,0.163901,-0.349000,0.218647,0.827932,0.007158,0.233653,0.245650,-0.507886,0.062987,-0.453738,-0.694062,-0.072651,-0.521985]
[0.000000,0.000000,0.000000,0.343991,0.164666,-0.349000,0.221154,0.828398,0.006275,0.235899,0.234081,-0.523758,0.021876,-0.446498,-0.679709,-0.061346,-0.522960]
[0.000000,0.000000,0.000000,0.342659,0.165554,-0.349000,0.223750,0.828824,0.005510,0.237972,0.221620,-0.542661,-0.019482,-0.434079,-0.665127,-0.050693,-0.525041]
[0.000000,0.000000,0.000000,0.341353,0.166444,-0.349000,0.226223,0.829142,0.004323,0.240072,0.207858,-0.564201,-0.061004,-0.416429,-0.650816,-0.041692,-0.526717]
[0.000000,0.000000,0.000000,0.340106,0.167293,-0.349000,0.228425,0.829231,0.002857,0.241987,0.192701,-0.588358,-0.102199,-0.394225,-0.636336,-0.033433,-0.527537]
[0.000000,0.000000,0.000000,0.338781,0.168133,-0.349000,0.230261,0.828917,0.001921,0.243096,0.176360,-0.615477,-0.142170,-0.368856,-0.620325,-0.023130,-0.528097]
[0.000000,0.000000,0.000000,0.337365,0.168986,-0.349000,0.231693,0.828149,0.001901,0.243165,0.159118,-0.645799,-0.180241,-0.341013,-0.602566,-0.009770,-0.528854]
[0.000000,0.000000,0.000000,0.336172,0.169839,-0.349000,0.232813,0.827182,0.002035,0.242984,0.141401,-0.679261,-0.216331,-0.309543,-0.585817,0.002994,-0.529803]
[0.000000,0.000000,0.000000,0.335500,0.170679,-0.349000,0.233730,0.826285,0.001520,0.243383,0.123603,-0.715562,-0.250484,-0.273394,-0.572982,0.011396,-0.530804]
[0.000000,0.000000,0.000000,0.335171,0.171527,-0.349000,0.234555,0.825457,0.000526,0.244361,0.105729,-0.753062,-0.282999,-0.234288,-0.564700,0.016094,-0.531260]
[0.000000,0.000000,0.000000,0.334809,0.172416,-0.349000,0.235394,0.824590,-0.000370,0.245559,0.087613,-0.789570,-0.314284,-0.195108,-0.560619,0.019628,-0.530396]
[0.000000,0.000000,0.000000,0.334329,0.173306,-0.349000,0.236264,0.823695,-0.001097,0.246809,0.069050,-0.824016,-0.344650,-0.157353,-0.560359,0.023161,-0.528018]
[0.000000,0.000000,0.000000,0.333974,0.174077,-0.349000,0.237088,0.822925,-0.002151,0.248158,0.049794,-0.856571,-0.374302,-0.120978,-0.563511,0.026323,-0.524575]
[0.000000,0.000000,0.000000,0.333902,0.174631,-0.349000,0.237852,0.822390,-0.003805,0.249681,0.029815,-0.887500,-0.403330,-0.085858,-0.569580,0.028796,-0.520499]
[0.000000,0.000000,0.000000,0.333980,0.174957,-0.349000,0.238746,0.822056,-0.005613,0.251509,0.009693,-0.917151,-0.431507,-0.051869,-0.577823,0.030642,-0.516069]
[0.000000,0.000000,0.000000,0.334039,0.175062,-0.349000,0.239951,0.821840,-0.007073,0.253725,-0.009979,-0.945837,-0.458570,-0.018906,-0.587538,0.032008,-0.511513]
[0.000000,0.000000,0.000000,0.334031,0.175032,-0.349000,0.241293,0.821456,-0.008271,0.255946,-0.029451,-0.973466,-0.484437,0.012957,-0.598694,0.033212,-0.506833]
[0.000000,0.000000,0.000000,0.333969,0.174985,-0.349000,0.242426,0.820531,-0.009574,0.257568,-0.049373,-0.999747,-0.509113,0.043561,-0.611575,0.034645,-0.501928]
[0.000000,0.000000,0.000000,0.333918,0.174981,-0.349000,0.243267,0.819143,-0.010984,0.258452,-0.069863,-1.024673,-0.532509,0.072843,-0.625757,0.036383,-0.496812]
[0.000000,0.000000,0.000000,0.334014,0.175002,-0.349000,0.244057,0.817938,-0.012052,0.259040,-0.090371,-1.048588,-0.554427,0.100849,-0.639927,0.038109,-0.491655]
[0.000000,0.000000,0.000000,0.334347,0.175025,-0.349000,0.244959,0.817360,-0.012519,0.259732,-0.110487,-1.071735,-0.574774,0.127707,-0.653103,0.039558,-0.486662]
[0.000000,0.000000,0.000000,0.334845,0.175014,-0.349000,0.245805,0.817087,-0.012848,0.260676,-0.130400,-1.093957,-0.593830,0.153768,-0.665558,0.040720,-0.482140]
[0.000000,0.000000,0.000000,0.335398,0.174946,-0.349000,0.246386,0.816690,-0.013579,0.261939,-0.150391,-1.115036,-0.611913,0.179361,-0.677746,0.041673,-0.478363]
[0.000000,0.000000,0.000000,0.335849,0.174919,-0.349000,0.246766,0.816210,-0.014537,0.263287,-0.170440,-1.134977,-0.628948,0.204144,-0.689344,0.042855,-0.475071]
[0.000000,0.000000,0.000000,0.336023,0.175101,-0.349000,0.247160,0.815943,-0.015163,0.264330,-0.190359,-1.153912,-0.644643,0.227402,-0.699589,0.044903,-0.471715]
[0.000000,0.000000,0.000000,0.335959,0.175521,-0.349000,0.247626,0.815959,-0.015422,0.265064,-0.210030,-1.171989,-0.658592,0.248589,-0.707358,0.048649,-0.467984]
[0.000000,0.000000,0.000000,0.336005,0.176010,-0.349000,0.248006,0.815999,-0.016023,0.266028,-0.229433,-1.189385,-0.670232,0.267394,-0.711025,0.055186,-0.463905]
[0.000000,0.000000,0.000000,0.336397,0.176438,-0.349000,0.248161,0.815813,-0.017397,0.267523,-0.248436,-1.206177,-0.679140,0.283501,-0.709308,0.065346,-0.459667]
[0.000000,0.000000,0.000000,0.336883,0.176852,-0.349000,0.248076,0.815271,-0.018747,0.268799,-0.266456,-1.222075,-0.685457,0.296505,-0.702332,0.078917,-0.455959]
[0.000000,0.000000,0.000000,0.337122,0.177331,-0.349000,0.247775,0.814311,-0.019107,0.268965,-0.282864,-1.236721,-0.689459,0.306008,-0.690666,0.095362,-0.453426]
[0.000000,0.000000,0.000000,0.337089,0.177792,-0.349000,0.247329,0.813329,-0.018868,0.268335,-0.297684,-1.249934,-0.691510,0.311943,-0.676122,0.113210,-0.450888]
[0.000000,0.000000,0.000000,0.336957,0.178053,-0.349000,0.246843,0.813003,-0.019271,0.267973,-0.311352,-1.261648,-0.692025,0.314453,-0.661278,0.130421,-0.446040]
[0.000000,0.000000,0.000000,0.336884,0.178066,-0.349000,0.246393,0.813468,-0.020667,0.268351,-0.324086,-1.271712,-0.691407,0.313917,-0.647339,0.146010,-0.438533]
[0.000000,0.000000,0.000000,0.336994,0.178001,-0.349000,0.246008,0.813994,-0.021981,0.268987,-0.335751,-1.279842,-0.690036,0.311084,-0.633325,0.160675,-0.431141]
[0.000000,0.000000,0.000000,0.337358,0.178001,-0.349000,0.245677,0.813933,-0.022246,0.269371,-0.346171,-1.285692,-0.688222,0.306536,-0.618281,0.174923,-0.426277]
[0.000000,0.000000,0.000000,0.337835,0.178013,-0.349000,0.245234,0.813322,-0.021485,0.269228,-0.355111,-1.288717,-0.685965,0.300015,-0.602187,0.187824,-0.423628]
[0.000000,0.000000,0.000000,0.338242,0.177947,-0.349000,0.244495,0.812387,-0.019996,0.268399,-0.362324,-1.288358,-0.683187,0.290994,-0.585277,0.198182,-0.422167]
[0.000000,0.000000,0.000000,0.338625,0.177898,-0.349000,0.243579,0.811452,-0.018198,0.267358,-0.367572,-1.284598,-0.679820,0.278303,-0.567792,0.206446,-0.421032]
[0.000000,0.000000,0.000000,0.339188,0.178091,-0.349000,0.242822,0.810908,-0.016599,0.267030,-0.370625,-1.277807,-0.675804,0.260334,-0.549980,0.214225,-0.419482]
[0.000000,0.000000,0.000000,0.340010,0.178558,-0.349000,0.242371,0.810877,-0.015531,0.267775,-0.371571,-1.268238,-0.671209,0.236814,-0.532378,0.222237,-0.417129]
[0.000000,0.000000,0.000000,0.340938,0.178982,-0.349000,0.242025,0.810997,-0.015015,0.268927,-0.371068,-1.255928,-0.666331,0.209880,-0.516030,0.229558,-0.414210]
[0.000000,0.000000,0.000000,0.341824,0.179092,-0.349000,0.241600,0.810955,-0.014979,0.269858,-0.369629,-1.240892,-0.661095,0.181589,-0.501822,0.235236,-0.411174]
[0.000000,0.000000,0.000000,0.342660,0.179022,-0.349000,0.241157,0.810929,-0.015049,0.270645,-0.366781,-1.223159,-0.653483,0.152403,-0.489604,0.239006,-0.409188]
[0.000000,0.000000,0.000000,0.343478,0.179011,-0.349000,0.240819,0.811219,-0.014778,0.271560,-0.361827,-1.202831,-0.641075,0.122283,-0.478890,0.240862,-0.409520]
[0.000000,0.000000,0.000000,0.344318,0.179055,-0.349000,0.240469,0.811727,-0.013971,0.272504,-0.355244,-1.181147,-0.624519,0.090978,-0.468865,0.241515,-0.411572]
[0.000000,0.000000,0.000000,0.345221,0.178952,-0.349000,0.239796,0.812032,-0.012641,0.273084,-0.348450,-1.160241,-0.606903,0.058082,-0.458461,0.242245,-0.413257]
[0.000000,0.000000,0.000000,0.346153,0.178592,-0.349000,0.238643,0.811983,-0.011067,0.273143,-0.341898,-1.139926,-0.588598,0.025262,-0.448122,0.243650,-0.413589]
[0.000000,0.000000,0.000000,0.346931,0.178065,-0.349000,0.237175,0.811977,-0.010043,0.273010,-0.334043,-1.115281,-0.564356,-0.001629,-0.441364,0.244911,-0.413896]
[0.000000,0.000000,0.000000,0.347412,0.177443,-0.349000,0.235571,0.812423,-0.010196,0.272949,-0.323591,-1.081925,-0.529822,-0.017349,-0.441448,0.245194,-0.415368]
[0.000000,0.000000,0.000000,0.347782,0.176561,-0.349000,0.233846,0.813391,-0.010847,0.272516,-0.312026,-1.041716,-0.489467,-0.022940,-0.448119,0.244531,-0.416854]
[0.000000,0.000000,0.000000,0.348337,0.175191,-0.349000,0.231949,0.814817,-0.010899,0.271051,-0.301730,-0.998618,-0.450587,-0.021574,-0.459916,0.243264,-0.416468]
[0.000000,0.000000,0.000000,0.349172,0.173433,-0.349000,0.229590,0.816284,-0.010053,0.268506,-0.293780,-0.955269,-0.415655,-0.015210,-0.475751,0.241854,-0.413905]
[0.000000,0.000000,0.000000,0.350211,0.171685,-0.349000,0.226269,0.817061,-0.008730,0.265385,-0.288076,-0.913100,-0.382789,-0.004714,-0.494874,0.240871,-0.410277]
[0.000000,0.000000,0.000000,0.351530,0.170114,-0.349000,0.221936,0.816679,-0.007071,0.262579,-0.283990,-0.873024,-0.350687,0.009206,-0.517082,0.240511,-0.406062]
[0.000000,0.000000,0.000000,0.353579,0.168330,-0.349000,0.217605,0.815293,-0.004524,0.261814,-0.279794,-0.834853,-0.319726,0.026099,-0.543406,0.240116,-0.400166]
[0.000000,0.000000,0.000000,0.356755,0.165967,-0.349000,0.214231,0.813285,-0.000579,0.264331,-0.273862,-0.798280,-0.290417,0.045470,-0.574752,0.239100,-0.391492]
[0.000000,0.000000,0.000000,0.360795,0.163298,-0.349000,0.211455,0.811925,0.004363,0.267489,-0.266254,-0.763189,-0.262614,0.066301,-0.610131,0.238118,-0.380327]
[0.000000,0.000000,0.000000,0.365190,0.160835,-0.349000,0.208426,0.812771,0.009531,0.267283,-0.257679,-0.729547,-0.235920,0.087396,-0.647811,0.238276,-0.367516]
[0.000000,0.000000,0.000000,0.369779,0.158716,-0.349000,0.204954,0.815826,0.013892,0.263940,-0.248454,-0.697344,-0.210175,0.108247,-0.686333,0.239637,-0.354077]
[0.000000,0.000000,0.000000,0.374760,0.156703,-0.349000,0.201520,0.819516,0.016149,0.261978,-0.238496,-0.666601,-0.185457,0.129042,-0.724510,0.241201,-0.341199]
[0.000000,0.000000,0.000000,0.380211,0.154610,-0.349000,0.198451,0.822687,0.015776,0.264169,-0.227879,-0.637324,-0.161844,0.149803,-0.761452,0.242246,-0.329649]
[0.000000,0.000000,0.000000,0.385862,0.152444,-0.349000,0.195579,0.825459,0.014277,0.268228,-0.217134,-0.609466,-0.139394,0.170027,-0.796988,0.242894,-0.319069]
[0.000000,0.000000,0.000000,0.391429,0.150248,-0.349000,0.192680,0.828120,0.013249,0.271424,-0.206817,-0.582958,-0.118131,0.189202,-0.831072,0.243383,-0.308972]
[0.000000,0.000000,0.000000,0.396936,0.148111,-0.349000,0.189687,0.830678,0.012562,0.273709,-0.197097,-0.557585,-0.097853,0.207350,-0.863680,0.243797,-0.299217]
[0.000000,0.000000,0.000000,0.402536,0.146142,-0.349000,0.186607,0.833019,0.011335,0.276219,-0.187971,-0.533078,-0.078267,0.224733,-0.894805,0.244157,-0.289825]
[0.000000,0.000000,0.000000,0.408167,0.144393,-0.349000,0.183548,0.835149,0.009490,0.279279,-0.179377,-0.509398,-0.059315,0.241485,-0.924484,0.244534,-0.280801]
[0.000000,0.000000,0.000000,0.413519,0.142853,-0.349000,0.180733,0.837210,0.007872,0.282282,-0.171186,-0.486766,-0.041215,0.257600,-0.952805,0.245064,-0.272140]
[0.000000,0.000000,0.000000,0.418386,0.141501,-0.349000,0.178237,0.839315,0.007101,0.284732,-0.163312,-0.465322,-0.024110,0.273124,-0.979863,0.245729,-0.263838]
[0.000000,0.000000,0.000000,0.422910,0.140286,-0.349000,0.175690,0.841464,0.006973,0.286614,-0.155796,-0.444910,-0.007891,0.288280,-1.005764,0.246042,-0.255903]
[0.000000,0.000000,0.000000,0.427282,0.139141,-0.349000,0.172717,0.843634,0.007165,0.288022,-0.148687,-0.425348,0.007594,0.303302,-1.030601,0.245529,-0.248411]
[0.000000,0.000000,0.000000,0.431538,0.137890,-0.349000,0.169626,0.845771,0.007602,0.289228,-0.141920,-0.406659,0.022438,0.318211,-1.054372,0.244524,-0.241971]
[0.000000,0.000000,0.000000,0.435636,0.136311,-0.349000,0.167065,0.847811,0.008337,0.290586,-0.135363,-0.388973,0.036705,0.332917,-1.077027,0.243768,-0.237446]
[0.000000,0.000000,0.000000,0.439535,0.134492,-0.349000,0.165267,0.849841,0.009460,0.292045,-0.128738,-0.372225,0.050453,0.347212,-1.098580,0.243637,-0.234808]
[0.000000,0.000000,0.000000,0.443199,0.132928,-0.349000,0.163932,0.852141,0.011109,0.293033,-0.121575,-0.356106,0.063735,0.360733,-1.119130,0.244034,-0.232890]
[0.000000,0.000000,0.000000,0.446637,0.131946,-0.349000,0.162742,0.854821,0.013277,0.293193,-0.113709,-0.340401,0.076539,0.373217,-1.138780,0.244809,-0.230675]
[0.000000,0.000000,0.000000,0.450003,0.131226,-0.349000,0.161438,0.857371,0.015452,0.293018,-0.106040,-0.325274,0.088638,0.384772,-1.157630,0.245736,-0.227919]
[0.000000,0.000000,0.000000,0.453459,0.130363,-0.349000,0.159811,0.859244,0.017056,0.293124,-0.099584,-0.310946,0.099810,0.395608,-1.175769,0.246596,-0.224610]
[0.000000,0.000000,0.000000,0.456908,0.129444,-0.349000,0.158034,0.860787,0.017879,0.293600,-0.094220,-0.297377,0.110335,0.406149,-1.193211,0.247417,-0.221443]
[0.000000,0.000000,0.000000,0.460109,0.128842,-0.349000,0.156496,0.862848,0.017934,0.294230,-0.089180,-0.284384,0.120775,0.416934,-1.209923,0.248367,-0.219502]
[0.000000,0.000000,0.000000,0.463047,0.128734,-0.349000,0.155272,0.865564,0.017455,0.294781,-0.084050,-0.271871,0.131226,0.427899,-1.225900,0.249558,-0.218835]
[0.000000,0.000000,0.000000,0.466035,0.129005,-0.349000,0.153984,0.868023,0.016997,0.295000,-0.078943,-0.259868,0.141106,0.438107,-1.241168,0.251018,-0.217984]
[0.000000,0.000000,0.000000,0.469324,0.129491,-0.349000,0.152344,0.869459,0.016958,0.294731,-0.074015,-0.248415,0.149989,0.446923,-1.255736,0.252721,-0.215821]
[0.000000,0.000000,0.000000,0.472812,0.129921,-0.349000,0.150569,0.869977,0.017033,0.294190,-0.069435,-0.237534,0.158253,0.455154,-1.269536,0.254454,-0.212949]
[0.000000,0.000000,0.000000,0.476319,0.130028,-0.349000,0.148980,0.869909,0.016787,0.293666,-0.065350,-0.227242,0.166431,0.463860,-1.282502,0.255977,-0.210329]
[0.000000,0.000000,0.000000,0.479739,0.129952,-0.349000,0.147701,0.869782,0.016287,0.293248,-0.061588,-0.217467,0.174573,0.472960,-1.294797,0.257242,-0.208230]
[0.000000,0.000000,0.000000,0.483010,0.130088,-0.349000,0.146724,0.870245,0.015922,0.292892,-0.057773,-0.208083,0.182423,0.481638,-1.306734,0.258326,-0.206472]
[0.000000,0.000000,0.000000,0.486080,0.130551,-0.349000,0.145934,0.871489,0.015877,0.292524,-0.053819,-0.199018,0.189819,0.489482,-1.318422,0.259258,-0.204837]
[0.000000,0.000000,0.000000,0.488909,0.130990,-0.349000,0.145036,0.872954,0.015995,0.292021,-0.050115,-0.190288,0.196773,0.496761,-1.329633,0.259980,-0.203065]
[0.000000,0.000000,0.000000,0.491496,0.131108,-0.349000,0.143814,0.874108,0.016101,0.291289,-0.046966,-0.181917,0.203332,0.503750,-1.340189,0.260465,-0.200980]
[0.000000,0.000000,0.000000,0.494012,0.131030,-0.349000,0.142475,0.874835,0.016070,0.290377,-0.044105,-0.173937,0.209629,0.510493,-1.350241,0.260845,-0.198794]
[0.000000,0.000000,0.000000,0.496651,0.130987,-0.349000,0.141326,0.875140,0.015824,0.289363,-0.041140,-0.166378,0.215812,0.516978,-1.360016,0.261285,-0.196814]
[0.000000,0.000000,0.000000,0.499287,0.131008,-0.349000,0.140469,0.875122,0.015683,0.288147,-0.038092,-0.159155,0.221826,0.523325,-1.369461,0.261749,-0.195115]
[0.000000,0.000000,0.000000,0.501556,0.130982,-0.349000,0.139855,0.874947,0.016258,0.286504,-0.035283,-0.152108,0.227477,0.529752,-1.378316,0.262058,-0.193607]
[0.000000,0.000000,0.000000,0.503323,0.130905,-0.349000,0.139412,0.874812,0.017636,0.284557,-0.032790,-0.145180,0.232690,0.536274,-1.386521,0.262120,-0.192245]
[0.000000,0.000000,0.000000,0.504877,0.130981,-0.349000,0.139031,0.874968,0.018931,0.283073,-0.030219,-0.138509,0.237619,0.542531,-1.394386,0.262013,-0.191081]
[0.000000,0.000000,0.000000,0.506504,0.131365,-0.349000,0.138619,0.875602,0.019352,0.282673,-0.027252,-0.132233,0.242413,0.548173,-1.402186,0.261853,-0.190091]
[0.000000,0.000000,0.000000,0.508238,0.131846,-0.349000,0.138184,0.876558,0.019142,0.282905,-0.024202,-0.126376,0.247068,0.553110,-1.409832,0.261872,-0.188797]
[0.000000,0.000000,0.000000,0.510031,0.132112,-0.349000,0.137760,0.877578,0.018855,0.282998,-0.021557,-0.120924,0.251534,0.557345,-1.417128,0.262321,-0.186619]
[0.000000,0.000000,0.000000,0.511777,0.132103,-0.349000,0.137343,0.878473,0.018805,0.282614,-0.019426,-0.115809,0.255805,0.561118,-1.423984,0.263187,-0.183589]
[0.000000,0.000000,0.000000,0.513322,0.131966,-0.349000,0.136894,0.879117,0.019102,0.281773,-0.017608,-0.110913,0.259909,0.564860,-1.430406,0.264241,-0.180252]
[0.000000,0.000000,0.000000,0.514617,0.131862,-0.349000,0.136422,0.879514,0.019801,0.280560,-0.015915,-0.106161,0.263846,0.568771,-1.436451,0.265241,-0.177210]
[0.000000,0.000000,0.000000,0.515843,0.131964,-0.349000,0.136036,0.879932,0.020849,0.279173,-0.014216,-0.101558,0.267560,0.572558,-1.442285,0.265946,-0.175152]
[0.000000,0.000000,0.000000,0.517160,0.132384,-0.348999,0.135846,0.880621,0.022154,0.277807,-0.012430,-0.097123,0.271018,0.575963,-1.448037,0.266169,-0.174583]
[0.000000,0.000000,0.000000,0.518456,0.132864,-0.348999,0.135892,0.881535,0.023465,0.276546,-0.010714,-0.092902,0.274381,0.579301,-1.453553,0.266073,-0.174869]
[0.000000,0.000000,0.000000,0.519530,0.133035,-0.349003,0.136185,0.882531,0.024497,0.275457,-0.009301,-0.088942,0.277862,0.583056,-1.458590,0.265940,-0.174991]
[0.000000,0.000000,0.000000,0.520371,0.132950,-0.349007,0.136636,0.883699,0.025288,0.275083,-0.008100,-0.085147,0.281369,0.587064,-1.463228,0.265918,-0.174579]
[0.000000,0.000000,0.000000,0.521141,0.133052,-0.348997,0.137068,0.885344,0.026185,0.276406,-0.006722,-0.081293,0.284525,0.590555,-1.467845,0.266031,-0.173859]
[0.000000,0.000000,0.000000,0.521961,0.133534,-0.348976,0.137416,0.887523,0.027393,0.279812,-0.004989,-0.077323,0.287154,0.593169,-1.472624,0.266193,-0.173027]
[0.000000,0.000000,0.000000,0.522845,0.133968,-0.348990,0.137890,0.889683,0.028766,0.284242,-0.003260,-0.073580,0.289582,0.595561,-1.477259,0.266074,-0.172149]
[0.000000,0.000000,0.000000,0.523773,0.133952,-0.349068,0.138639,0.891283,0.030122,0.288543,-0.001887,-0.070385,0.292142,0.598405,-1.481431,0.265392,-0.171271]
[0.000000,0.000000,0.000000,0.524633,0.133855,-0.349081,0.139123,0.892443,0.031389,0.292303,-0.000686,-0.067510,0.294736,0.601494,-1.485174,0.264433,-0.170421]
[0.000000,0.000000,0.000000,0.525277,0.134338,-0.348838,0.138542,0.893549,0.032529,0.295433,0.000735,-0.064519,0.297099,0.604273,-1.488668,0.263702,-0.169618]
[0.000000,0.000000,0.000000,0.525702,0.135340,-0.348137,0.136600,0.894800,0.033224,0.298249,0.002457,-0.061416,0.299207,0.606489,-1.492061,0.263306,-0.168807]
[0.000000,0.000000,0.000000,0.526047,0.136048,-0.346769,0.133530,0.896197,0.032869,0.301489,0.004233,-0.058667,0.301287,0.608205,-1.495463,0.262941,-0.167859]
[0.000000,0.000000,0.000000,0.526431,0.136026,-0.344712,0.129702,0.897759,0.031263,0.305690,0.005910,-0.056503,0.303467,0.609541,-1.498919,0.262437,-0.166685]
[0.000000,0.000000,0.000000,0.526890,0.135944,-0.342454,0.125781,0.899572,0.029343,0.310804,0.007615,-0.054471,0.305579,0.610738,-1.502302,0.262040,-0.165314]
[0.000000,0.000000,0.000000,0.527425,0.136529,-0.340500,0.122396,0.901691,0.028091,0.316645,0.009514,-0.052083,0.307435,0.612019,-1.505473,0.262003,-0.163822]
[0.000000,0.000000,0.000000,0.527875,0.137526,-0.338863,0.119519,0.903880,0.027389,0.322721,0.011670,-0.049446,0.309092,0.613326,-1.508422,0.262082,-0.162509]
[0.000000,0.000000,0.000000,0.528003,0.138242,-0.337330,0.116822,0.905769,0.026622,0.328425,0.014096,-0.046940,0.310719,0.614471,-1.511197,0.261813,-0.161767]
[0.000000,0.000000,0.000000,0.527683,0.138565,-0.335923,0.114198,0.907160,0.025663,0.333998,0.016691,-0.044751,0.312406,0.615368,-1.513806,0.261023,-0.161694]
[0.000000,0.000000,0.000000,0.526912,0.139069,-0.334937,0.111798,0.908062,0.024960,0.340679,0.019218,-0.042838,0.314160,0.616054,-1.516206,0.259889,-0.162041]
[0.000000,0.000000,0.000000,0.525643,0.140159,-0.334595,0.109880,0.908652,0.024713,0.349403,0.021492,-0.041121,0.315944,0.616568,-1.518391,0.258598,-0.162344]
[0.000000,0.000000,0.000000,0.523659,0.141609,-0.334849,0.108990,0.909602,0.024255,0.360002,0.023514,-0.039447,0.317609,0.616929,-1.520466,0.257312,-0.161534]
[0.000000,0.000000,0.000000,0.520735,0.143084,-0.335583,0.109636,0.911573,0.022845,0.372045,0.025326,-0.037675,0.319015,0.617178,-1.522551,0.256154,-0.158663]
[0.000000,0.000000,0.000000,0.516828,0.144372,-0.336507,0.111535,0.914297,0.020575,0.384614,0.027005,-0.035931,0.320248,0.617558,-1.524684,0.254929,-0.154845]
[0.000000,0.000000,0.000000,0.511990,0.145328,-0.337249,0.113995,0.917036,0.017970,0.396553,0.028643,-0.034475,0.321512,0.618409,-1.526860,0.253282,-0.152236]
[0.000000,0.000000,0.000000,0.506265,0.145869,-0.337684,0.116763,0.919523,0.015575,0.407368,0.030117,-0.033279,0.322843,0.619727,-1.529030,0.251158,-0.151035]
[0.000000,0.000000,0.000000,0.499686,0.145997,-0.338016,0.120172,0.922125,0.013951,0.417443,0.031023,-0.031930,0.324049,0.621053,-1.531089,0.248901,-0.148844]
[0.000000,0.000000,0.000000,0.492333,0.145740,-0.338415,0.124462,0.925096,0.013379,0.427113,0.031145,-0.030181,0.324992,0.622030,-1.532943,0.246863,-0.143972]
[0.000000,0.000000,0.000000,0.484452,0.145201,-0.338863,0.129414,0.928131,0.013145,0.436320,0.030996,-0.028442,0.325772,0.622782,-1.534559,0.245326,-0.137810]
[0.000000,0.000000,0.000000,0.476298,0.144493,-0.339306,0.134730,0.930850,0.012421,0.444912,0.031189,-0.027213,0.326537,0.623525,-1.535931,0.244515,-0.132304]
[0.000000,0.000000,0.000000,0.467817,0.143642,-0.339729,0.140276,0.933335,0.011415,0.452618,0.031695,-0.026440,0.327379,0.624371,-1.537172,0.244192,-0.128099]
[0.000000,0.000000,0.000000,0.458769,0.142626,-0.340145,0.146023,0.935947,0.010953,0.459096,0.032107,-0.025740,0.328362,0.625367,-1.538471,0.243843,-0.125070]
[0.000000,0.000000,0.000000,0.448910,0.141420,-0.340564,0.151940,0.939047,0.011870,0.464004,0.032013,-0.024723,0.329548,0.626561,-1.540017,0.242951,-0.123082]
[0.000000,0.000000,0.000000,0.438000,0.140000,-0.341000,0.158000,0.943000,0.015000,0.467000,0.031000,-0.023000,0.331000,0.628000,-1.542000,0.241000,-0.122000]
[0.000000,0.000000,0.000000,0.432387,0.140903,-0.335839,0.152290,0.908387,0.012903,0.446032,0.037484,-0.027419,0.327516,0.608774,-1.485000,0.232903,-0.111323]
[0.000000,0.000000,0.000000,0.426774,0.141806,-0.330677,0.146581,0.873774,0.010806,0.425065,0.043968,-0.031839,0.324032,0.589548,-1.428000,0.224806,-0.100645]
[0.000000,0.000000,0.000000,0.421161,0.142710,-0.325516,0.140871,0.839161,0.008710,0.404097,0.050452,-0.036258,0.320548,0.570323,-1.371000,0.216710,-0.089968]
[0.000000,0.000000,0.000000,0.415548,0.143613,-0.320355,0.135161,0.804548,0.006613,0.383129,0.056935,-0.040677,0.317065,0.551097,-1.314000,0.208613,-0.079290]
[0.000000,0.000000,0.000000,0.409935,0.144516,-0.315194,0.129452,0.769935,0.004516,0.362161,0.063419,-0.045097,0.313581,0.531871,-1.257000,0.200516,-0.068613]
[0.000000,0.000000,0.000000,0.404323,0.145419,-0.310032,0.123742,0.735323,0.002419,0.341194,0.069903,-0.049516,0.310097,0.512645,-1.200000,0.192419,-0.057935]
[0.000000,0.000000,0.000000,0.398710,0.146323,-0.304871,0.118032,0.700710,0.000323,0.320226,0.076387,-0.053935,0.306613,0.493419,-1.143000,0.184323,-0.047258]
[0.000000,0.000000,0.000000,0.393097,0.147226,-0.299710,0.112323,0.666097,-0.001774,0.299258,0.082871,-0.058355,0.303129,0.474194,-1.086000,0.176226,-0.036581]
[0.000000,0.000000,0.000000,0.387484,0.148129,-0.294548,0.106613,0.631484,-0.003871,0.278290,0.089355,-0.062774,0.299645,0.454968,-1.029000,0.168129,-0.025903]
[0.000000,0.000000,0.000000,0.381871,0.149032,-0.289387,0.100903,0.596871,-0.005968,0.257323,0.095839,-0.067194,0.296161,0.435742,-0.972000,0.160032,-0.015226]
[0.000000,0.000000,0.000000,0.376258,0.149935,-0.284226,0.095194,0.562258,-0.008065,0.236355,0.102323,-0.071613,0.292677,0.416516,-0.915000,0.151935,-0.004548]
[0.000000,0.000000,0.000000,0.370645,0.150839,-0.279065,0.089484,0.527645,-0.010161,0.215387,0.108806,-0.076032,0.289194,0.397290,-0.858000,0.143839,0.006129]
[0.000000,0.000000,0.000000,0.365032,0.151742,-0.273903,0.083774,0.493032,-0.012258,0.194419,0.115290,-0.080452,0.285710,0.378065,-0.801000,0.135742,0.016806]
[0.000000,0.000000,0.000000,0.359419,0.152645,-0.268742,0.078065,0.458419,-0.014355,0.173452,0.121774,-0.084871,0.282226,0.358839,-0.744000,0.127645,0.027484]
[0.000000,0.000000,0.000000,0.353806,0.153548,-0.263581,0.072355,0.423806,-0.016452,0.152484,0.128258,-0.089290,0.278742,0.339613,-0.687000,0.119548,0.038161]
[0.000000,0.000000,0.000000,0.348194,0.154452,-0.258419,0.066645,0.389194,-0.018548,0.131516,0.134742,-0.093710,0.275258,0.320387,-0.630000,0.111452,0.048839]
[0.000000,0.000000,0.000000,0.342581,0.155355,-0.253258,0.060935,0.354581,-0.020645,0.110548,0.141226,-0.098129,0.271774,0.301161,-0.573000,0.103355,0.059516]
[0.000000,0.000000,0.000000,0.336968,0.156258,-0.248097,0.055226,0.319968,-0.022742,0.089581,0.147710,-0.102548,0.268290,0.281935,-0.516000,0.095258,0.070194]
[0.000000,0.000000,0.000000,0.331355,0.157161,-0.242935,0.049516,0.285355,-0.024839,0.068613,0.154194,-0.106968,0.264806,0.262710,-0.459000,0.087161,0.080871]
[0.000000,0.000000,0.000000,0.325742,0.158065,-0.237774,0.043806,0.250742,-0.026935,0.047645,0.160677,-0.111387,0.261323,0.243484,-0.402000,0.079065,0.091548]
[0.000000,0.000000,0.000000,0.320129,0.158968,-0.232613,0.038097,0.216129,-0.029032,0.026677,0.167161,-0.115806,0.257839,0.224258,-0.345000,0.070968,0.102226]
[0.000000,0.000000,0.000000,0.314516,0.159871,-0.227452,0.032387,0.181516,-0.031129,0.005710,0.173645,-0.120226,0.254355,0.205032,-0.288000,0.062871,0.112903]
[0.000000,0.000000,0.000000,0.308903,0.160774,-0.222290,0.026677,0.146903,-0.033226,-0.015258,0.180129,-0.124645,0.250871,0.185806,-0.231000,0.054774,0.123581]
[0.000000,0.000000,0.000000,0.303290,0.161677,-0.217129,0.020968,0.112290,-0.035323,-0.036226,0.186613,-0.129065,0.247387,0.166581,-0.174000,0.046677,0.134258]
[0.000000,0.000000,0.000000,0.297677,0.162581,-0.211968,0.015258,0.077677,-0.037419,-0.057194,0.193097,-0.133484,0.243903,0.147355,-0.117000,0.038581,0.144935]
[0.000000,0.000000,0.000000,0.292065,0.163484,-0.206806,0.009548,0.043065,-0.039516,-0.078161,0.199581,-0.137903,0.240419,0.128129,-0.060000,0.030484,0.155613]
[0.000000,0.000000,0.000000,0.286452,0.164387,-0.201645,0.003839,0.008452,-0.041613,-0.099129,0.206065,-0.142323,0.236935,0.108903,-0.003000,0.022387,0.166290]
[0.000000,0.000000,0.000000,0.280839,0.165290,-0.196484,-0.001871,-0.026161,-0.043710,-0.120097,0.212548,-0.146742,0.233452,0.089677,0.054000,0.014290,0.176968]
[0.000000,0.000000,0.000000,0.275226,0.166194,-0.191323,-0.007581,-0.060774,-0.045806,-0.141065,0.219032,-0.151161,0.229968,0.070452,0.111000,0.006194,0.187645]
[0.000000,0.000000,0.000000,0.269613,0.167097,-0.186161,-0.013290,-0.095387,-0.047903,-0.162032,0.225516,-0.155581,0.226484,0.051226,0.168000,-0.001903,0.198323]
[0.000000,0.000000,0.000000,0.264000,0.168000,-0.181000,-0.019000,-0.130000,-0.050000,-0.183000,0.232000,-0.160000,0.223000,0.032000,0.225000,-0.010000,0.209000]
[0.000000,0.000000,0.000000,0.264025,0.168000,-0.180658,-0.019611,-0.129841,-0.048659,-0.182861,0.232016,-0.160016,0.223336,0.032935,0.224839,-0.011732,0.209528]
[0.000000,0.000000,0.000000,0.263988,0.168000,-0.181204,-0.020156,-0.130116,-0.047745,-0.183066,0.231992,-0.159992,0.222799,0.034489,0.225077,-0.013516,0.210196]
[0.000000,0.000000,0.000000,0.263977,0.168000,-0.181869,-0.020727,-0.130695,-0.046658,-0.183132,0.231985,-0.159984,0.222136,0.036271,0.225153,-0.015278,0.210807]
[0.000000,0.000000,0.000000,0.264059,0.168000,-0.181957,-0.021402,-0.131435,-0.044875,-0.182628,0.232039,-0.160039,0.222029,0.037930,0.224538,-0.016961,0.211201]
[0.000000,0.000000,0.000000,0.264034,0.168000,-0.181935,-0.021959,-0.131972,-0.043136,-0.182024,0.232023,-0.160023,0.222057,0.039711,0.223212,-0.018735,0.211842]
[0.000000,0.000000,0.000000,0.263574,0.168000,-0.182912,-0.022050,-0.131947,-0.042816,-0.182303,0.231674,-0.159672,0.221160,0.042245,0.221537,-0.020901,0.213448]
[0.000000,0.000000,0.000000,0.262899,0.168000,-0.184151,-0.022008,-0.132073,-0.042987,-0.183130,0.230835,-0.158836,0.219802,0.045550,0.219716,-0.023397,0.215233]
[0.000000,0.000000,0.000000,0.262306,0.167999,-0.184763,-0.022095,-0.132792,-0.042465,-0.183812,0.229608,-0.157616,0.218649,0.049190,0.217913,-0.025881,0.216402]
[0.000000,0.000000,0.000000,0.261758,0.168001,-0.185226,-0.021773,-0.132883,-0.041633,-0.184025,0.228649,-0.156635,0.217435,0.052193,0.216357,-0.027662,0.217547]
[0.000000,0.000000,0.000000,0.261173,0.168001,-0.185833,-0.021115,-0.132163,-0.041052,-0.183967,0.228128,-0.156108,0.216237,0.054418,0.215221,-0.028728,0.218758]
[0.000000,0.000000,0.000000,0.260507,0.167993,-0.186432,-0.020940,-0.131839,-0.041083,-0.184305,0.227595,-0.155685,0.215590,0.056692,0.214557,-0.029839,0.219411]
[0.000000,0.000000,0.000000,0.259994,0.168001,-0.187011,-0.020998,-0.132004,-0.040989,-0.185015,0.226989,-0.154981,0.214982,0.059043,0.213986,-0.031021,0.220018]
[0.000000,0.000000,0.000000,0.259904,0.168029,-0.187615,-0.020599,-0.132135,-0.040111,-0.185704,0.226421,-0.153809,0.213747,0.061038,0.213213,-0.031864,0.221275]
[0.000000,0.000000,0.000000,0.260054,0.167962,-0.188153,-0.019657,-0.131849,-0.040311,-0.186056,0.225792,-0.152711,0.212823,0.062283,0.213094,-0.031901,0.222147]
[0.000000,0.000000,0.000000,0.260105,0.167904,-0.188695,-0.018436,-0.131202,-0.042244,-0.186030,0.225162,-0.152112,0.212839,0.062818,0.213798,-0.031232,0.222085]
[0.000000,0.000000,0.000000,0.259671,0.168329,-0.189596,-0.017513,-0.130880,-0.043689,-0.185997,0.224915,-0.151945,0.213296,0.063348,0.214009,-0.030867,0.221971]
[0.000000,0.000000,0.000000,0.259047,0.168955,-0.190847,-0.017036,-0.130980,-0.044001,-0.186006,0.224990,-0.151994,0.213919,0.063947,0.213954,-0.030980,0.222006]
[0.000000,0.000000,0.000000,0.258903,0.169069,-0.192133,-0.016710,-0.131106,-0.043939,-0.185917,0.225023,-0.152008,0.214629,0.064195,0.214866,-0.031082,0.221889]
[0.000000,0.000000,0.000000,0.259014,0.169007,-0.193142,-0.015748,-0.130938,-0.044052,-0.186064,0.224996,-0.152002,0.215024,0.063909,0.216215,-0.030958,0.222089]
[0.000000,0.000000,0.000000,0.259018,0.169094,-0.193743,-0.013888,-0.130366,-0.044599,-0.186659,0.224989,-0.152020,0.214962,0.063249,0.217331,-0.030476,0.222797]
[0.000000,0.000000,0.000000,0.258993,0.168755,-0.194235,-0.012516,-0.129707,-0.045354,-0.187233,0.225017,-0.151956,0.215186,0.062948,0.218700,-0.029459,0.222906]
[0.000000,0.000000,0.000000,0.258998,0.168097,-0.194829,-0.012068,-0.129135,-0.045936,-0.187790,0.225019,-0.151945,0.215843,0.063023,0.220514,-0.028235,0.222194]
[0.000000,0.000000,0.000000,0.259002,0.167982,-0.195534,-0.011712,-0.128591,-0.045979,-0.188860,0.224908,-0.152352,0.216374,0.062698,0.222438,-0.027553,0.221537]
[0.000000,0.000000,0.000000,0.259000,0.167989,-0.196008,-0.010961,-0.127973,-0.046013,-0.190036,0.225015,-0.153026,0.217036,0.061970,0.224051,-0.026966,0.220975]
[0.000000,0.000000,0.000000,0.258998,0.167405,-0.195986,-0.009748,-0.127287,-0.046638,-0.190690,0.225625,-0.153633,0.218227,0.061257,0.225164,-0.025789,0.220288]
[0.000000,0.000000,0.000000,0.259003,0.166899,-0.196099,-0.008738,-0.126962,-0.047049,-0.191171,0.226085,-0.154175,0.219276,0.060979,0.226525,-0.024720,0.219974]
[0.000000,0.000000,0.000000,0.259007,0.166924,-0.196710,-0.008203,-0.127028,-0.046958,-0.191769,0.226050,-0.154746,0.219822,0.061056,0.228359,-0.024175,0.220060]
[0.000000,0.000000,0.000000,0.258979,0.167108,-0.197444,-0.007592,-0.126770,-0.047307,-0.192347,0.225966,-0.155445,0.220336,0.060690,0.229810,-0.023666,0.219666]
[0.000000,0.000000,0.000000,0.258991,0.167035,-0.197970,-0.007027,-0.126076,-0.047959,-0.192936,0.225995,-0.155979,0.220943,0.060043,0.230889,-0.023057,0.219032]
[0.000000,0.000000,0.000000,0.259103,0.166460,-0.198097,-0.006991,-0.125335,-0.048097,-0.193628,0.226035,-0.155965,0.221508,0.059871,0.232140,-0.022492,0.219008]
[0.000000,0.000000,0.000000,0.258916,0.165943,-0.197967,-0.006953,-0.124982,-0.047989,-0.194030,0.225977,-0.156078,0.222133,0.060038,0.233139,-0.021867,0.218927]
[0.000000,0.000000,0.000000,0.258273,0.165934,-0.197885,-0.006398,-0.125065,-0.048009,-0.193978,0.225895,-0.156743,0.222797,0.060121,0.233642,-0.021203,0.218264]
[0.000000,0.000000,0.000000,0.257898,0.166031,-0.198249,-0.005632,-0.124755,-0.047947,-0.194162,0.226249,-0.157043,0.223038,0.059748,0.234522,-0.020962,0.217950]
[0.000000,0.000000,0.000000,0.257973,0.166012,-0.198893,-0.005062,-0.124091,-0.047935,-0.194819,0.226896,-0.156957,0.222974,0.059106,0.235773,-0.021026,0.218036]
[0.000000,0.000000,0.000000,0.258028,0.165968,-0.199129,-0.004994,-0.123983,-0.048440,-0.195576,0.227105,-0.157435,0.223318,0.058872,0.236468,-0.020682,0.217597]
[0.000000,0.000000,0.000000,0.257999,0.166006,-0.198989,-0.004987,-0.123983,-0.049020,-0.196009,0.226995,-0.158016,0.224045,0.059011,0.237051,-0.019955,0.216977]
[0.000000,0.000000,0.000000,0.257994,0.166109,-0.198871,-0.004483,-0.123383,-0.049075,-0.195953,0.226978,-0.157982,0.224753,0.059130,0.238233,-0.019247,0.216883]
[0.000000,0.000000,0.000000,0.258002,0.165833,-0.199173,-0.003744,-0.122909,-0.048988,-0.196147,0.227006,-0.158139,0.225021,0.058826,0.239296,-0.018979,0.217067]
[0.000000,0.000000,0.000000,0.258001,0.165178,-0.199825,-0.003137,-0.122958,-0.049012,-0.196806,0.227003,-0.158802,0.224945,0.058173,0.239836,-0.019054,0.217102]
[0.000000,0.000000,0.000000,0.257999,0.164892,-0.200107,-0.002901,-0.123010,-0.048929,-0.197135,0.226999,-0.159138,0.225321,0.057902,0.240338,-0.018682,0.216647]
[0.000000,0.000000,0.000000,0.258000,0.164992,-0.200008,-0.002987,-0.122995,-0.048975,-0.197016,0.227000,-0.159016,0.225966,0.057995,0.240952,-0.018035,0.216031]
[0.000000,0.000000,0.000000,0.258000,0.165026,-0.199971,-0.003124,-0.123097,-0.049540,-0.196867,0.226993,-0.158867,0.226134,0.057987,0.241556,-0.017852,0.215885]
[0.000000,0.000000,0.000000,0.258000,0.164995,-0.200008,-0.002902,-0.122907,-0.050067,-0.197100,0.227007,-0.159100,0.225953,0.058029,0.242114,-0.018060,0.216036]
[0.000000,0.000000,0.000000,0.257999,0.164992,-0.200020,-0.002253,-0.122260,-0.050080,-0.197751,0.227028,-0.159750,0.225859,0.058136,0.242671,-0.018196,0.216097]
[0.000000,0.000000,0.000000,0.258002,0.165009,-0.199963,-0.001909,-0.121900,-0.049935,-0.198085,0.226937,-0.160089,0.226313,0.057656,0.243374,-0.017561,0.215809]
[0.000000,0.000000,0.000000,0.258002,0.165008,-0.199965,-0.001986,-0.121979,-0.049957,-0.198008,0.226937,-0.160012,0.226953,0.057010,0.243957,-0.016923,0.215817]
[0.000000,0.000000,0.000000,0.257986,0.164958,-0.200295,-0.001970,-0.122008,-0.050217,-0.198063,0.227454,-0.160041,0.226751,0.057570,0.243806,-0.018153,0.217330]
[0.000000,0.000000,0.000000,0.258004,0.165014,-0.201077,-0.002017,-0.122005,-0.049932,-0.197973,0.228026,-0.159980,0.225934,0.059134,0.242911,-0.020120,0.219089]
[0.000000,0.000000,0.000000,0.258058,0.165426,-0.202248,-0.002485,-0.122330,-0.048369,-0.197377,0.228078,-0.159468,0.225217,0.060907,0.241659,-0.021203,0.219376]
[0.000000,0.000000,0.000000,0.257899,0.166472,-0.203386,-0.003362,-0.123624,-0.046185,-0.196863,0.227979,-0.158721,0.224989,0.062600,0.240749,-0.022703,0.218705]
[0.000000,0.000000,0.000000,0.257316,0.168247,-0.204495,-0.004544,-0.126027,-0.043863,-0.196381,0.227995,-0.158105,0.225066,0.064312,0.240245,-0.025164,0.218046]
[0.000000,0.000000,0.000000,0.256257,0.170550,-0.206190,-0.005878,-0.128901,-0.041300,-0.194853,0.227986,-0.157987,0.224634,0.066490,0.239304,-0.027322,0.218277]
[0.000000,0.000000,0.000000,0.255061,0.172879,-0.207927,-0.006958,-0.131834,-0.039094,-0.193067,0.227995,-0.158012,0.224018,0.068872,0.238063,-0.028915,0.218973]
[0.000000,0.000000,0.000000,0.254250,0.174722,-0.208699,-0.007295,-0.134523,-0.038100,-0.192660,0.228104,-0.157540,0.224015,0.070826,0.237245,-0.030297,0.219115]
[0.000000,0.000000,0.000000,0.253991,0.176402,-0.209122,-0.006822,-0.136285,-0.038036,-0.193127,0.227897,-0.156850,0.223907,0.072307,0.236987,-0.031108,0.218977]
[0.000000,0.000000,0.000000,0.254069,0.178194,-0.209762,-0.005687,-0.136877,-0.038527,-0.193697,0.227248,-0.156272,0.223236,0.073479,0.237048,-0.031128,0.218975]
[0.000000,0.000000,0.000000,0.253743,0.179765,-0.210115,-0.004230,-0.137176,-0.039681,-0.194351,0.226897,-0.155686,0.222958,0.074570,0.236797,-0.030864,0.219022]
[0.000000,0.000000,0.000000,0.253088,0.180855,-0.210037,-0.003103,-0.137816,-0.040879,-0.194929,0.226979,-0.155098,0.223038,0.075753,0.236136,-0.030907,0.219014]
[0.000000,0.000000,0.000000,0.252886,0.181433,-0.209870,-0.002993,-0.138963,-0.041031,-0.195108,0.227020,-0.154623,0.222537,0.077069,0.235482,-0.031640,0.218924]
[0.000000,0.000000,0.000000,0.253012,0.182090,-0.210044,-0.002954,-0.140084,-0.041044,-0.194983,0.227001,-0.153905,0.221976,0.078063,0.234954,-0.031966,0.219030]
[0.000000,0.000000,0.000000,0.253051,0.183292,-0.210699,-0.001897,-0.140679,-0.042100,-0.194874,0.227025,-0.152696,0.222024,0.078513,0.234452,-0.031140,0.219566]
[0.000000,0.000000,0.000000,0.252945,0.184322,-0.211041,-0.000461,-0.141261,-0.043538,-0.195199,0.226951,-0.151682,0.221837,0.079539,0.233618,-0.031367,0.220266]
[0.000000,0.000000,0.000000,0.252912,0.184852,-0.210951,0.000710,-0.141904,-0.044706,-0.195853,0.226912,-0.151149,0.221168,0.081409,0.232407,-0.033330,0.220857]
[0.000000,0.000000,0.000000,0.253379,0.185356,-0.211361,0.001446,-0.141949,-0.045462,-0.196079,0.227392,-0.150642,0.220882,0.082973,0.231213,-0.035044,0.221179]
[0.000000,0.000000,0.000000,0.253986,0.185975,-0.211987,0.001977,-0.141980,-0.045980,-0.196000,0.227988,-0.150025,0.220995,0.083968,0.230048,-0.035973,0.221019]
[0.000000,0.000000,0.000000,0.254083,0.186602,-0.212030,0.002625,-0.143009,-0.046549,-0.196103,0.228006,-0.149403,0.221035,0.084682,0.228777,-0.036583,0.220333]
[0.000000,0.000000,0.000000,0.253990,0.187109,-0.212054,0.003067,-0.144269,-0.047149,-0.195870,0.228074,-0.148885,0.220986,0.085052,0.227819,-0.037148,0.220016]
[0.000000,0.000000,0.000000,0.254013,0.187610,-0.212615,0.003453,-0.144917,-0.048112,-0.195167,0.228676,-0.148371,0.220967,0.085055,0.227297,-0.037752,0.220603]
[0.000000,0.000000,0.000000,0.253934,0.188649,-0.213480,0.005116,-0.144961,-0.050518,-0.195110,0.229326,-0.147399,0.221074,0.084941,0.226489,-0.038250,0.221430]
[0.000000,0.000000,0.000000,0.253944,0.189862,-0.214011,0.007633,-0.144941,-0.053587,-0.195852,0.229890,-0.146175,0.221057,0.084965,0.225232,-0.038847,0.221960]
[0.000000,0.000000,0.000000,0.254506,0.190211,-0.213520,0.009190,-0.145566,-0.055203,-0.196610,0.230572,-0.145420,0.220500,0.085336,0.223941,-0.039958,0.221998]
[0.000000,0.000000,0.000000,0.255025,0.189968,-0.212990,0.010114,-0.145992,-0.056136,-0.197025,0.231021,-0.144940,0.219971,0.086109,0.222900,-0.041108,0.222027]
