callmecarrot/action_slices/26_小13.txt
[waist_yaw_joint,waist_roll_joint,waist_pitch_joint,left_shoulder_pitch_joint,left_shoulder_roll_joint,left_shoulder_yaw_joint,left_elbow_joint,left_wrist_roll_joint,left_wrist_pitch_joint,left_wrist_yaw_joint,right_shoulder_pitch_joint,right_shoulder_roll_joint,right_shoulder_yaw_joint,right_elbow_joint,right_wrist_roll_joint,right_wrist_pitch_joint,right_wrist_yaw_joint]
[0.000000,0.000000,0.000000,0.136097,0.220129,-0.265129,0.057290,0.329000,-0.121226,0.042387,0.056452,-0.640419,0.075226,-0.155387,0.561677,-0.042097,0.040613]
[0.000000,0.000000,0.000000,0.124742,0.222323,-0.269323,0.061226,0.372000,-0.126065,0.063968,0.040129,-0.686548,0.062065,-0.177968,0.593194,-0.041742,0.024032]
[0.000000,0.000000,0.000000,0.113387,0.224516,-0.273516,0.065161,0.415000,-0.130903,0.085548,0.023806,-0.732677,0.048903,-0.200548,0.624710,-0.041387,0.007452]
[0.000000,0.000000,0.000000,0.102032,0.226710,-0.277710,0.069097,0.458000,-0.135742,0.107129,0.007484,-0.778806,0.035742,-0.223129,0.656226,-0.041032,-0.009129]
[0.000000,0.000000,0.000000,0.090677,0.228903,-0.281903,0.073032,0.501000,-0.140581,0.128710,-0.008839,-0.824935,0.022581,-0.245710,0.687742,-0.040677,-0.025710]
[0.000000,0.000000,0.000000,0.079323,0.231097,-0.286097,0.076968,0.544000,-0.145419,0.150290,-0.025161,-0.871065,0.009419,-0.268290,0.719258,-0.040323,-0.042290]
[0.000000,0.000000,0.000000,0.067968,0.233290,-0.290290,0.080903,0.587000,-0.150258,0.171871,-0.041484,-0.917194,-0.003742,-0.290871,0.750774,-0.039968,-0.058871]
[0.000000,0.000000,0.000000,0.056613,0.235484,-0.294484,0.084839,0.630000,-0.155097,0.193452,-0.057806,-0.963323,-0.016903,-0.313452,0.782290,-0.039613,-0.075452]
[0.000000,0.000000,0.000000,0.045258,0.237677,-0.298677,0.088774,0.673000,-0.159935,0.215032,-0.074129,-1.009452,-0.030065,-0.336032,0.813806,-0.039258,-0.092032]
[0.000000,0.000000,0.000000,0.033903,0.239871,-0.302871,0.092710,0.716000,-0.164774,0.236613,-0.090452,-1.055581,-0.043226,-0.358613,0.845323,-0.038903,-0.108613]
[0.000000,0.000000,0.000000,0.022548,0.242065,-0.307065,0.096645,0.759000,-0.169613,0.258194,-0.106774,-1.101710,-0.056387,-0.381194,0.876839,-0.038548,-0.125194]
[0.000000,0.000000,0.000000,0.011194,0.244258,-0.311258,0.100581,0.802000,-0.174452,0.279774,-0.123097,-1.147839,-0.069548,-0.403774,0.908355,-0.038194,-0.141774]
[0.000000,0.000000,0.000000,-0.000161,0.246452,-0.315452,0.104516,0.845000,-0.179290,0.301355,-0.139419,-1.193968,-0.082710,-0.426355,0.939871,-0.037839,-0.158355]
[0.000000,0.000000,0.000000,-0.011516,0.248645,-0.319645,0.108452,0.888000,-0.184129,0.322935,-0.155742,-1.240097,-0.095871,-0.448935,0.971387,-0.037484,-0.174935]
[0.000000,0.000000,0.000000,-0.022871,0.250839,-0.323839,0.112387,0.931000,-0.188968,0.344516,-0.172065,-1.286226,-0.109032,-0.471516,1.002903,-0.037129,-0.191516]
[0.000000,0.000000,0.000000,-0.034226,0.253032,-0.328032,0.116323,0.974000,-0.193806,0.366097,-0.188387,-1.332355,-0.122194,-0.494097,1.034419,-0.036774,-0.208097]
[0.000000,0.000000,0.000000,-0.045581,0.255226,-0.332226,0.120258,1.017000,-0.198645,0.387677,-0.204710,-1.378484,-0.135355,-0.516677,1.065935,-0.036419,-0.224677]
[0.000000,0.000000,0.000000,-0.056935,0.257419,-0.336419,0.124194,1.060000,-0.203484,0.409258,-0.221032,-1.424613,-0.148516,-0.539258,1.097452,-0.036065,-0.241258]
[0.000000,0.000000,0.000000,-0.068290,0.259613,-0.340613,0.128129,1.103000,-0.208323,0.430839,-0.237355,-1.470742,-0.161677,-0.561839,1.128968,-0.035710,-0.257839]
[0.000000,0.000000,0.000000,-0.079645,0.261806,-0.344806,0.132065,1.146000,-0.213161,0.452419,-0.253677,-1.516871,-0.174839,-0.584419,1.160484,-0.035355,-0.274419]
[0.000000,0.000000,0.000000,-0.091000,0.264000,-0.349000,0.136000,1.189000,-0.218000,0.474000,-0.270000,-1.563000,-0.188000,-0.607000,1.192000,-0.035000,-0.291000]
[0.000000,0.000000,0.000000,-0.090847,0.263702,-0.349000,0.136411,1.189039,-0.218355,0.473950,-0.269902,-1.562691,-0.188190,-0.607051,1.192653,-0.034169,-0.291425]
[0.000000,0.000000,0.000000,-0.090849,0.263374,-0.349000,0.136721,1.189011,-0.218320,0.473583,-0.269918,-1.562718,-0.188181,-0.607065,1.193300,-0.033860,-0.291401]
[0.000000,0.000000,0.000000,-0.090983,0.263030,-0.349000,0.136979,1.188998,-0.218032,0.473049,-0.269993,-1.562971,-0.188020,-0.607009,1.193944,-0.033974,-0.291043]
[0.000000,0.000000,0.000000,-0.091224,0.262685,-0.349000,0.137232,1.189082,-0.217627,0.472502,-0.270072,-1.563339,-0.187749,-0.606851,1.194589,-0.034411,-0.290465]
[0.000000,0.000000,0.000000,-0.091548,0.262353,-0.349000,0.137530,1.189348,-0.217242,0.472094,-0.270102,-1.563710,-0.187415,-0.606559,1.195236,-0.035073,-0.289781]
[0.000000,0.000000,0.000000,-0.091930,0.262049,-0.349000,0.137920,1.189876,-0.217014,0.471979,-0.270027,-1.563974,-0.187060,-0.606099,1.195887,-0.035859,-0.289107]
[0.000000,0.000000,0.000000,-0.092341,0.261778,-0.349000,0.138442,1.190723,-0.217058,0.472280,-0.269806,-1.564043,-0.186724,-0.605457,1.196544,-0.036669,-0.288549]
[0.000000,0.000000,0.000000,-0.092714,0.261492,-0.349000,0.139082,1.191757,-0.217361,0.472927,-0.269472,-1.563996,-0.186405,-0.604744,1.197199,-0.037392,-0.288168]
[0.000000,0.000000,0.000000,-0.092965,0.261119,-0.349000,0.139804,1.192768,-0.217851,0.473769,-0.269096,-1.563981,-0.186085,-0.604125,1.197839,-0.037913,-0.288003]
[0.000000,0.000000,0.000000,-0.093027,0.260598,-0.349000,0.140581,1.193571,-0.218460,0.474669,-0.268739,-1.564129,-0.185749,-0.603751,1.198454,-0.038133,-0.288086]
[0.000000,0.000000,0.000000,-0.092977,0.259950,-0.349000,0.141467,1.194195,-0.219125,0.475606,-0.268414,-1.564442,-0.185410,-0.603668,1.199075,-0.038120,-0.288384]
[0.000000,0.000000,0.000000,-0.092967,0.259244,-0.349000,0.142558,1.194781,-0.219785,0.476623,-0.268105,-1.564850,-0.185097,-0.603868,1.199747,-0.038024,-0.288827]
[0.000000,0.000000,0.000000,-0.093136,0.258546,-0.349000,0.143942,1.195467,-0.220387,0.477759,-0.267799,-1.565284,-0.184832,-0.604334,1.200519,-0.037988,-0.289349]
[0.000000,0.000000,0.000000,-0.093471,0.257882,-0.349000,0.145563,1.196337,-0.220974,0.479020,-0.267483,-1.565672,-0.184567,-0.604987,1.201423,-0.038016,-0.289946]
[0.000000,0.000000,0.000000,-0.093852,0.257257,-0.349000,0.147273,1.197441,-0.221653,0.480384,-0.267151,-1.565940,-0.184208,-0.605703,1.202486,-0.038024,-0.290652]
[0.000000,0.000000,0.000000,-0.094165,0.256671,-0.349000,0.148930,1.198819,-0.222521,0.481836,-0.266794,-1.566021,-0.183666,-0.606365,1.203728,-0.037928,-0.291502]
[0.000000,0.000000,0.000000,-0.094427,0.256081,-0.349000,0.150517,1.200423,-0.223536,0.483385,-0.266437,-1.565972,-0.182980,-0.606972,1.205078,-0.037683,-0.292469]
[0.000000,0.000000,0.000000,-0.094759,0.255407,-0.349000,0.152127,1.202124,-0.224540,0.485067,-0.266127,-1.565949,-0.182300,-0.607618,1.206387,-0.037277,-0.293482]
[0.000000,0.000000,0.000000,-0.095282,0.254574,-0.349000,0.153852,1.203797,-0.225373,0.486913,-0.265910,-1.566107,-0.181771,-0.608399,1.207514,-0.036701,-0.294470]
[0.000000,0.000000,0.000000,-0.095972,0.253595,-0.349000,0.155728,1.205406,-0.226020,0.488882,-0.265822,-1.566450,-0.181422,-0.609333,1.208460,-0.036014,-0.295420]
[0.000000,0.000000,0.000000,-0.096661,0.252581,-0.349000,0.157735,1.207009,-0.226612,0.490857,-0.265883,-1.566826,-0.181159,-0.610361,1.209384,-0.035342,-0.296386]
[0.000000,0.000000,0.000000,-0.097172,0.251643,-0.349000,0.159851,1.208668,-0.227282,0.492717,-0.266111,-1.567075,-0.180883,-0.611419,1.210446,-0.034816,-0.297421]
[0.000000,0.000000,0.000000,-0.097480,0.250775,-0.349000,0.162061,1.210367,-0.228034,0.494410,-0.266463,-1.567136,-0.180556,-0.612449,1.211611,-0.034465,-0.298494]
[0.000000,0.000000,0.000000,-0.097747,0.249811,-0.349000,0.164362,1.211990,-0.228694,0.495974,-0.266819,-1.567075,-0.180217,-0.613406,1.212592,-0.034195,-0.299465]
[0.000000,0.000000,0.000000,-0.098149,0.248580,-0.349000,0.166751,1.213414,-0.229081,0.497453,-0.267052,-1.566965,-0.179911,-0.614245,1.213085,-0.033900,-0.300191]
[0.000000,0.000000,0.000000,-0.098756,0.247032,-0.349000,0.169239,1.214642,-0.229146,0.498928,-0.267111,-1.566880,-0.179638,-0.614952,1.213055,-0.033545,-0.300620]
[0.000000,0.000000,0.000000,-0.099462,0.245324,-0.349000,0.171857,1.215883,-0.229056,0.500547,-0.267062,-1.566887,-0.179324,-0.615564,1.212909,-0.033202,-0.300862]
[0.000000,0.000000,0.000000,-0.100145,0.243630,-0.349000,0.174640,1.217365,-0.229000,0.502463,-0.266984,-1.567055,-0.178888,-0.616123,1.213091,-0.032958,-0.301040]
[0.000000,0.000000,0.000000,-0.100751,0.242038,-0.349000,0.177631,1.219256,-0.229122,0.504768,-0.266937,-1.567387,-0.178295,-0.616621,1.213777,-0.032862,-0.301197]
[0.000000,0.000000,0.000000,-0.101371,0.240452,-0.349000,0.180902,1.221598,-0.229476,0.507438,-0.266942,-1.567758,-0.177609,-0.616949,1.214575,-0.032893,-0.301212]
[0.000000,0.000000,0.000000,-0.102114,0.238755,-0.349000,0.184523,1.224418,-0.230105,0.510430,-0.267015,-1.568026,-0.176904,-0.616983,1.215025,-0.033022,-0.300941]
[0.000000,0.000000,0.000000,-0.103034,0.236881,-0.349000,0.188521,1.227655,-0.231003,0.513668,-0.267184,-1.568105,-0.176234,-0.616740,1.214870,-0.033136,-0.300386]
[0.000000,0.000000,0.000000,-0.104049,0.234898,-0.349000,0.192797,1.231011,-0.232037,0.516974,-0.267503,-1.568065,-0.175593,-0.616610,1.214398,-0.032896,-0.299932]
[0.000000,0.000000,0.000000,-0.105050,0.232898,-0.349000,0.197231,1.234152,-0.233049,0.520159,-0.268034,-1.567997,-0.174968,-0.617043,1.213986,-0.031926,-0.300025]
[0.000000,0.000000,0.000000,-0.105974,0.230945,-0.349000,0.201688,1.236824,-0.233909,0.523025,-0.268813,-1.567972,-0.174342,-0.618315,1.213892,-0.030063,-0.300946]
[0.000000,0.000000,0.000000,-0.106905,0.229016,-0.349000,0.205972,1.239057,-0.234567,0.525364,-0.269805,-1.567982,-0.173700,-0.620098,1.213974,-0.027865,-0.302395]
[0.000000,0.000000,0.000000,-0.107960,0.227068,-0.349000,0.209875,1.240940,-0.234990,0.526961,-0.270958,-1.568000,-0.173024,-0.621941,1.214003,-0.026047,-0.303950]
[0.000000,0.000000,0.000000,-0.109214,0.225077,-0.349000,0.213270,1.242577,-0.235194,0.527730,-0.272219,-1.568006,-0.172281,-0.623477,1.213772,-0.025151,-0.305284]
[0.000000,0.000000,0.000000,-0.110564,0.223101,-0.349000,0.216397,1.244131,-0.235404,0.528153,-0.273534,-1.568003,-0.171370,-0.624739,1.213180,-0.024948,-0.306502]
[0.000000,0.000000,0.000000,-0.111855,0.221217,-0.349000,0.219593,1.245785,-0.235906,0.528864,-0.274845,-1.568000,-0.170170,-0.625866,1.212156,-0.024998,-0.307823]
[0.000000,0.000000,0.000000,-0.112963,0.219490,-0.349000,0.223123,1.247677,-0.236895,0.530350,-0.276111,-1.568004,-0.168608,-0.626972,1.210671,-0.024914,-0.309391]
[0.000000,0.000000,0.000000,-0.113920,0.217882,-0.349000,0.226811,1.249693,-0.238061,0.532223,-0.277375,-1.568008,-0.166882,-0.628005,1.208948,-0.024614,-0.310905]
[0.000000,0.000000,0.000000,-0.114814,0.216323,-0.349000,0.230325,1.251628,-0.238909,0.533781,-0.278709,-1.568003,-0.165287,-0.628857,1.207302,-0.024123,-0.311901]
[0.000000,0.000000,0.000000,-0.115729,0.214748,-0.349000,0.233375,1.253298,-0.239028,0.534410,-0.280176,-1.567982,-0.164072,-0.629434,1.206007,-0.023477,-0.312006]
[0.000000,0.000000,0.000000,-0.116690,0.213136,-0.349000,0.235988,1.254660,-0.238603,0.534142,-0.281778,-1.567965,-0.163150,-0.629771,1.205037,-0.022776,-0.311520]
[0.000000,0.000000,0.000000,-0.117697,0.211489,-0.349000,0.238337,1.255736,-0.238097,0.533305,-0.283484,-1.567983,-0.162280,-0.629960,1.204229,-0.022150,-0.311048]
[0.000000,0.000000,0.000000,-0.118742,0.209812,-0.349000,0.240586,1.256553,-0.237937,0.532222,-0.285270,-1.568061,-0.161238,-0.630095,1.203439,-0.021702,-0.311142]
[0.000000,0.000000,0.000000,-0.119771,0.208148,-0.349000,0.242828,1.257195,-0.238197,0.531137,-0.287155,-1.568132,-0.159979,-0.630307,1.202697,-0.021253,-0.311794]
[0.000000,0.000000,0.000000,-0.120695,0.206565,-0.349000,0.245113,1.257773,-0.238745,0.530246,-0.289184,-1.568078,-0.158564,-0.630744,1.202137,-0.020461,-0.312675]
[0.000000,0.000000,0.000000,-0.121436,0.205126,-0.349000,0.247487,1.258403,-0.239455,0.529743,-0.291393,-1.567794,-0.157054,-0.631539,1.201873,-0.019022,-0.313468]
[0.000000,0.000000,0.000000,-0.122046,0.203818,-0.349000,0.249996,1.259211,-0.240316,0.529772,-0.293712,-1.567373,-0.155469,-0.632588,1.201740,-0.017166,-0.314106]
[0.000000,0.000000,0.000000,-0.122666,0.202575,-0.349000,0.252680,1.260333,-0.241399,0.530441,-0.295993,-1.567050,-0.153804,-0.633611,1.201363,-0.015519,-0.314703]
[0.000000,0.000000,0.000000,-0.123438,0.201332,-0.349000,0.255573,1.261889,-0.242767,0.531842,-0.298094,-1.567052,-0.152052,-0.634339,1.200387,-0.014681,-0.315371]
[0.000000,0.000000,0.000000,-0.124384,0.200056,-0.349000,0.258583,1.263705,-0.244263,0.533806,-0.300021,-1.567374,-0.150191,-0.634722,1.198815,-0.014663,-0.316093]
[0.000000,0.000000,0.000000,-0.125421,0.198742,-0.349000,0.261504,1.265340,-0.245531,0.535921,-0.301915,-1.567801,-0.148184,-0.634915,1.196989,-0.014931,-0.316733]
[0.000000,0.000000,0.000000,-0.126462,0.197389,-0.349000,0.264130,1.266355,-0.246217,0.537779,-0.303921,-1.568114,-0.145996,-0.635080,1.195253,-0.014942,-0.317156]
[0.000000,0.000000,0.000000,-0.127461,0.196030,-0.349000,0.266435,1.266713,-0.246294,0.539314,-0.306105,-1.568211,-0.143679,-0.635322,1.193794,-0.014469,-0.317397]
[0.000000,0.000000,0.000000,-0.128415,0.194745,-0.349000,0.268602,1.266837,-0.246100,0.540855,-0.308442,-1.568128,-0.141383,-0.635685,1.192613,-0.013642,-0.317683]
[0.000000,0.000000,0.000000,-0.129325,0.193611,-0.349000,0.270819,1.267172,-0.245992,0.542743,-0.310904,-1.567906,-0.139259,-0.636211,1.191699,-0.012612,-0.318252]
[0.000000,0.000000,0.000000,-0.130226,0.192632,-0.349000,0.273144,1.267941,-0.246166,0.545045,-0.313460,-1.567593,-0.137332,-0.636874,1.191004,-0.011449,-0.319165]
[0.000000,0.000000,0.000000,-0.131200,0.191704,-0.349000,0.275440,1.269051,-0.246581,0.547429,-0.316081,-1.567244,-0.135443,-0.637559,1.190419,-0.010110,-0.320239]
[0.000000,0.000000,0.000000,-0.132333,0.190716,-0.349000,0.277558,1.270383,-0.247181,0.549532,-0.318733,-1.566914,-0.133419,-0.638145,1.189832,-0.008543,-0.321268]
[0.000000,0.000000,0.000000,-0.133634,0.189648,-0.349000,0.279399,1.271798,-0.247952,0.551071,-0.321380,-1.566619,-0.131190,-0.638562,1.189186,-0.006801,-0.322106]
[0.000000,0.000000,0.000000,-0.134977,0.188648,-0.349000,0.280952,1.273120,-0.248960,0.551913,-0.323973,-1.566307,-0.128865,-0.638844,1.188520,-0.005127,-0.322709]
[0.000000,0.000000,0.000000,-0.136222,0.187879,-0.349000,0.282218,1.274170,-0.250277,0.551937,-0.326462,-1.565918,-0.126574,-0.639030,1.187884,-0.003782,-0.323041]
[0.000000,0.000000,0.000000,-0.137285,0.187422,-0.349000,0.283240,1.274880,-0.251948,0.551176,-0.328817,-1.565459,-0.124372,-0.639139,1.187290,-0.002907,-0.323117]
[0.000000,0.000000,0.000000,-0.138218,0.187168,-0.349000,0.284152,1.275440,-0.253950,0.550018,-0.331061,-1.565095,-0.122141,-0.639136,1.186663,-0.002360,-0.323057]
[0.000000,0.000000,0.000000,-0.139089,0.186980,-0.349000,0.285105,1.276076,-0.256251,0.548899,-0.333220,-1.565010,-0.119740,-0.638975,1.185914,-0.001960,-0.322998]
[0.000000,0.000000,0.000000,-0.139968,0.186746,-0.349000,0.286172,1.276939,-0.258747,0.548112,-0.335349,-1.565287,-0.117111,-0.638653,1.184998,-0.001534,-0.323022]
[0.000000,0.000000,0.000000,-0.140923,0.186426,-0.349000,0.287204,1.277957,-0.261123,0.547541,-0.337577,-1.565709,-0.114441,-0.638282,1.183988,-0.000924,-0.323056]
[0.000000,0.000000,0.000000,-0.142021,0.185991,-0.349000,0.288011,1.279018,-0.263027,0.546990,-0.340045,-1.566002,-0.111960,-0.637997,1.182983,0.000020,-0.322998]
[0.000000,0.000000,0.000000,-0.143293,0.185428,-0.349000,0.288472,1.280032,-0.264242,0.546323,-0.342839,-1.565958,-0.109830,-0.637891,1.182047,0.001394,-0.322774]
[0.000000,0.000000,0.000000,-0.144638,0.184766,-0.349000,0.288727,1.280998,-0.265068,0.545625,-0.345821,-1.565609,-0.107943,-0.637918,1.181111,0.003072,-0.322427]
[0.000000,0.000000,0.000000,-0.145918,0.184050,-0.349000,0.288978,1.281936,-0.265929,0.545033,-0.348799,-1.565045,-0.106127,-0.637995,1.180077,0.004876,-0.322028]
[0.000000,0.000000,0.000000,-0.147025,0.183325,-0.349000,0.289370,1.282840,-0.267147,0.544618,-0.351612,-1.564359,-0.104240,-0.638049,1.178874,0.006644,-0.321640]
[0.000000,0.000000,0.000000,-0.147985,0.182647,-0.349000,0.289779,1.283578,-0.268555,0.544126,-0.354224,-1.563663,-0.102285,-0.638057,1.177552,0.008299,-0.321300]
[0.000000,0.000000,0.000000,-0.148866,0.182075,-0.349000,0.289997,1.283979,-0.269834,0.543204,-0.356642,-1.563074,-0.100306,-0.638012,1.176205,0.009787,-0.321033]
[0.000000,0.000000,0.000000,-0.149736,0.181655,-0.349000,0.289858,1.283914,-0.270719,0.541581,-0.358888,-1.562683,-0.098344,-0.637918,1.174909,0.011081,-0.320867]
[0.000000,0.000000,0.000000,-0.150663,0.181345,-0.349000,0.289475,1.283531,-0.271311,0.539509,-0.361086,-1.562407,-0.096402,-0.637857,1.173638,0.012304,-0.320829]
[0.000000,0.000000,0.000000,-0.151718,0.181070,-0.349000,0.289074,1.283087,-0.271850,0.537446,-0.363404,-1.562097,-0.094467,-0.637944,1.172329,0.013640,-0.320946]
[0.000000,0.000000,0.000000,-0.152956,0.180762,-0.349000,0.288857,1.282818,-0.272560,0.535812,-0.365976,-1.561619,-0.092530,-0.638267,1.170934,0.015240,-0.321232]
[0.000000,0.000000,0.000000,-0.154298,0.180426,-0.349000,0.288841,1.282776,-0.273489,0.534715,-0.368673,-1.560977,-0.090586,-0.638692,1.169547,0.016971,-0.321603]
[0.000000,0.000000,0.000000,-0.155604,0.180099,-0.349000,0.288950,1.282919,-0.274602,0.534104,-0.371234,-1.560246,-0.088639,-0.638978,1.168332,0.018558,-0.321927]
[0.000000,0.000000,0.000000,-0.156743,0.179814,-0.349000,0.289116,1.283205,-0.275858,0.533915,-0.373426,-1.559500,-0.086689,-0.638905,1.167438,0.019755,-0.322080]
[0.000000,0.000000,0.000000,-0.157719,0.179536,-0.349000,0.289361,1.283560,-0.277185,0.533974,-0.375318,-1.558801,-0.084740,-0.638539,1.166807,0.020652,-0.322077]
[0.000000,0.000000,0.000000,-0.158624,0.179185,-0.349000,0.289767,1.283892,-0.278489,0.534034,-0.377177,-1.558204,-0.082799,-0.638126,1.166252,0.021553,-0.322017]
[0.000000,0.000000,0.000000,-0.159548,0.178688,-0.349000,0.290408,1.284117,-0.279680,0.533861,-0.379256,-1.557760,-0.080871,-0.637903,1.165597,0.022745,-0.321997]
[0.000000,0.000000,0.000000,-0.160516,0.178051,-0.349000,0.291297,1.284313,-0.280719,0.533479,-0.381557,-1.557441,-0.078944,-0.637898,1.164863,0.024167,-0.322022]
[0.000000,0.000000,0.000000,-0.161505,0.177351,-0.349000,0.292390,1.284684,-0.281609,0.533109,-0.383887,-1.557157,-0.076993,-0.637975,1.164226,0.025486,-0.322026]
[0.000000,0.000000,0.000000,-0.162492,0.176660,-0.349000,0.293643,1.285426,-0.282357,0.532970,-0.386051,-1.556821,-0.074995,-0.637993,1.163856,0.026372,-0.321944]
[0.000000,0.000000,0.000000,-0.163466,0.176006,-0.349000,0.294978,1.286478,-0.283003,0.533048,-0.388013,-1.556441,-0.072985,-0.637836,1.163679,0.026777,-0.321723]
[0.000000,0.000000,0.000000,-0.164433,0.175371,-0.349000,0.296288,1.287523,-0.283620,0.533093,-0.389889,-1.556119,-0.071056,-0.637410,1.163372,0.026930,-0.321327]
[0.000000,0.000000,0.000000,-0.165400,0.174736,-0.349000,0.297465,1.288238,-0.284284,0.532850,-0.391804,-1.555959,-0.069299,-0.636631,1.162616,0.027071,-0.320725]
[0.000000,0.000000,0.000000,-0.166370,0.174089,-0.349000,0.298481,1.288566,-0.284992,0.532259,-0.393785,-1.555964,-0.067702,-0.635577,1.161454,0.027330,-0.319986]
[0.000000,0.000000,0.000000,-0.167344,0.173438,-0.349000,0.299400,1.288777,-0.285644,0.531503,-0.395744,-1.556011,-0.066125,-0.634538,1.160391,0.027699,-0.319312]
[0.000000,0.000000,0.000000,-0.168320,0.172787,-0.349000,0.300295,1.289161,-0.286139,0.530778,-0.397584,-1.555970,-0.064418,-0.633814,1.159955,0.028159,-0.318909]
[0.000000,0.000000,0.000000,-0.169298,0.172140,-0.349000,0.301220,1.289817,-0.286462,0.530238,-0.399267,-1.555838,-0.062524,-0.633482,1.160266,0.028636,-0.318838]
[0.000000,0.000000,0.000000,-0.170270,0.171493,-0.349000,0.302202,1.290543,-0.286738,0.529971,-0.400842,-1.555814,-0.060526,-0.633269,1.160800,0.028961,-0.318933]
[0.000000,0.000000,0.000000,-0.171230,0.170843,-0.349000,0.303265,1.291111,-0.287103,0.530056,-0.402366,-1.556113,-0.058520,-0.632872,1.160982,0.028962,-0.319006]
[0.000000,0.000000,0.000000,-0.172182,0.170190,-0.349000,0.304373,1.291367,-0.287577,0.530385,-0.403902,-1.556782,-0.056564,-0.632177,1.160524,0.028613,-0.318971]
[0.000000,0.000000,0.000000,-0.173150,0.169541,-0.349000,0.305370,1.291301,-0.287947,0.530483,-0.405518,-1.557537,-0.054634,-0.631438,1.159708,0.028189,-0.318935]
[0.000000,0.000000,0.000000,-0.174161,0.168902,-0.349000,0.306086,1.290921,-0.287972,0.529829,-0.407287,-1.558051,-0.052698,-0.630953,1.158886,0.027998,-0.319028]
[0.000000,0.000000,0.000000,-0.175208,0.168273,-0.349000,0.306459,1.290282,-0.287527,0.528182,-0.409226,-1.558153,-0.050740,-0.630873,1.158316,0.028209,-0.319315]
[0.000000,0.000000,0.000000,-0.176205,0.167631,-0.349000,0.306692,1.289565,-0.286780,0.526004,-0.411219,-1.558048,-0.048786,-0.630979,1.158026,0.028631,-0.319690]
[0.000000,0.000000,0.000000,-0.177051,0.166951,-0.349000,0.307032,1.288967,-0.285944,0.523866,-0.413126,-1.558004,-0.046870,-0.630992,1.158007,0.029021,-0.320018]
[0.000000,0.000000,0.000000,-0.177702,0.166233,-0.349000,0.307634,1.288607,-0.285188,0.522195,-0.414853,-1.558208,-0.044997,-0.630733,1.158230,0.029194,-0.320235]
[0.000000,0.000000,0.000000,-0.178291,0.165554,-0.349000,0.308355,1.288350,-0.284542,0.520955,-0.416445,-1.558582,-0.043087,-0.630336,1.158596,0.029169,-0.320493]
[0.000000,0.000000,0.000000,-0.178986,0.165008,-0.349000,0.308991,1.288008,-0.284008,0.520014,-0.417974,-1.558993,-0.041037,-0.630004,1.158994,0.029004,-0.320988]
[0.000000,0.000000,0.000000,-0.179904,0.164650,-0.349000,0.309396,1.287445,-0.283552,0.519222,-0.419510,-1.559342,-0.038791,-0.629886,1.159337,0.028750,-0.321848]
[0.000000,0.000000,0.000000,-0.180935,0.164377,-0.349000,0.309666,1.286748,-0.282994,0.518350,-0.421106,-1.559647,-0.036464,-0.629922,1.159645,0.028426,-0.322904]
[0.000000,0.000000,0.000000,-0.181909,0.164044,-0.349000,0.309962,1.286064,-0.282118,0.517152,-0.422815,-1.559964,-0.034221,-0.629995,1.159964,0.028043,-0.323909]
[0.000000,0.000000,0.000000,-0.182690,0.163532,-0.349000,0.310421,1.285522,-0.280786,0.515472,-0.424671,-1.560330,-0.032187,-0.630010,1.160328,0.027621,-0.324666]
[0.000000,0.000000,0.000000,-0.183316,0.162870,-0.349000,0.311056,1.285166,-0.279308,0.513649,-0.426630,-1.560691,-0.030286,-0.629989,1.160686,0.027244,-0.325260]
[0.000000,0.000000,0.000000,-0.183889,0.162140,-0.349000,0.311838,1.285007,-0.278147,0.512193,-0.428624,-1.560965,-0.028375,-0.629992,1.160963,0.027018,-0.325868]
[0.000000,0.000000,0.000000,-0.184497,0.161416,-0.349000,0.312735,1.285040,-0.277686,0.511517,-0.430589,-1.561082,-0.026323,-0.630062,1.161094,0.027016,-0.326630]
[0.000000,0.000000,0.000000,-0.185149,0.160741,-0.349000,0.313709,1.285126,-0.277762,0.511356,-0.432527,-1.561074,-0.024094,-0.630126,1.161097,0.027106,-0.327405]
[0.000000,0.000000,0.000000,-0.185817,0.160146,-0.349000,0.314720,1.285068,-0.277972,0.511143,-0.434463,-1.561015,-0.021692,-0.630059,1.161026,0.027064,-0.327933]
[0.000000,0.000000,0.000000,-0.186476,0.159659,-0.349000,0.315728,1.284690,-0.277947,0.510371,-0.436420,-1.560974,-0.019131,-0.629743,1.160934,0.026693,-0.327984]
[0.000000,0.000000,0.000000,-0.187123,0.159293,-0.349000,0.316713,1.284037,-0.277639,0.509064,-0.438383,-1.560969,-0.016494,-0.629161,1.160884,0.026036,-0.327640]
[0.000000,0.000000,0.000000,-0.187766,0.159054,-0.349000,0.317665,1.283272,-0.277178,0.507542,-0.440315,-1.560989,-0.013903,-0.628346,1.160941,0.025270,-0.327159]
[0.000000,0.000000,0.000000,-0.188414,0.158946,-0.349000,0.318579,1.282551,-0.276696,0.506117,-0.442186,-1.561022,-0.011472,-0.627339,1.161161,0.024571,-0.326787]
[0.000000,0.000000,0.000000,-0.189066,0.158938,-0.349000,0.319499,1.281907,-0.276291,0.504972,-0.444054,-1.561047,-0.009197,-0.626270,1.161506,0.024084,-0.326656]
[0.000000,0.000000,0.000000,-0.189713,0.158979,-0.349000,0.320502,1.281286,-0.276041,0.504201,-0.446040,-1.561030,-0.006990,-0.625329,1.161864,0.023929,-0.326819]
[0.000000,0.000000,0.000000,-0.190350,0.159019,-0.349000,0.321663,1.280635,-0.276020,0.503883,-0.448254,-1.560944,-0.004767,-0.624693,1.162128,0.024206,-0.327310]
[0.000000,0.000000,0.000000,-0.190984,0.159032,-0.349000,0.322963,1.279960,-0.276246,0.503910,-0.450621,-1.560850,-0.002501,-0.624236,1.162230,0.024614,-0.327906]
[0.000000,0.000000,0.000000,-0.191636,0.159018,-0.349000,0.324303,1.279314,-0.276687,0.504012,-0.452901,-1.560882,-0.000218,-0.623575,1.162139,0.024502,-0.328161]
[0.000000,0.000000,0.000000,-0.192327,0.158979,-0.349000,0.325585,1.278749,-0.277309,0.503917,-0.454859,-1.561173,0.002056,-0.622329,1.161828,0.023238,-0.327640]
[0.000000,0.000000,0.000000,-0.193030,0.158939,-0.349000,0.326814,1.278213,-0.278024,0.503578,-0.456481,-1.561644,0.004317,-0.620563,1.161392,0.020996,-0.326458]
[0.000000,0.000000,0.000000,-0.193670,0.158948,-0.349000,0.328109,1.277550,-0.278684,0.503183,-0.458001,-1.561989,0.006583,-0.618820,1.161056,0.018827,-0.325337]
[0.000000,0.000000,0.000000,-0.194168,0.159056,-0.349000,0.329590,1.276595,-0.279140,0.502934,-0.459659,-1.561896,0.008872,-0.617660,1.161047,0.017812,-0.325012]
[0.000000,0.000000,0.000000,-0.194516,0.159293,-0.349000,0.331253,1.275333,-0.279312,0.502897,-0.461550,-1.561307,0.011176,-0.617234,1.161386,0.018241,-0.325635]
[0.000000,0.000000,0.000000,-0.194795,0.159662,-0.349000,0.332921,1.273947,-0.279216,0.502962,-0.463566,-1.560513,0.013445,-0.617128,1.161807,0.019320,-0.326556]
[0.000000,0.000000,0.000000,-0.195095,0.160159,-0.349000,0.334406,1.272635,-0.278877,0.503004,-0.465585,-1.559828,0.015628,-0.616893,1.162028,0.020182,-0.327069]
[0.000000,0.000000,0.000000,-0.195447,0.160769,-0.349000,0.335664,1.271592,-0.278328,0.503046,-0.467542,-1.559413,0.017686,-0.616310,1.161896,0.020379,-0.326870]
[0.000000,0.000000,0.000000,-0.195788,0.161446,-0.349000,0.336895,1.271009,-0.277626,0.503360,-0.469467,-1.559164,0.019598,-0.615563,1.161477,0.020191,-0.326346]
[0.000000,0.000000,0.000000,-0.196042,0.162144,-0.349000,0.338322,1.271076,-0.276831,0.504244,-0.471403,-1.558953,0.021348,-0.614872,1.160861,0.019967,-0.325950]
[0.000000,0.000000,0.000000,-0.196159,0.162823,-0.349000,0.340078,1.271828,-0.276026,0.505836,-0.473367,-1.558687,0.022958,-0.614270,1.160149,0.019863,-0.325862]
[0.000000,0.000000,0.000000,-0.196135,0.163470,-0.349000,0.342092,1.272963,-0.275357,0.507935,-0.475323,-1.558353,0.024538,-0.613375,1.159468,0.019608,-0.325663]
[0.000000,0.000000,0.000000,-0.195973,0.164069,-0.349000,0.344268,1.274131,-0.274974,0.510290,-0.477225,-1.557947,0.026211,-0.611751,1.158950,0.018876,-0.324854]
[0.000000,0.000000,0.000000,-0.195692,0.164588,-0.349000,0.346570,1.275110,-0.274933,0.512731,-0.479026,-1.557502,0.028055,-0.609228,1.158647,0.017449,-0.323222]
[0.000000,0.000000,0.000000,-0.195343,0.164932,-0.349000,0.349130,1.276020,-0.275025,0.515306,-0.480656,-1.557140,0.030029,-0.606384,1.158392,0.015413,-0.321353]
[0.000000,0.000000,0.000000,-0.194988,0.164996,-0.349000,0.352112,1.277039,-0.274994,0.518101,-0.482043,-1.557000,0.032071,-0.603930,1.157981,0.012907,-0.319968]
[0.000000,0.000000,0.000000,-0.194668,0.164739,-0.349000,0.355581,1.278284,-0.274679,0.521169,-0.483153,-1.557170,0.034115,-0.602375,1.157299,0.010114,-0.319593]
[0.000000,0.000000,0.000000,-0.194358,0.164335,-0.349000,0.359269,1.279639,-0.274262,0.524442,-0.484082,-1.557545,0.036088,-0.601525,1.156552,0.007383,-0.320037]
[0.000000,0.000000,0.000000,-0.194019,0.164010,-0.349000,0.362826,1.280938,-0.274004,0.527824,-0.484954,-1.557979,0.037911,-0.601023,1.156017,0.005099,-0.320947]
[0.000000,0.000000,0.000000,-0.193631,0.163933,-0.349000,0.365985,1.282046,-0.274104,0.531218,-0.485875,-1.558351,0.039544,-0.600549,1.155891,0.003528,-0.322003]
[0.000000,0.000000,0.000000,-0.193266,0.163995,-0.349000,0.368845,1.282999,-0.274472,0.534514,-0.486851,-1.558664,0.041103,-0.599953,1.155990,0.002377,-0.323030]
[0.000000,0.000000,0.000000,-0.193019,0.164012,-0.349000,0.371614,1.283880,-0.274938,0.537598,-0.487859,-1.558959,0.042756,-0.599136,1.156018,0.001192,-0.323900]
[0.000000,0.000000,0.000000,-0.192963,0.163828,-0.349000,0.374469,1.284765,-0.275348,0.540383,-0.488878,-1.559268,0.044629,-0.598023,1.155721,-0.000412,-0.324500]
[0.000000,0.000000,0.000000,-0.193011,0.163482,-0.349000,0.377404,1.285708,-0.275677,0.542949,-0.489871,-1.559594,0.046632,-0.596699,1.155092,-0.002387,-0.324844]
[0.000000,0.000000,0.000000,-0.193019,0.163085,-0.349000,0.380347,1.286749,-0.275946,0.545438,-0.490803,-1.559926,0.048586,-0.595307,1.154220,-0.004521,-0.324989]
[0.000000,0.000000,0.000000,-0.192858,0.162735,-0.349000,0.383235,1.287923,-0.276180,0.547978,-0.491636,-1.560253,0.050341,-0.593973,1.153197,-0.006619,-0.324997]
[0.000000,0.000000,0.000000,-0.192537,0.162427,-0.349000,0.386109,1.289212,-0.276448,0.550579,-0.492337,-1.560576,0.051934,-0.592696,1.152154,-0.008603,-0.324957]
[0.000000,0.000000,0.000000,-0.192131,0.162109,-0.349000,0.389057,1.290571,-0.276840,0.553193,-0.492872,-1.560899,0.053499,-0.591410,1.151236,-0.010455,-0.324970]
[0.000000,0.000000,0.000000,-0.191715,0.161736,-0.349000,0.392157,1.291954,-0.277429,0.555779,-0.493222,-1.561226,0.055153,-0.590063,1.150580,-0.012150,-0.325127]
[0.000000,0.000000,0.000000,-0.191345,0.161353,-0.349000,0.395393,1.293301,-0.278137,0.558349,-0.493480,-1.561554,0.056848,-0.588704,1.150197,-0.013604,-0.325432]
[0.000000,0.000000,0.000000,-0.191071,0.161065,-0.349000,0.398692,1.294548,-0.278793,0.560950,-0.493812,-1.561876,0.058434,-0.587446,1.150024,-0.014695,-0.325829]
[0.000000,0.000000,0.000000,-0.190938,0.160965,-0.349000,0.401979,1.295634,-0.279236,0.563621,-0.494368,-1.562185,0.059770,-0.586392,1.149997,-0.015317,-0.326263]
[0.000000,0.000000,0.000000,-0.190928,0.161007,-0.349000,0.405229,1.296593,-0.279506,0.566301,-0.495091,-1.562493,0.060826,-0.585482,1.150034,-0.015592,-0.326660]
[0.000000,0.000000,0.000000,-0.190976,0.161036,-0.349000,0.408452,1.297527,-0.279795,0.568854,-0.495761,-1.562824,0.061660,-0.584531,1.150038,-0.015819,-0.326936]
[0.000000,0.000000,0.000000,-0.191017,0.160904,-0.349000,0.411656,1.298535,-0.280291,0.571147,-0.496164,-1.563201,0.062331,-0.583353,1.149922,-0.016290,-0.327006]
[0.000000,0.000000,0.000000,-0.191027,0.160591,-0.349000,0.414867,1.299593,-0.280985,0.573164,-0.496249,-1.563588,0.062929,-0.581872,1.149763,-0.017120,-0.326823]
[0.000000,0.000000,0.000000,-0.191013,0.160207,-0.349000,0.418118,1.300554,-0.281681,0.574999,-0.496123,-1.563896,0.063570,-0.580113,1.149799,-0.018249,-0.326376]
[0.000000,0.000000,0.000000,-0.190989,0.159862,-0.349000,0.421444,1.301271,-0.282178,0.576750,-0.495897,-1.564035,0.064370,-0.578107,1.150268,-0.019609,-0.325654]
[0.000000,0.000000,0.000000,-0.190969,0.159578,-0.349000,0.424795,1.301701,-0.282366,0.578447,-0.495621,-1.564017,0.065339,-0.575902,1.151183,-0.021055,-0.324616]
[0.000000,0.000000,0.000000,-0.190973,0.159265,-0.349000,0.428024,1.301924,-0.282245,0.580040,-0.495276,-1.563974,0.066360,-0.573567,1.152294,-0.022350,-0.323187]
[0.000000,0.000000,0.000000,-0.191023,0.158831,-0.349000,0.430980,1.302027,-0.281819,0.581473,-0.494836,-1.564044,0.067314,-0.571171,1.153336,-0.023254,-0.321290]
[0.000000,0.000000,0.000000,-0.191094,0.158241,-0.349000,0.433635,1.302064,-0.281083,0.582680,-0.494282,-1.564211,0.068109,-0.568716,1.154146,-0.023703,-0.319002]
[0.000000,0.000000,0.000000,-0.191097,0.157547,-0.349000,0.436140,1.302046,-0.280016,0.583580,-0.493598,-1.564232,0.068706,-0.566103,1.154721,-0.023894,-0.316627]
[0.000000,0.000000,0.000000,-0.190939,0.156808,-0.349000,0.438663,1.301977,-0.278599,0.584091,-0.492772,-1.563848,0.069070,-0.563225,1.155069,-0.024049,-0.314486]
[0.000000,0.000000,0.000000,-0.190604,0.156085,-0.349000,0.441280,1.301827,-0.276909,0.584215,-0.491753,-1.562977,0.069263,-0.560058,1.155272,-0.024373,-0.312735]
[0.000000,0.000000,0.000000,-0.190230,0.155437,-0.349000,0.443903,1.301493,-0.275210,0.584118,-0.490424,-1.561876,0.069531,-0.556743,1.155549,-0.025048,-0.311217]
[0.000000,0.000000,0.000000,-0.189970,0.154924,-0.349000,0.446422,1.300867,-0.273786,0.583982,-0.488659,-1.560838,0.070141,-0.553437,1.156133,-0.026253,-0.309740]
[0.000000,0.000000,0.000000,-0.189908,0.154563,-0.349000,0.448776,1.299875,-0.272767,0.583932,-0.486396,-1.560054,0.071232,-0.550280,1.157162,-0.028032,-0.308227]
[0.000000,0.000000,0.000000,-0.189955,0.154277,-0.349000,0.451010,1.298526,-0.271906,0.583952,-0.483718,-1.559460,0.072633,-0.547368,1.158541,-0.030111,-0.306880]
[0.000000,0.000000,0.000000,-0.190001,0.153971,-0.349000,0.453187,1.296842,-0.270900,0.584005,-0.480733,-1.558958,0.074127,-0.544794,1.160144,-0.032168,-0.305941]
[0.000000,0.000000,0.000000,-0.189932,0.153551,-0.349000,0.455369,1.294846,-0.269449,0.584055,-0.477547,-1.558447,0.075497,-0.542647,1.161840,-0.033884,-0.305653]
[0.000000,0.000000,0.000000,-0.189636,0.152926,-0.349000,0.457619,1.292558,-0.267249,0.584066,-0.474267,-1.557827,0.076527,-0.541018,1.163501,-0.034935,-0.306259]
[0.000000,0.000000,0.000000,-0.189000,0.152000,-0.349000,0.460000,1.290000,-0.264000,0.584000,-0.471000,-1.557000,0.077000,-0.540000,1.165000,-0.035000,-0.308000]
[0.000000,0.000000,0.000000,-0.185419,0.147097,-0.321839,0.485000,1.268581,-0.259903,0.562484,-0.451387,-1.506774,0.070226,-0.494161,1.109452,-0.034968,-0.298323]
[0.000000,0.000000,0.000000,-0.181839,0.142194,-0.294677,0.510000,1.247161,-0.255806,0.540968,-0.431774,-1.456548,0.063452,-0.448323,1.053903,-0.034935,-0.288645]
[0.000000,0.000000,0.000000,-0.178258,0.137290,-0.267516,0.535000,1.225742,-0.251710,0.519452,-0.412161,-1.406323,0.056677,-0.402484,0.998355,-0.034903,-0.278968]
[0.000000,0.000000,0.000000,-0.174677,0.132387,-0.240355,0.560000,1.204323,-0.247613,0.497935,-0.392548,-1.356097,0.049903,-0.356645,0.942806,-0.034871,-0.269290]
[0.000000,0.000000,0.000000,-0.171097,0.127484,-0.213194,0.585000,1.182903,-0.243516,0.476419,-0.372935,-1.305871,0.043129,-0.310806,0.887258,-0.034839,-0.259613]
[0.000000,0.000000,0.000000,-0.167516,0.122581,-0.186032,0.610000,1.161484,-0.239419,0.454903,-0.353323,-1.255645,0.036355,-0.264968,0.831710,-0.034806,-0.249935]
[0.000000,0.000000,0.000000,-0.163935,0.117677,-0.158871,0.635000,1.140065,-0.235323,0.433387,-0.333710,-1.205419,0.029581,-0.219129,0.776161,-0.034774,-0.240258]
[0.000000,0.000000,0.000000,-0.160355,0.112774,-0.131710,0.660000,1.118645,-0.231226,0.411871,-0.314097,-1.155194,0.022806,-0.173290,0.720613,-0.034742,-0.230581]
[0.000000,0.000000,0.000000,-0.156774,0.107871,-0.104548,0.685000,1.097226,-0.227129,0.390355,-0.294484,-1.104968,0.016032,-0.127452,0.665065,-0.034710,-0.220903]
[0.000000,0.000000,0.000000,-0.153194,0.102968,-0.077387,0.710000,1.075806,-0.223032,0.368839,-0.274871,-1.054742,0.009258,-0.081613,0.609516,-0.034677,-0.211226]
[0.000000,0.000000,0.000000,-0.149613,0.098065,-0.050226,0.735000,1.054387,-0.218935,0.347323,-0.255258,-1.004516,0.002484,-0.035774,0.553968,-0.034645,-0.201548]
[0.000000,0.000000,0.000000,-0.146032,0.093161,-0.023065,0.760000,1.032968,-0.214839,0.325806,-0.235645,-0.954290,-0.004290,0.010065,0.498419,-0.034613,-0.191871]
[0.000000,0.000000,0.000000,-0.142452,0.088258,0.004097,0.785000,1.011548,-0.210742,0.304290,-0.216032,-0.904065,-0.011065,0.055903,0.442871,-0.034581,-0.182194]
[0.000000,0.000000,0.000000,-0.138871,0.083355,0.031258,0.810000,0.990129,-0.206645,0.282774,-0.196419,-0.853839,-0.017839,0.101742,0.387323,-0.034548,-0.172516]
[0.000000,0.000000,0.000000,-0.135290,0.078452,0.058419,0.835000,0.968710,-0.202548,0.261258,-0.176806,-0.803613,-0.024613,0.147581,0.331774,-0.034516,-0.162839]
[0.000000,0.000000,0.000000,-0.131710,0.073548,0.085581,0.860000,0.947290,-0.198452,0.239742,-0.157194,-0.753387,-0.031387,0.193419,0.276226,-0.034484,-0.153161]
[0.000000,0.000000,0.000000,-0.128129,0.068645,0.112742,0.885000,0.925871,-0.194355,0.218226,-0.137581,-0.703161,-0.038161,0.239258,0.220677,-0.034452,-0.143484]
[0.000000,0.000000,0.000000,-0.124548,0.063742,0.139903,0.910000,0.904452,-0.190258,0.196710,-0.117968,-0.652935,-0.044935,0.285097,0.165129,-0.034419,-0.133806]
[0.000000,0.000000,0.000000,-0.120968,0.058839,0.167065,0.935000,0.883032,-0.186161,0.175194,-0.098355,-0.602710,-0.051710,0.330935,0.109581,-0.034387,-0.124129]
[0.000000,0.000000,0.000000,-0.117387,0.053935,0.194226,0.960000,0.861613,-0.182065,0.153677,-0.078742,-0.552484,-0.058484,0.376774,0.054032,-0.034355,-0.114452]
[0.000000,0.000000,0.000000,-0.113806,0.049032,0.221387,0.985000,0.840194,-0.177968,0.132161,-0.059129,-0.502258,-0.065258,0.422613,-0.001516,-0.034323,-0.104774]
[0.000000,0.000000,0.000000,-0.110226,0.044129,0.248548,1.010000,0.818774,-0.173871,0.110645,-0.039516,-0.452032,-0.072032,0.468452,-0.057065,-0.034290,-0.095097]
[0.000000,0.000000,0.000000,-0.106645,0.039226,0.275710,1.035000,0.797355,-0.169774,0.089129,-0.019903,-0.401806,-0.078806,0.514290,-0.112613,-0.034258,-0.085419]
[0.000000,0.000000,0.000000,-0.103065,0.034323,0.302871,1.060000,0.775935,-0.165677,0.067613,-0.000290,-0.351581,-0.085581,0.560129,-0.168161,-0.034226,-0.075742]
[0.000000,0.000000,0.000000,-0.099484,0.029419,0.330032,1.085000,0.754516,-0.161581,0.046097,0.019323,-0.301355,-0.092355,0.605968,-0.223710,-0.034194,-0.066065]
[0.000000,0.000000,0.000000,-0.095903,0.024516,0.357194,1.110000,0.733097,-0.157484,0.024581,0.038935,-0.251129,-0.099129,0.651806,-0.279258,-0.034161,-0.056387]
[0.000000,0.000000,0.000000,-0.092323,0.019613,0.384355,1.135000,0.711677,-0.153387,0.003065,0.058548,-0.200903,-0.105903,0.697645,-0.334806,-0.034129,-0.046710]
[0.000000,0.000000,0.000000,-0.088742,0.014710,0.411516,1.160000,0.690258,-0.149290,-0.018452,0.078161,-0.150677,-0.112677,0.743484,-0.390355,-0.034097,-0.037032]
[0.000000,0.000000,0.000000,-0.085161,0.009806,0.438677,1.185000,0.668839,-0.145194,-0.039968,0.097774,-0.100452,-0.119452,0.789323,-0.445903,-0.034065,-0.027355]
[0.000000,0.000000,0.000000,-0.081581,0.004903,0.465839,1.210000,0.647419,-0.141097,-0.061484,0.117387,-0.050226,-0.126226,0.835161,-0.501452,-0.034032,-0.017677]
[0.000000,0.000000,0.000000,-0.078000,0.000000,0.493000,1.235000,0.626000,-0.137000,-0.083000,0.137000,0.000000,-0.133000,0.881000,-0.557000,-0.034000,-0.008000]
[0.000000,0.000000,0.000000,-0.077943,0.000000,0.492979,1.235000,0.626000,-0.137000,-0.083000,0.137000,0.000000,-0.133000,0.881000,-0.557000,-0.034000,-0.008000]
[0.000000,0.000000,0.000000,-0.077887,0.000000,0.492958,1.235000,0.626000,-0.137000,-0.083000,0.137000,0.000000,-0.133000,0.881000,-0.557000,-0.034000,-0.008000]
[0.000000,0.000000,0.000000,-0.077830,0.000000,0.492936,1.235000,0.626000,-0.137000,-0.083000,0.137000,0.000000,-0.133000,0.881000,-0.557000,-0.034000,-0.008000]
[0.000000,0.000000,0.000000,-0.077774,0.000000,0.492915,1.235000,0.626000,-0.137000,-0.083000,0.137000,0.000000,-0.133000,0.881000,-0.557000,-0.034000,-0.008000]
[0.000000,0.000000,0.000000,-0.077717,0.000000,0.492894,1.235000,0.626000,-0.137000,-0.083000,0.137000,0.000000,-0.133000,0.881000,-0.557000,-0.034000,-0.008000]
