callmecarrot/action_slices/27_全14.txt
[waist_yaw_joint,waist_roll_joint,waist_pitch_joint,left_shoulder_pitch_joint,left_shoulder_roll_joint,left_shoulder_yaw_joint,left_elbow_joint,left_wrist_roll_joint,left_wrist_pitch_joint,left_wrist_yaw_joint,right_shoulder_pitch_joint,right_shoulder_roll_joint,right_shoulder_yaw_joint,right_elbow_joint,right_wrist_roll_joint,right_wrist_pitch_joint,right_wrist_yaw_joint]
[0.000000,0.000000,0.000000,-0.077661,0.000000,0.492873,1.235000,0.626000,-0.137000,-0.083000,0.137000,0.000000,-0.133000,0.881000,-0.557000,-0.034000,-0.008000]
[0.000000,0.000000,0.000000,-0.077604,0.000000,0.492852,1.235000,0.626000,-0.137000,-0.083000,0.137000,0.000000,-0.133000,0.881000,-0.557000,-0.034000,-0.008000]
[0.000000,0.000000,0.000000,-0.077548,0.000000,0.492830,1.235000,0.626000,-0.137000,-0.083000,0.137000,0.000000,-0.133000,0.881000,-0.557000,-0.034000,-0.008000]
[0.000000,0.000000,0.000000,-0.077491,0.000000,0.492809,1.235000,0.626000,-0.137000,-0.083000,0.137000,0.000000,-0.133000,0.881000,-0.557000,-0.034000,-0.008000]
[0.000000,0.000000,0.000000,-0.077435,0.000000,0.492788,1.235000,0.626000,-0.137000,-0.083000,0.137000,0.000000,-0.133000,0.881000,-0.557000,-0.034000,-0.008000]
[0.000000,0.000000,0.000000,-0.077378,0.000000,0.492767,1.235000,0.626000,-0.137000,-0.083000,0.137000,0.000000,-0.133000,0.881000,-0.557000,-0.034000,-0.008000]
[0.000000,0.000000,0.000000,-0.077322,0.000000,0.492746,1.235000,0.626000,-0.137000,-0.083000,0.137000,0.000000,-0.133000,0.881000,-0.557000,-0.034000,-0.008000]
[0.000000,0.000000,0.000000,-0.077265,0.000000,0.492724,1.235000,0.626000,-0.137000,-0.083000,0.137000,0.000000,-0.133000,0.881000,-0.557000,-0.034000,-0.008000]
[0.000000,0.000000,0.000000,-0.077208,0.000000,0.492703,1.235000,0.626000,-0.137000,-0.083000,0.137000,0.000000,-0.133000,0.881000,-0.557000,-0.034000,-0.008000]
[0.000000,0.000000,0.000000,-0.077152,0.000000,0.492682,1.235000,0.626000,-0.137000,-0.083000,0.137000,0.000000,-0.133000,0.881000,-0.557000,-0.034000,-0.008000]
[0.000000,0.000000,0.000000,-0.077095,0.000000,0.492661,1.235000,0.626000,-0.137000,-0.083000,0.137000,0.000000,-0.133000,0.881000,-0.557000,-0.034000,-0.008000]
[0.000000,0.000000,0.000000,-0.077039,0.000000,0.492640,1.235000,0.626000,-0.137000,-0.083000,0.137000,0.000000,-0.133000,0.881000,-0.557000,-0.034000,-0.008000]
[0.000000,0.000000,0.000000,-0.076982,0.000000,0.492618,1.235000,0.626000,-0.137000,-0.083000,0.137000,0.000000,-0.133000,0.881000,-0.557000,-0.034000,-0.008000]
[0.000000,0.000000,0.000000,-0.076926,0.000000,0.492597,1.235000,0.626000,-0.137000,-0.083000,0.137000,0.000000,-0.133000,0.881000,-0.557000,-0.034000,-0.008000]
[0.000000,0.000000,0.000000,-0.076869,0.000000,0.492576,1.235000,0.626000,-0.137000,-0.083000,0.137000,0.000000,-0.133000,0.881000,-0.557000,-0.034000,-0.008000]
[0.000000,0.000000,0.000000,-0.076813,0.000000,0.492555,1.235000,0.626000,-0.137000,-0.083000,0.137000,0.000000,-0.133000,0.881000,-0.557000,-0.034000,-0.008000]
[0.000000,0.000000,0.000000,-0.076756,0.000000,0.492534,1.235000,0.626000,-0.137000,-0.083000,0.137000,0.000000,-0.133000,0.881000,-0.557000,-0.034000,-0.008000]
[0.000000,0.000000,0.000000,-0.076700,0.000000,0.492512,1.235000,0.626000,-0.137000,-0.083000,0.137000,0.000000,-0.133000,0.881000,-0.557000,-0.034000,-0.008000]
[0.000000,0.000000,0.000000,-0.076643,0.000000,0.492491,1.235000,0.626000,-0.137000,-0.083000,0.137000,0.000000,-0.133000,0.881000,-0.557000,-0.034000,-0.008000]
[0.000000,0.000000,0.000000,-0.076587,0.000000,0.492470,1.235000,0.626000,-0.137000,-0.083000,0.137000,0.000000,-0.133000,0.881000,-0.557000,-0.034000,-0.008000]
[0.000000,0.000000,0.000000,-0.076530,0.000000,0.492449,1.235000,0.626000,-0.137000,-0.083000,0.137000,0.000000,-0.133000,0.881000,-0.557000,-0.034000,-0.008000]
[0.000000,0.000000,0.000000,-0.076473,0.000000,0.492428,1.235000,0.626000,-0.137000,-0.083000,0.137000,0.000000,-0.133000,0.881000,-0.557000,-0.034000,-0.008000]
[0.000000,0.000000,0.000000,-0.076417,0.000000,0.492406,1.235000,0.626000,-0.137000,-0.083000,0.137000,0.000000,-0.133000,0.881000,-0.557000,-0.034000,-0.008000]
[0.000000,0.000000,0.000000,-0.076360,0.000000,0.492385,1.235000,0.626000,-0.137000,-0.083000,0.137000,0.000000,-0.133000,0.881000,-0.557000,-0.034000,-0.008000]
[0.000000,0.000000,0.000000,-0.076304,0.000000,0.492364,1.235000,0.626000,-0.137000,-0.083000,0.137000,0.000000,-0.133000,0.881000,-0.557000,-0.034000,-0.008000]
[0.016667,0.000000,0.000000,-0.076247,0.000000,0.492343,1.235000,0.626000,-0.137000,-0.083000,0.137000,0.000000,-0.133000,0.881000,-0.557000,-0.034000,-0.008000]
[0.033333,0.000000,0.000000,-0.076191,0.000000,0.492322,1.235000,0.626000,-0.137000,-0.083000,0.137000,0.000000,-0.133000,0.881000,-0.557000,-0.034000,-0.008000]
[0.050000,0.000000,0.000000,-0.076134,0.000000,0.492300,1.235000,0.626000,-0.137000,-0.083000,0.137000,0.000000,-0.133000,0.881000,-0.557000,-0.034000,-0.008000]
[0.066667,0.000000,0.000000,-0.076078,0.000000,0.492279,1.235000,0.626000,-0.137000,-0.083000,0.137000,0.000000,-0.133000,0.881000,-0.557000,-0.034000,-0.008000]
[0.083333,0.000000,0.000000,-0.076021,0.000000,0.492258,1.235000,0.626000,-0.137000,-0.083000,0.137000,0.000000,-0.133000,0.881000,-0.557000,-0.034000,-0.008000]
[0.100000,0.000000,0.000000,-0.075965,0.000000,0.492237,1.235000,0.626000,-0.137000,-0.083000,0.137000,0.000000,-0.133000,0.881000,-0.557000,-0.034000,-0.008000]
[0.116667,0.000000,0.000000,-0.075908,0.000000,0.492216,1.235000,0.626000,-0.137000,-0.083000,0.137000,0.000000,-0.133000,0.881000,-0.557000,-0.034000,-0.008000]
[0.133333,0.000000,0.000000,-0.075852,0.000000,0.492194,1.235000,0.626000,-0.137000,-0.083000,0.137000,0.000000,-0.133000,0.881000,-0.557000,-0.034000,-0.008000]
[0.150000,0.000000,0.000000,-0.075795,0.000000,0.492173,1.235000,0.626000,-0.137000,-0.083000,0.137000,0.000000,-0.133000,0.881000,-0.557000,-0.034000,-0.008000]
[0.166667,0.000000,0.000000,-0.075739,0.000000,0.492152,1.235000,0.626000,-0.137000,-0.083000,0.137000,0.000000,-0.133000,0.881000,-0.557000,-0.034000,-0.008000]
[0.183333,0.000000,0.000000,-0.075682,0.000000,0.492131,1.235000,0.626000,-0.137000,-0.083000,0.137000,0.000000,-0.133000,0.881000,-0.557000,-0.034000,-0.008000]
[0.200000,0.000000,0.000000,-0.075625,0.000000,0.492110,1.235000,0.626000,-0.137000,-0.083000,0.137000,0.000000,-0.133000,0.881000,-0.557000,-0.034000,-0.008000]
[0.216667,0.000000,0.000000,-0.075569,0.000000,0.492088,1.235000,0.626000,-0.137000,-0.083000,0.137000,0.000000,-0.133000,0.881000,-0.557000,-0.034000,-0.008000]
[0.233333,0.000000,0.000000,-0.075512,0.000000,0.492067,1.235000,0.626000,-0.137000,-0.083000,0.137000,0.000000,-0.133000,0.881000,-0.557000,-0.034000,-0.008000]
[0.250000,0.000000,0.000000,-0.075456,0.000000,0.492046,1.235000,0.626000,-0.137000,-0.083000,0.137000,0.000000,-0.133000,0.881000,-0.557000,-0.034000,-0.008000]
[0.266667,0.000000,0.000000,-0.075399,0.000000,0.492025,1.235000,0.626000,-0.137000,-0.083000,0.137000,0.000000,-0.133000,0.881000,-0.557000,-0.034000,-0.008000]
[0.283333,0.000000,0.000000,-0.075343,0.000000,0.492004,1.235000,0.626000,-0.137000,-0.083000,0.137000,0.000000,-0.133000,0.881000,-0.557000,-0.034000,-0.008000]
[0.300000,0.000000,0.000000,-0.075286,0.000000,0.491982,1.235000,0.626000,-0.137000,-0.083000,0.137000,0.000000,-0.133000,0.881000,-0.557000,-0.034000,-0.008000]
[0.316667,0.000000,0.000000,-0.075230,0.000000,0.491961,1.235000,0.626000,-0.137000,-0.083000,0.137000,0.000000,-0.133000,0.881000,-0.557000,-0.034000,-0.008000]
[0.333333,0.000000,0.000000,-0.075173,0.000000,0.491940,1.235000,0.626000,-0.137000,-0.083000,0.137000,0.000000,-0.133000,0.881000,-0.557000,-0.034000,-0.008000]
[0.350000,0.000000,0.000000,-0.075117,0.000000,0.491919,1.235000,0.626000,-0.137000,-0.083000,0.137000,0.000000,-0.133000,0.881000,-0.557000,-0.034000,-0.008000]
[0.366667,0.000000,0.000000,-0.075060,0.000000,0.491898,1.235000,0.626000,-0.137000,-0.083000,0.137000,0.000000,-0.133000,0.881000,-0.557000,-0.034000,-0.008000]
[0.383333,0.000000,0.000000,-0.075004,0.000000,0.491876,1.235000,0.626000,-0.137000,-0.083000,0.137000,0.000000,-0.133000,0.881000,-0.557000,-0.034000,-0.008000]
[0.400000,0.000000,0.000000,-0.074947,0.000000,0.491855,1.235000,0.626000,-0.137000,-0.083000,0.137000,0.000000,-0.133000,0.881000,-0.557000,-0.034000,-0.008000]
[0.416667,0.000000,0.000000,-0.074890,0.000000,0.491834,1.235000,0.626000,-0.137000,-0.083000,0.137000,0.000000,-0.133000,0.881000,-0.557000,-0.034000,-0.008000]
[0.433333,0.000000,0.000000,-0.074834,0.000000,0.491813,1.235000,0.626000,-0.137000,-0.083000,0.137000,0.000000,-0.133000,0.881000,-0.557000,-0.034000,-0.008000]
[0.450000,0.000000,0.000000,-0.074777,0.000000,0.491792,1.235000,0.626000,-0.137000,-0.083000,0.137000,0.000000,-0.133000,0.881000,-0.557000,-0.034000,-0.008000]
[0.466667,0.000000,0.000000,-0.074721,0.000000,0.491770,1.235000,0.626000,-0.137000,-0.083000,0.137000,0.000000,-0.133000,0.881000,-0.557000,-0.034000,-0.008000]
[0.483333,0.000000,0.000000,-0.074664,0.000000,0.491749,1.235000,0.626000,-0.137000,-0.083000,0.137000,0.000000,-0.133000,0.881000,-0.557000,-0.034000,-0.008000]
[0.500000,0.000000,0.000000,-0.074608,0.000000,0.491728,1.235000,0.626000,-0.137000,-0.083000,0.137000,0.000000,-0.133000,0.881000,-0.557000,-0.034000,-0.008000]
[0.500000,0.000000,0.000000,-0.074551,0.000000,0.491707,1.235000,0.626000,-0.137000,-0.083000,0.137000,0.000000,-0.133000,0.881000,-0.557000,-0.034000,-0.008000]
[0.500000,0.000000,0.000000,-0.074495,0.000000,0.491686,1.235000,0.626000,-0.137000,-0.083000,0.137000,0.000000,-0.133000,0.881000,-0.557000,-0.034000,-0.008000]
[0.500000,0.000000,0.000000,-0.074438,0.000000,0.491664,1.235000,0.626000,-0.137000,-0.083000,0.137000,0.000000,-0.133000,0.881000,-0.557000,-0.034000,-0.008000]
[0.500000,0.000000,0.000000,-0.074382,0.000000,0.491643,1.235000,0.626000,-0.137000,-0.083000,0.137000,0.000000,-0.133000,0.881000,-0.557000,-0.034000,-0.008000]
[0.500000,0.000000,0.000000,-0.074325,0.000000,0.491622,1.235000,0.626000,-0.137000,-0.083000,0.137000,0.000000,-0.133000,0.881000,-0.557000,-0.034000,-0.008000]
[0.500000,0.000000,0.000000,-0.074269,0.000000,0.491601,1.235000,0.626000,-0.137000,-0.083000,0.137000,0.000000,-0.133000,0.881000,-0.557000,-0.034000,-0.008000]
[0.500000,0.000000,0.000000,-0.074212,0.000000,0.491580,1.235000,0.626000,-0.137000,-0.083000,0.137000,0.000000,-0.133000,0.881000,-0.557000,-0.034000,-0.008000]
[0.500000,0.000000,0.000000,-0.074155,0.000000,0.491558,1.235000,0.626000,-0.137000,-0.083000,0.137000,0.000000,-0.133000,0.881000,-0.557000,-0.034000,-0.008000]
[0.500000,0.000000,0.000000,-0.074099,0.000000,0.491537,1.235000,0.626000,-0.137000,-0.083000,0.137000,0.000000,-0.133000,0.881000,-0.557000,-0.034000,-0.008000]
[0.500000,0.000000,0.000000,-0.074042,0.000000,0.491516,1.235000,0.626000,-0.137000,-0.083000,0.137000,0.000000,-0.133000,0.881000,-0.557000,-0.034000,-0.008000]
[0.500000,0.000000,0.000000,-0.073986,0.000000,0.491495,1.235000,0.626000,-0.137000,-0.083000,0.137000,0.000000,-0.133000,0.881000,-0.557000,-0.034000,-0.008000]
[0.500000,0.000000,0.000000,-0.073929,0.000000,0.491473,1.235000,0.626000,-0.137000,-0.083000,0.137000,0.000000,-0.133000,0.881000,-0.557000,-0.034000,-0.008000]
[0.500000,0.000000,0.000000,-0.073873,0.000000,0.491452,1.235000,0.626000,-0.137000,-0.083000,0.137000,0.000000,-0.133000,0.881000,-0.557000,-0.034000,-0.008000]
[0.500000,0.000000,0.000000,-0.073816,0.000000,0.491431,1.235000,0.626000,-0.137000,-0.083000,0.137000,0.000000,-0.133000,0.881000,-0.557000,-0.034000,-0.008000]
