callmecarrot/action_slices/28_小14.txt
[waist_yaw_joint,waist_roll_joint,waist_pitch_joint,left_shoulder_pitch_joint,left_shoulder_roll_joint,left_shoulder_yaw_joint,left_elbow_joint,left_wrist_roll_joint,left_wrist_pitch_joint,left_wrist_yaw_joint,right_shoulder_pitch_joint,right_shoulder_roll_joint,right_shoulder_yaw_joint,right_elbow_joint,right_wrist_roll_joint,right_wrist_pitch_joint,right_wrist_yaw_joint]
[0.500000,0.000000,0.000000,-0.073760,0.000000,0.491410,1.235000,0.626000,-0.137000,-0.083000,0.137000,0.000000,-0.133000,0.881000,-0.557000,-0.034000,-0.008000]
[0.500000,0.000000,0.000000,-0.073703,0.000000,0.491389,1.235000,0.626000,-0.137000,-0.083000,0.137000,0.000000,-0.133000,0.881000,-0.557000,-0.034000,-0.008000]
[0.500000,0.000000,0.000000,-0.073647,0.000000,0.491367,1.235000,0.626000,-0.137000,-0.083000,0.137000,0.000000,-0.133000,0.881000,-0.557000,-0.034000,-0.008000]
[0.500000,0.000000,0.000000,-0.073590,0.000000,0.491346,1.235000,0.626000,-0.137000,-0.083000,0.137000,0.000000,-0.133000,0.881000,-0.557000,-0.034000,-0.008000]
[0.500000,0.000000,0.000000,-0.073534,0.000000,0.491325,1.235000,0.626000,-0.137000,-0.083000,0.137000,0.000000,-0.133000,0.881000,-0.557000,-0.034000,-0.008000]
[0.500000,0.000000,0.000000,-0.073477,0.000000,0.491304,1.235000,0.626000,-0.137000,-0.083000,0.137000,0.000000,-0.133000,0.881000,-0.557000,-0.034000,-0.008000]
[0.500000,0.000000,0.000000,-0.073420,0.000000,0.491283,1.235000,0.626000,-0.137000,-0.083000,0.137000,0.000000,-0.133000,0.881000,-0.557000,-0.034000,-0.008000]
[0.500000,0.000000,0.000000,-0.073364,0.000000,0.491261,1.235000,0.626000,-0.137000,-0.083000,0.137000,0.000000,-0.133000,0.881000,-0.557000,-0.034000,-0.008000]
[0.500000,0.000000,0.000000,-0.073307,0.000000,0.491240,1.235000,0.626000,-0.137000,-0.083000,0.137000,0.000000,-0.133000,0.881000,-0.557000,-0.034000,-0.008000]
[0.500000,0.000000,0.000000,-0.073251,0.000000,0.491219,1.235000,0.626000,-0.137000,-0.083000,0.137000,0.000000,-0.133000,0.881000,-0.557000,-0.034000,-0.008000]
[0.500000,0.000000,0.000000,-0.073194,0.000000,0.491198,1.235000,0.626000,-0.137000,-0.083000,0.137000,0.000000,-0.133000,0.881000,-0.557000,-0.034000,-0.008000]
[0.500000,0.000000,0.000000,-0.073138,0.000000,0.491177,1.235000,0.626000,-0.137000,-0.083000,0.137000,0.000000,-0.133000,0.881000,-0.557000,-0.034000,-0.008000]
[0.500000,0.000000,0.000000,-0.073081,0.000000,0.491155,1.235000,0.626000,-0.137000,-0.083000,0.137000,0.000000,-0.133000,0.881000,-0.557000,-0.034000,-0.008000]
[0.500000,0.000000,0.000000,-0.073025,0.000000,0.491134,1.235000,0.626000,-0.137000,-0.083000,0.137000,0.000000,-0.133000,0.881000,-0.557000,-0.034000,-0.008000]
[0.500000,0.000000,0.000000,-0.072968,0.000000,0.491113,1.235000,0.626000,-0.137000,-0.083000,0.137000,0.000000,-0.133000,0.881000,-0.557000,-0.034000,-0.008000]
[0.500000,0.000000,0.000000,-0.072912,0.000000,0.491092,1.235000,0.626000,-0.137000,-0.083000,0.137000,0.000000,-0.133000,0.881000,-0.557000,-0.034000,-0.008000]
[0.500000,0.000000,0.000000,-0.072855,0.000000,0.491071,1.235000,0.626000,-0.137000,-0.083000,0.137000,0.000000,-0.133000,0.881000,-0.557000,-0.034000,-0.008000]
[0.500000,0.000000,0.000000,-0.072799,0.000000,0.491049,1.235000,0.626000,-0.137000,-0.083000,0.137000,0.000000,-0.133000,0.881000,-0.557000,-0.034000,-0.008000]
[0.500000,0.000000,0.000000,-0.072742,0.000000,0.491028,1.235000,0.626000,-0.137000,-0.083000,0.137000,0.000000,-0.133000,0.881000,-0.557000,-0.034000,-0.008000]
[0.500000,0.000000,0.000000,-0.072686,0.000000,0.491007,1.235000,0.626000,-0.137000,-0.083000,0.137000,0.000000,-0.133000,0.881000,-0.557000,-0.034000,-0.008000]
[0.500000,0.000000,0.000000,-0.072629,0.000000,0.490986,1.235000,0.626000,-0.137000,-0.083000,0.137000,0.000000,-0.133000,0.881000,-0.557000,-0.034000,-0.008000]
[0.500000,0.000000,0.000000,-0.072572,0.000000,0.490965,1.235000,0.626000,-0.137000,-0.083000,0.137000,0.000000,-0.133000,0.881000,-0.557000,-0.034000,-0.008000]
[0.500000,0.000000,0.000000,-0.072516,0.000000,0.490943,1.235000,0.626000,-0.137000,-0.083000,0.137000,0.000000,-0.133000,0.881000,-0.557000,-0.034000,-0.008000]
[0.500000,0.000000,0.000000,-0.072459,0.000000,0.490922,1.235000,0.626000,-0.137000,-0.083000,0.137000,0.000000,-0.133000,0.881000,-0.557000,-0.034000,-0.008000]
[0.500000,0.000000,0.000000,-0.072403,0.000000,0.490901,1.235000,0.626000,-0.137000,-0.083000,0.137000,0.000000,-0.133000,0.881000,-0.557000,-0.034000,-0.008000]
[0.500000,0.000000,0.000000,-0.072346,0.000000,0.490880,1.235000,0.626000,-0.137000,-0.083000,0.137000,0.000000,-0.133000,0.881000,-0.557000,-0.034000,-0.008000]
