callmecarrot/action_slices/4_小2.txt
[waist_yaw_joint,waist_roll_joint,waist_pitch_joint,left_shoulder_pitch_joint,left_shoulder_roll_joint,left_shoulder_yaw_joint,left_elbow_joint,left_wrist_roll_joint,left_wrist_pitch_joint,left_wrist_yaw_joint,right_shoulder_pitch_joint,right_shoulder_roll_joint,right_shoulder_yaw_joint,right_elbow_joint,right_wrist_roll_joint,right_wrist_pitch_joint,right_wrist_yaw_joint]
[0.000000,0.000000,0.000000,0.295349,0.190172,-0.109232,0.014477,0.160072,-0.225521,0.409337,-0.074267,-0.000000,0.349000,0.068627,-0.062073,-0.065985,-0.141896]
[0.000000,0.000000,0.000000,0.293604,0.191580,-0.110369,0.015250,0.156700,-0.223954,0.410071,-0.072417,0.000000,0.349000,0.070612,-0.065206,-0.069610,-0.142000]
[0.000000,0.000000,0.000000,0.292744,0.193365,-0.111088,0.016300,0.153627,-0.225310,0.410072,-0.070498,-0.000000,0.349000,0.072487,-0.070545,-0.075171,-0.142080]
[0.000000,0.000000,0.000000,0.291925,0.194068,-0.110923,0.017042,0.152523,-0.226225,0.409707,-0.068662,0.000000,0.349000,0.074363,-0.075807,-0.078779,-0.141740]
[0.000000,0.000000,0.000000,0.292023,0.193929,-0.109690,0.017043,0.149816,-0.226989,0.406364,-0.066626,-0.000000,0.349000,0.076312,-0.079742,-0.083827,-0.139742]
[0.000000,0.000000,0.000000,0.291982,0.192866,-0.106739,0.016881,0.150004,-0.225868,0.401630,-0.063793,0.000000,0.349000,0.078071,-0.085367,-0.088131,-0.139022]
[0.000000,0.000000,0.000000,0.292018,0.190943,-0.103921,0.014973,0.148949,-0.225011,0.397896,-0.061950,-0.000000,0.349000,0.077992,-0.086991,-0.088029,-0.140037]
[0.000000,0.000000,0.000000,0.292982,0.189051,-0.101084,0.015011,0.147047,-0.225994,0.394107,-0.060055,-0.000000,0.349000,0.077995,-0.086017,-0.089992,-0.140989]
[0.000000,0.000000,0.000000,0.293019,0.187184,-0.098217,0.014021,0.145249,-0.225088,0.390344,-0.058161,0.000000,0.349000,0.078037,-0.086022,-0.088148,-0.140999]
[0.000000,0.000000,0.000000,0.292974,0.185150,-0.096200,0.014869,0.141482,-0.224900,0.386426,-0.056271,-0.000000,0.349000,0.077157,-0.085139,-0.087948,-0.141062]
[0.000000,0.000000,0.000000,0.293091,0.185005,-0.095151,0.015033,0.139283,-0.225847,0.384360,-0.054379,0.000000,0.349000,0.076175,-0.084298,-0.087407,-0.140156]
[0.000000,0.000000,0.000000,0.292190,0.184300,-0.094316,0.015062,0.137583,-0.226101,0.381885,-0.052481,-0.000000,0.349000,0.075271,-0.082298,-0.084676,-0.139948]
[0.000000,0.000000,0.000000,0.292009,0.183300,-0.092686,0.014336,0.134961,-0.225420,0.378154,-0.050616,0.000000,0.349000,0.074196,-0.082564,-0.083029,-0.140014]
[0.000000,0.000000,0.000000,0.291467,0.182267,-0.090519,0.013403,0.131936,-0.223727,0.374919,-0.048618,-0.000000,0.349000,0.074013,-0.083320,-0.083230,-0.140006]
[0.000000,0.000000,0.000000,0.290249,0.181954,-0.089866,0.012149,0.129823,-0.222096,0.372692,-0.047337,0.000000,0.349000,0.073536,-0.081769,-0.081647,-0.139958]
[0.000000,0.000000,0.000000,0.290104,0.181935,-0.090049,0.012882,0.127502,-0.222781,0.371353,-0.046479,-0.000000,0.349000,0.072275,-0.080727,-0.081463,-0.140157]
[0.000000,0.000000,0.000000,0.289181,0.182412,-0.089952,0.014940,0.124408,-0.225497,0.370806,-0.045510,0.000000,0.349000,0.072314,-0.081495,-0.081663,-0.139330]
[0.000000,0.000000,0.000000,0.287176,0.183417,-0.090212,0.017264,0.122152,-0.228015,0.371629,-0.044562,-0.000000,0.349000,0.073541,-0.082232,-0.080884,-0.139693]
[0.000000,0.000000,0.000000,0.284899,0.184559,-0.091974,0.019880,0.119897,-0.229479,0.374137,-0.043644,0.000000,0.349000,0.074093,-0.081398,-0.080871,-0.141435]
[0.000000,0.000000,0.000000,0.282242,0.187049,-0.095054,0.021585,0.117269,-0.230144,0.376801,-0.042602,-0.000000,0.349000,0.073916,-0.079282,-0.079210,-0.142647]
[0.000000,0.000000,0.000000,0.280487,0.189366,-0.097650,0.023654,0.115377,-0.229727,0.378320,-0.041978,0.000000,0.349000,0.074223,-0.077585,-0.078100,-0.144148]
[0.000000,0.000000,0.000000,0.278562,0.190412,-0.099286,0.025110,0.112079,-0.228980,0.379219,-0.041842,-0.000000,0.349000,0.075144,-0.077032,-0.079023,-0.144087]
[0.000000,0.000000,0.000000,0.276675,0.192088,-0.100108,0.026641,0.108629,-0.230419,0.380122,-0.040910,0.000000,0.349000,0.074828,-0.076769,-0.077695,-0.145221]
[0.000000,0.000000,0.000000,0.274790,0.192109,-0.101212,0.031385,0.107975,-0.233300,0.381210,-0.041039,-0.000000,0.349000,0.074005,-0.074851,-0.077138,-0.146024]
[0.000000,0.000000,0.000000,0.272881,0.194107,-0.103048,0.033107,0.106860,-0.235060,0.383046,-0.040957,0.000000,0.349000,0.075079,-0.075076,-0.080218,-0.146022]
[0.000000,0.000000,0.000000,0.271000,0.195000,-0.103000,0.036000,0.104000,-0.236000,0.383000,-0.040000,0.000000,0.349000,0.076000,-0.076000,-0.083000,-0.147000]
[0.000000,0.000000,0.000000,0.270079,0.194973,-0.103927,0.038886,0.103097,-0.237904,0.383958,-0.040024,-0.000000,0.349000,0.075975,-0.074064,-0.082089,-0.147974]
[0.000000,0.000000,0.000000,0.268179,0.195916,-0.104944,0.040670,0.100281,-0.239647,0.384025,-0.039071,0.000000,0.349000,0.076917,-0.074086,-0.081051,-0.148011]
[0.000000,0.000000,0.000000,0.267197,0.196039,-0.105022,0.044492,0.099088,-0.243564,0.383986,-0.039040,-0.000000,0.349000,0.077031,-0.072175,-0.080963,-0.148014]
[0.000000,0.000000,0.000000,0.265438,0.195968,-0.104997,0.045826,0.098255,-0.244042,0.384019,-0.038194,0.000000,0.349000,0.077006,-0.072838,-0.081088,-0.147914]
[0.000000,0.000000,0.000000,0.264094,0.196083,-0.104980,0.047438,0.097211,-0.244838,0.383935,-0.037937,-0.000000,0.349000,0.076926,-0.072215,-0.080274,-0.148754]
[0.000000,0.000000,0.000000,0.264101,0.195378,-0.105091,0.048801,0.096834,-0.244262,0.384251,-0.038020,0.000000,0.349000,0.077617,-0.072660,-0.079774,-0.149101]
[0.000000,0.000000,0.000000,0.263252,0.194362,-0.104412,0.049201,0.097446,-0.244357,0.382568,-0.037994,-0.000000,0.349000,0.078647,-0.072899,-0.081095,-0.148863]
[0.000000,0.000000,0.000000,0.263516,0.193437,-0.103527,0.048021,0.094683,-0.241403,0.382540,-0.038002,0.000000,0.349000,0.079534,-0.074116,-0.083320,-0.149612]
[0.000000,0.000000,0.000000,0.264017,0.192487,-0.101950,0.045847,0.092581,-0.237129,0.382371,-0.037997,-0.000000,0.349000,0.080618,-0.075241,-0.084200,-0.150004]
