callmecarrot/action_slices/5_全3.txt
[waist_yaw_joint,waist_roll_joint,waist_pitch_joint,left_shoulder_pitch_joint,left_shoulder_roll_joint,left_shoulder_yaw_joint,left_elbow_joint,left_wrist_roll_joint,left_wrist_pitch_joint,left_wrist_yaw_joint,right_shoulder_pitch_joint,right_shoulder_roll_joint,right_shoulder_yaw_joint,right_elbow_joint,right_wrist_roll_joint,right_wrist_pitch_joint,right_wrist_yaw_joint]
[0.000000,0.000000,0.000000,0.264441,0.191536,-0.100524,0.044493,0.093200,-0.235006,0.379582,-0.038007,0.000000,0.349000,0.081004,-0.074825,-0.083772,-0.150395]
[0.000000,0.000000,0.000000,0.265033,0.190613,-0.099255,0.043534,0.092604,-0.233491,0.376971,-0.037976,-0.000000,0.349000,0.081307,-0.075477,-0.084776,-0.151217]
[0.000000,0.000000,0.000000,0.265289,0.189589,-0.097468,0.042950,0.091825,-0.232738,0.375847,-0.038079,0.000000,0.349000,0.082349,-0.075866,-0.086296,-0.150593]
[0.000000,0.000000,0.000000,0.266131,0.188917,-0.096966,0.042871,0.092291,-0.231459,0.376056,-0.037725,-0.000000,0.349000,0.083387,-0.076802,-0.087895,-0.150088]
[0.000000,0.000000,0.000000,0.265915,0.189025,-0.096959,0.041524,0.093092,-0.229562,0.375936,-0.036930,0.000000,0.349000,0.083924,-0.079191,-0.090119,-0.151383]
[0.000000,0.000000,0.000000,0.266174,0.188983,-0.097158,0.039728,0.092972,-0.227428,0.376164,-0.036941,-0.000000,0.349000,0.082735,-0.077535,-0.088697,-0.151894]
[0.000000,0.000000,0.000000,0.267030,0.189032,-0.098051,0.038895,0.093023,-0.224777,0.377048,-0.035736,0.000000,0.349000,0.081978,-0.075909,-0.087965,-0.150942]
[0.000000,0.000000,0.000000,0.267063,0.188933,-0.098023,0.037888,0.092959,-0.223871,0.377028,-0.033890,-0.000000,0.349000,0.081960,-0.075997,-0.088006,-0.150971]
[0.000000,0.000000,0.000000,0.267999,0.187994,-0.099045,0.037006,0.091962,-0.221967,0.378039,-0.032963,0.000000,0.349000,0.080972,-0.076023,-0.088000,-0.149965]
[0.000000,0.000000,0.000000,0.267020,0.188952,-0.100939,0.037982,0.091001,-0.221985,0.379921,-0.031058,0.000000,0.349000,0.080035,-0.077005,-0.088003,-0.149016]
[0.000000,0.000000,0.000000,0.267015,0.190833,-0.103657,0.037211,0.091111,-0.221287,0.383625,-0.029171,-0.000000,0.349000,0.078208,-0.075224,-0.087194,-0.148961]
[0.000000,0.000000,0.000000,0.266165,0.192735,-0.108396,0.034274,0.088377,-0.216496,0.387631,-0.027201,0.000000,0.349000,0.075434,-0.072483,-0.083622,-0.149812]
[0.000000,0.000000,0.000000,0.265180,0.194608,-0.111491,0.033905,0.087066,-0.215780,0.388886,-0.026246,-0.000000,0.349000,0.072497,-0.068681,-0.079627,-0.150990]
[0.000000,0.000000,0.000000,0.264235,0.196567,-0.114323,0.033995,0.086418,-0.216645,0.389787,-0.024443,0.000000,0.349000,0.070440,-0.066283,-0.077304,-0.150150]
[0.000000,0.000000,0.000000,0.263348,0.197843,-0.116447,0.034503,0.084018,-0.218591,0.390119,-0.023311,-0.000000,0.349000,0.068637,-0.065418,-0.076403,-0.150665]
[0.000000,0.000000,0.000000,0.261878,0.198014,-0.118349,0.036744,0.080891,-0.218824,0.389485,-0.021784,0.000000,0.349000,0.066585,-0.063539,-0.074579,-0.151069]
[0.000000,0.000000,0.000000,0.259151,0.198097,-0.119719,0.040407,0.079146,-0.220761,0.387833,-0.019786,-0.000000,0.349000,0.065448,-0.063070,-0.073929,-0.151085]
[0.000000,0.000000,0.000000,0.256938,0.197444,-0.120335,0.043775,0.079293,-0.222409,0.386182,-0.017926,0.000000,0.349000,0.063924,-0.061908,-0.073578,-0.150433]
[0.000000,0.000000,0.000000,0.254554,0.196939,-0.122373,0.046081,0.081112,-0.221409,0.386428,-0.016027,-0.000000,0.349000,0.062431,-0.060932,-0.072488,-0.149995]
[0.000000,0.000000,0.000000,0.252073,0.196886,-0.125108,0.047590,0.082154,-0.220992,0.387208,-0.014129,0.000000,0.349000,0.061511,-0.060467,-0.071625,-0.149608]
[0.000000,0.000000,0.000000,0.250050,0.197578,-0.129063,0.048007,0.084874,-0.220721,0.389404,-0.012264,-0.000000,0.349000,0.060955,-0.060563,-0.073186,-0.148889]
[0.000000,0.000000,0.000000,0.246739,0.199700,-0.134791,0.048207,0.090852,-0.219639,0.392797,-0.010284,0.000000,0.349000,0.060834,-0.062334,-0.074944,-0.149016]
[0.000000,0.000000,0.000000,0.242957,0.201516,-0.139264,0.049345,0.095214,-0.216646,0.394776,-0.008687,-0.000001,0.349000,0.059526,-0.061643,-0.071969,-0.149036]
[0.000000,0.000000,0.000000,0.238977,0.203473,-0.144243,0.050055,0.100365,-0.210742,0.397357,-0.007685,0.000001,0.349000,0.057512,-0.061105,-0.069913,-0.148863]
[0.000000,0.000000,0.000000,0.234217,0.205218,-0.149967,0.050018,0.107218,-0.206320,0.398224,-0.005578,-0.000004,0.349000,0.055801,-0.062094,-0.069716,-0.147805]
[0.000000,0.000000,0.000000,0.229354,0.206105,-0.155695,0.051292,0.114990,-0.203951,0.400238,-0.002608,0.000010,0.349000,0.054855,-0.061980,-0.066686,-0.146935]
[0.000000,0.000000,0.000000,0.222575,0.207041,-0.162411,0.055272,0.124567,-0.205072,0.402102,0.001228,-0.000017,0.349000,0.052857,-0.062006,-0.064921,-0.147048]
[0.000000,0.000000,0.000000,0.215000,0.207000,-0.170000,0.060000,0.134000,-0.204000,0.404000,0.005000,-0.001000,0.349000,0.050000,-0.062000,-0.063000,-0.149000]
[0.000000,0.000000,0.000000,0.212652,0.203935,-0.173891,0.066130,0.152152,-0.196565,0.401978,0.009674,-0.004630,0.349000,0.053652,-0.078891,-0.057565,-0.150870]
[0.000000,0.000000,0.000000,0.210304,0.200870,-0.177783,0.072261,0.170304,-0.189130,0.399957,0.014348,-0.008261,0.349000,0.057304,-0.095783,-0.052130,-0.152739]
[0.000000,0.000000,0.000000,0.207957,0.197804,-0.181674,0.078391,0.188457,-0.181696,0.397935,0.019022,-0.011891,0.349000,0.060957,-0.112674,-0.046696,-0.154609]
[0.000000,0.000000,0.000000,0.205609,0.194739,-0.185565,0.084522,0.206609,-0.174261,0.395913,0.023696,-0.015522,0.349000,0.064609,-0.129565,-0.041261,-0.156478]
[0.000000,0.000000,0.000000,0.203261,0.191674,-0.189457,0.090652,0.224761,-0.166826,0.393891,0.028370,-0.019152,0.349000,0.068261,-0.146457,-0.035826,-0.158348]
[0.000000,0.000000,0.000000,0.200913,0.188609,-0.193348,0.096783,0.242913,-0.159391,0.391870,0.033043,-0.022783,0.349000,0.071913,-0.163348,-0.030391,-0.160217]
[0.000000,0.000000,0.000000,0.198565,0.185543,-0.197239,0.102913,0.261065,-0.151957,0.389848,0.037717,-0.026413,0.349000,0.075565,-0.180239,-0.024957,-0.162087]
