callmecarrot/action_slices/9_全5.txt
[waist_yaw_joint,waist_roll_joint,waist_pitch_joint,left_shoulder_pitch_joint,left_shoulder_roll_joint,left_shoulder_yaw_joint,left_elbow_joint,left_wrist_roll_joint,left_wrist_pitch_joint,left_wrist_yaw_joint,right_shoulder_pitch_joint,right_shoulder_roll_joint,right_shoulder_yaw_joint,right_elbow_joint,right_wrist_roll_joint,right_wrist_pitch_joint,right_wrist_yaw_joint]
[0.000000,0.000000,0.000000,0.255187,0.190227,-0.214322,0.012466,-0.144879,-0.059840,-0.196983,0.231131,-0.143793,0.219875,0.088535,0.221869,-0.042176,0.223314]
[0.000000,0.000000,0.000000,0.255862,0.190881,-0.214898,0.013612,-0.144951,-0.061626,-0.196993,0.231767,-0.143235,0.219236,0.089724,0.221327,-0.042754,0.223916]
[0.000000,0.000000,0.000000,0.256046,0.191019,-0.215094,0.014940,-0.145041,-0.062478,-0.197006,0.232495,-0.142302,0.218497,0.090433,0.219904,-0.043700,0.223992]
[0.000000,0.000000,0.000000,0.255996,0.190995,-0.215003,0.015988,-0.145001,-0.062985,-0.197000,0.232994,-0.141026,0.218005,0.090986,0.218033,-0.044974,0.223994]
[0.000000,0.000000,0.000000,0.256484,0.191557,-0.214872,0.016143,-0.144971,-0.064115,-0.196997,0.233095,-0.139721,0.217937,0.091984,0.216649,-0.046310,0.224567]
[0.000000,0.000000,0.000000,0.257170,0.192086,-0.215134,0.015968,-0.145025,-0.065250,-0.197003,0.232951,-0.138821,0.218012,0.093417,0.215823,-0.047138,0.225080]
[0.000000,0.000000,0.000000,0.257731,0.192080,-0.215797,0.015975,-0.145073,-0.065835,-0.197007,0.232884,-0.138318,0.218005,0.094750,0.215278,-0.047159,0.225064]
[0.000000,0.000000,0.000000,0.258387,0.191914,-0.216053,0.016016,-0.144773,-0.066209,-0.196981,0.233322,-0.137393,0.218009,0.094866,0.214566,-0.046725,0.224956]
[0.000000,0.000000,0.000000,0.258957,0.191957,-0.215982,0.016005,-0.144114,-0.066846,-0.196987,0.233949,-0.136156,0.218009,0.094094,0.214009,-0.046104,0.224985]
[0.000000,0.000000,0.000000,0.259007,0.192422,-0.216365,0.015977,-0.143403,-0.068077,-0.197101,0.233999,-0.135422,0.217926,0.093835,0.214383,-0.045440,0.225083]
[0.000000,0.000000,0.000000,0.259033,0.193087,-0.217104,0.016011,-0.142970,-0.069075,-0.196943,0.234046,-0.134921,0.218042,0.094029,0.215068,-0.044954,0.224957]
[0.000000,0.000000,0.000000,0.259575,0.193677,-0.217775,0.016079,-0.142958,-0.069119,-0.196305,0.234675,-0.134267,0.218591,0.094119,0.215196,-0.044852,0.224408]
[0.000000,0.000000,0.000000,0.260301,0.194242,-0.218055,0.015840,-0.142998,-0.068972,-0.195913,0.235095,-0.133928,0.219295,0.093805,0.214756,-0.045207,0.223706]
[0.000000,0.000000,0.000000,0.260882,0.194829,-0.218004,0.015212,-0.142975,-0.069009,-0.195980,0.235024,-0.133987,0.219879,0.093171,0.214123,-0.045834,0.223122]
[0.000000,0.000000,0.000000,0.261163,0.195422,-0.218138,0.014492,-0.143199,-0.068834,-0.195895,0.235097,-0.133879,0.220169,0.092726,0.213974,-0.046262,0.222830]
[0.000000,0.000000,0.000000,0.261000,0.196000,-0.219000,0.014000,-0.144000,-0.068000,-0.195000,0.236000,-0.133000,0.220000,0.093000,0.215000,-0.046000,0.223000]
[0.000000,0.000000,0.000000,0.260355,0.198645,-0.223194,0.024516,-0.110968,-0.067226,-0.169032,0.240613,-0.136839,0.224161,0.104065,0.188710,-0.049968,0.206290]
[0.000000,0.000000,0.000000,0.259710,0.201290,-0.227387,0.035032,-0.077935,-0.066452,-0.143065,0.245226,-0.140677,0.228323,0.115129,0.162419,-0.053935,0.189581]
[0.000000,0.000000,0.000000,0.259065,0.203935,-0.231581,0.045548,-0.044903,-0.065677,-0.117097,0.249839,-0.144516,0.232484,0.126194,0.136129,-0.057903,0.172871]
[0.000000,0.000000,0.000000,0.258419,0.206581,-0.235774,0.056065,-0.011871,-0.064903,-0.091129,0.254452,-0.148355,0.236645,0.137258,0.109839,-0.061871,0.156161]
[0.000000,0.000000,0.000000,0.257774,0.209226,-0.239968,0.066581,0.021161,-0.064129,-0.065161,0.259065,-0.152194,0.240806,0.148323,0.083548,-0.065839,0.139452]
[0.000000,0.000000,0.000000,0.257129,0.211871,-0.244161,0.077097,0.054194,-0.063355,-0.039194,0.263677,-0.156032,0.244968,0.159387,0.057258,-0.069806,0.122742]
[0.000000,0.000000,0.000000,0.256484,0.214516,-0.248355,0.087613,0.087226,-0.062581,-0.013226,0.268290,-0.159871,0.249129,0.170452,0.030968,-0.073774,0.106032]
[0.000000,0.000000,0.000000,0.255839,0.217161,-0.252548,0.098129,0.120258,-0.061806,0.012742,0.272903,-0.163710,0.253290,0.181516,0.004677,-0.077742,0.089323]
[0.000000,0.000000,0.000000,0.255194,0.219806,-0.256742,0.108645,0.153290,-0.061032,0.038710,0.277516,-0.167548,0.257452,0.192581,-0.021613,-0.081710,0.072613]
[0.000000,0.000000,0.000000,0.254548,0.222452,-0.260935,0.119161,0.186323,-0.060258,0.064677,0.282129,-0.171387,0.261613,0.203645,-0.047903,-0.085677,0.055903]
[0.000000,0.000000,0.000000,0.253903,0.225097,-0.265129,0.129677,0.219355,-0.059484,0.090645,0.286742,-0.175226,0.265774,0.214710,-0.074194,-0.089645,0.039194]
[0.000000,0.000000,0.000000,0.253258,0.227742,-0.269323,0.140194,0.252387,-0.058710,0.116613,0.291355,-0.179065,0.269935,0.225774,-0.100484,-0.093613,0.022484]
[0.000000,0.000000,0.000000,0.252613,0.230387,-0.273516,0.150710,0.285419,-0.057935,0.142581,0.295968,-0.182903,0.274097,0.236839,-0.126774,-0.097581,0.005774]
[0.000000,0.000000,0.000000,0.251968,0.233032,-0.277710,0.161226,0.318452,-0.057161,0.168548,0.300581,-0.186742,0.278258,0.247903,-0.153065,-0.101548,-0.010935]
[0.000000,0.000000,0.000000,0.251323,0.235677,-0.281903,0.171742,0.351484,-0.056387,0.194516,0.305194,-0.190581,0.282419,0.258968,-0.179355,-0.105516,-0.027645]
[0.000000,0.000000,0.000000,0.250677,0.238323,-0.286097,0.182258,0.384516,-0.055613,0.220484,0.309806,-0.194419,0.286581,0.270032,-0.205645,-0.109484,-0.044355]
