callmecarrot/action_slices/combined_output.txt
[waist_yaw_joint,waist_roll_joint,waist_pitch_joint,left_shoulder_pitch_joint,left_shoulder_roll_joint,left_shoulder_yaw_joint,left_elbow_joint,left_wrist_roll_joint,left_wrist_pitch_joint,left_wrist_yaw_joint,right_shoulder_pitch_joint,right_shoulder_roll_joint,right_shoulder_yaw_joint,right_elbow_joint,right_wrist_roll_joint,right_wrist_pitch_joint,right_wrist_yaw_joint]
[0.000000,0.000000,0.000000,-0.078000,0.000000,0.493000,1.235000,0.626000,-0.137000,-0.083000,0.137000,0.000000,-0.133000,0.881000,-0.557000,-0.034000,-0.008000]
[0.000000,0.000000,0.000000,-0.077448,0.000000,0.492793,1.235000,0.626000,-0.137000,-0.083000,0.137000,0.000000,-0.133000,0.881000,-0.557000,-0.034000,-0.008000]
[0.000000,0.000000,0.000000,-0.076897,0.000000,0.492586,1.235000,0.626000,-0.137000,-0.083000,0.137000,0.000000,-0.133000,0.881000,-0.557000,-0.034000,-0.008000]
[0.000000,0.000000,0.000000,-0.076345,0.000000,0.492379,1.235000,0.626000,-0.137000,-0.083000,0.137000,0.000000,-0.133000,0.881000,-0.557000,-0.034000,-0.008000]
[0.000000,0.000000,0.000000,-0.075793,0.000000,0.492172,1.235000,0.626000,-0.137000,-0.083000,0.137000,0.000000,-0.133000,0.881000,-0.557000,-0.034000,-0.008000]
[0.000000,0.000000,0.000000,-0.075241,0.000000,0.491966,1.235000,0.626000,-0.137000,-0.083000,0.137000,0.000000,-0.133000,0.881000,-0.557000,-0.034000,-0.008000]
[0.000000,0.000000,0.000000,-0.074690,0.000000,0.491759,1.235000,0.626000,-0.137000,-0.083000,0.137000,0.000000,-0.133000,0.881000,-0.557000,-0.034000,-0.008000]
[0.000000,0.000000,0.000000,-0.074138,0.000000,0.491552,1.235000,0.626000,-0.137000,-0.083000,0.137000,0.000000,-0.133000,0.881000,-0.557000,-0.034000,-0.008000]
[0.000000,0.000000,0.000000,-0.073586,0.000000,0.491345,1.235000,0.626000,-0.137000,-0.083000,0.137000,0.000000,-0.133000,0.881000,-0.557000,-0.034000,-0.008000]
[0.000000,0.000000,0.000000,-0.073034,0.000000,0.491138,1.235000,0.626000,-0.137000,-0.083000,0.137000,0.000000,-0.133000,0.881000,-0.557000,-0.034000,-0.008000]
[0.000000,0.000000,0.000000,-0.072483,0.000000,0.490931,1.235000,0.626000,-0.137000,-0.083000,0.137000,0.000000,-0.133000,0.881000,-0.557000,-0.034000,-0.008000]
[0.000000,0.000000,0.000000,-0.071931,0.000000,0.490724,1.235000,0.626000,-0.137000,-0.083000,0.137000,0.000000,-0.133000,0.881000,-0.557000,-0.034000,-0.008000]
[0.000000,0.000000,0.000000,-0.071379,0.000000,0.490517,1.235000,0.626000,-0.137000,-0.083000,0.137000,0.000000,-0.133000,0.881000,-0.557000,-0.034000,-0.008000]
[0.000000,0.000000,0.000000,-0.070828,0.000000,0.490310,1.235000,0.626000,-0.137000,-0.083000,0.137000,0.000000,-0.133000,0.881000,-0.557000,-0.034000,-0.008000]
[0.000000,0.000000,0.000000,-0.070276,0.000000,0.490103,1.235000,0.626000,-0.137000,-0.083000,0.137000,0.000000,-0.133000,0.881000,-0.557000,-0.034000,-0.008000]
[0.000000,0.000000,0.000000,-0.070276,0.000000,0.490103,1.235000,0.626000,-0.137000,-0.083000,0.137000,0.000000,-0.133000,0.881000,-0.557000,-0.034000,-0.008000]
[0.000000,0.000000,0.000000,-0.070828,0.000000,0.490310,1.235000,0.626000,-0.137000,-0.083000,0.137000,0.000000,-0.133000,0.881000,-0.557000,-0.034000,-0.008000]
[0.000000,0.000000,0.000000,-0.071379,0.000000,0.490517,1.235000,0.626000,-0.137000,-0.083000,0.137000,0.000000,-0.133000,0.881000,-0.557000,-0.034000,-0.008000]
[0.000000,0.000000,0.000000,-0.071931,0.000000,0.490724,1.235000,0.626000,-0.137000,-0.083000,0.137000,0.000000,-0.133000,0.881000,-0.557000,-0.034000,-0.008000]
[0.000000,0.000000,0.000000,-0.072483,0.000000,0.490931,1.235000,0.626000,-0.137000,-0.083000,0.137000,0.000000,-0.133000,0.881000,-0.557000,-0.034000,-0.008000]
[0.000000,0.000000,0.000000,-0.073034,0.000000,0.491138,1.235000,0.626000,-0.137000,-0.083000,0.137000,0.000000,-0.133000,0.881000,-0.557000,-0.034000,-0.008000]
[0.000000,0.000000,0.000000,-0.073586,0.000000,0.491345,1.235000,0.626000,-0.137000,-0.083000,0.137000,0.000000,-0.133000,0.881000,-0.557000,-0.034000,-0.008000]
[0.000000,0.000000,0.000000,-0.074138,0.000000,0.491552,1.235000,0.626000,-0.137000,-0.083000,0.137000,0.000000,-0.133000,0.881000,-0.557000,-0.034000,-0.008000]
[0.000000,0.000000,0.000000,-0.074690,0.000000,0.491759,1.235000,0.626000,-0.137000,-0.083000,0.137000,0.000000,-0.133000,0.881000,-0.557000,-0.034000,-0.008000]
[0.000000,0.000000,0.000000,-0.075241,0.000000,0.491966,1.235000,0.626000,-0.137000,-0.083000,0.137000,0.000000,-0.133000,0.881000,-0.557000,-0.034000,-0.008000]
[0.000000,0.000000,0.000000,-0.075793,0.000000,0.492172,1.235000,0.626000,-0.137000,-0.083000,0.137000,0.000000,-0.133000,0.881000,-0.557000,-0.034000,-0.008000]
[0.000000,0.000000,0.000000,-0.076345,0.000000,0.492379,1.235000,0.626000,-0.137000,-0.083000,0.137000,0.000000,-0.133000,0.881000,-0.557000,-0.034000,-0.008000]
[0.000000,0.000000,0.000000,-0.076897,0.000000,0.492586,1.235000,0.626000,-0.137000,-0.083000,0.137000,0.000000,-0.133000,0.881000,-0.557000,-0.034000,-0.008000]
[0.000000,0.000000,0.000000,-0.077448,0.000000,0.492793,1.235000,0.626000,-0.137000,-0.083000,0.137000,0.000000,-0.133000,0.881000,-0.557000,-0.034000,-0.008000]
[0.000000,0.000000,0.000000,-0.078000,0.000000,0.493000,1.235000,0.626000,-0.137000,-0.083000,0.137000,0.000000,-0.133000,0.881000,-0.557000,-0.034000,-0.008000]
[0.000000,0.000000,0.000000,-0.066968,0.005419,0.471258,1.194548,0.601613,-0.134194,-0.086226,0.140065,-0.005161,-0.121516,0.853613,-0.531774,-0.033226,-0.001000]
[0.000000,0.000000,0.000000,-0.055935,0.010839,0.449516,1.154097,0.577226,-0.131387,-0.089452,0.143129,-0.010323,-0.110032,0.826226,-0.506548,-0.032452,0.006000]
[0.000000,0.000000,0.000000,-0.044903,0.016258,0.427774,1.113645,0.552839,-0.128581,-0.092677,0.146194,-0.015484,-0.098548,0.798839,-0.481323,-0.031677,0.013000]
[0.000000,0.000000,0.000000,-0.033871,0.021677,0.406032,1.073194,0.528452,-0.125774,-0.095903,0.149258,-0.020645,-0.087065,0.771452,-0.456097,-0.030903,0.020000]
[0.000000,0.000000,0.000000,-0.022839,0.027097,0.384290,1.032742,0.504065,-0.122968,-0.099129,0.152323,-0.025806,-0.075581,0.744065,-0.430871,-0.030129,0.027000]
[0.000000,0.000000,0.000000,-0.011806,0.032516,0.362548,0.992290,0.479677,-0.120161,-0.102355,0.155387,-0.030968,-0.064097,0.716677,-0.405645,-0.029355,0.034000]
[0.000000,0.000000,0.000000,-0.000774,0.037935,0.340806,0.951839,0.455290,-0.117355,-0.105581,0.158452,-0.036129,-0.052613,0.689290,-0.380419,-0.028581,0.041000]
[0.000000,0.000000,0.000000,0.010258,0.043355,0.319065,0.911387,0.430903,-0.114548,-0.108806,0.161516,-0.041290,-0.041129,0.661903,-0.355194,-0.027806,0.048000]
[0.000000,0.000000,0.000000,0.021290,0.048774,0.297323,0.870935,0.406516,-0.111742,-0.112032,0.164581,-0.046452,-0.029645,0.634516,-0.329968,-0.027032,0.055000]
[0.000000,0.000000,0.000000,0.032323,0.054194,0.275581,0.830484,0.382129,-0.108935,-0.115258,0.167645,-0.051613,-0.018161,0.607129,-0.304742,-0.026258,0.062000]
[0.000000,0.000000,0.000000,0.043355,0.059613,0.253839,0.790032,0.357742,-0.106129,-0.118484,0.170710,-0.056774,-0.006677,0.579742,-0.279516,-0.025484,0.069000]
[0.000000,0.000000,0.000000,0.054387,0.065032,0.232097,0.749581,0.333355,-0.103323,-0.121710,0.173774,-0.061935,0.004806,0.552355,-0.254290,-0.024710,0.076000]
[0.000000,0.000000,0.000000,0.065419,0.070452,0.210355,0.709129,0.308968,-0.100516,-0.124935,0.176839,-0.067097,0.016290,0.524968,-0.229065,-0.023935,0.083000]
[0.000000,0.000000,0.000000,0.076452,0.075871,0.188613,0.668677,0.284581,-0.097710,-0.128161,0.179903,-0.072258,0.027774,0.497581,-0.203839,-0.023161,0.090000]
[0.000000,0.000000,0.000000,0.087484,0.081290,0.166871,0.628226,0.260194,-0.094903,-0.131387,0.182968,-0.077419,0.039258,0.470194,-0.178613,-0.022387,0.097000]
[0.000000,0.000000,0.000000,0.098516,0.086710,0.145129,0.587774,0.235806,-0.092097,-0.134613,0.186032,-0.082581,0.050742,0.442806,-0.153387,-0.021613,0.104000]
[0.000000,0.000000,0.000000,0.109548,0.092129,0.123387,0.547323,0.211419,-0.089290,-0.137839,0.189097,-0.087742,0.062226,0.415419,-0.128161,-0.020839,0.111000]
[0.000000,0.000000,0.000000,0.120581,0.097548,0.101645,0.506871,0.187032,-0.086484,-0.141065,0.192161,-0.092903,0.073710,0.388032,-0.102935,-0.020065,0.118000]
[0.000000,0.000000,0.000000,0.131613,0.102968,0.079903,0.466419,0.162645,-0.083677,-0.144290,0.195226,-0.098065,0.085194,0.360645,-0.077710,-0.019290,0.125000]
[0.000000,0.000000,0.000000,0.142645,0.108387,0.058161,0.425968,0.138258,-0.080871,-0.147516,0.198290,-0.103226,0.096677,0.333258,-0.052484,-0.018516,0.132000]
[0.000000,0.000000,0.000000,0.153677,0.113806,0.036419,0.385516,0.113871,-0.078065,-0.150742,0.201355,-0.108387,0.108161,0.305871,-0.027258,-0.017742,0.139000]
[0.000000,0.000000,0.000000,0.164710,0.119226,0.014677,0.345065,0.089484,-0.075258,-0.153968,0.204419,-0.113548,0.119645,0.278484,-0.002032,-0.016968,0.146000]
[0.000000,0.000000,0.000000,0.175742,0.124645,-0.007065,0.304613,0.065097,-0.072452,-0.157194,0.207484,-0.118710,0.131129,0.251097,0.023194,-0.016194,0.153000]
[0.000000,0.000000,0.000000,0.186774,0.130065,-0.028806,0.264161,0.040710,-0.069645,-0.160419,0.210548,-0.123871,0.142613,0.223710,0.048419,-0.015419,0.160000]
[0.000000,0.000000,0.000000,0.197806,0.135484,-0.050548,0.223710,0.016323,-0.066839,-0.163645,0.213613,-0.129032,0.154097,0.196323,0.073645,-0.014645,0.167000]
[0.000000,0.000000,0.000000,0.208839,0.140903,-0.072290,0.183258,-0.008065,-0.064032,-0.166871,0.216677,-0.134194,0.165581,0.168935,0.098871,-0.013871,0.174000]
[0.000000,0.000000,0.000000,0.219871,0.146323,-0.094032,0.142806,-0.032452,-0.061226,-0.170097,0.219742,-0.139355,0.177065,0.141548,0.124097,-0.013097,0.181000]
[0.000000,0.000000,0.000000,0.230903,0.151742,-0.115774,0.102355,-0.056839,-0.058419,-0.173323,0.222806,-0.144516,0.188548,0.114161,0.149323,-0.012323,0.188000]
[0.000000,0.000000,0.000000,0.241935,0.157161,-0.137516,0.061903,-0.081226,-0.055613,-0.176548,0.225871,-0.149677,0.200032,0.086774,0.174548,-0.011548,0.195000]
[0.000000,0.000000,0.000000,0.252968,0.162581,-0.159258,0.021452,-0.105613,-0.052806,-0.179774,0.228935,-0.154839,0.211516,0.059387,0.199774,-0.010774,0.202000]
[0.000000,0.000000,0.000000,0.264000,0.168000,-0.181000,-0.019000,-0.130000,-0.050000,-0.183000,0.232000,-0.160000,0.223000,0.032000,0.225000,-0.010000,0.209000]
[0.000000,0.000000,0.000000,0.264027,0.168000,-0.180634,-0.019529,-0.129834,-0.048812,-0.182848,0.232018,-0.160018,0.223359,0.032753,0.224825,-0.011477,0.209438]
[0.000000,0.000000,0.000000,0.264000,0.168000,-0.181000,-0.020000,-0.130000,-0.048000,-0.183000,0.232000,-0.160000,0.223000,0.034000,0.225000,-0.013000,0.210000]
[0.000000,0.000000,0.000000,0.263973,0.168000,-0.181616,-0.020471,-0.130416,-0.047188,-0.183152,0.231982,-0.159982,0.222391,0.035497,0.225175,-0.014523,0.210562]
[0.000000,0.000000,0.000000,0.264000,0.168000,-0.182000,-0.021000,-0.131000,-0.046000,-0.183000,0.232000,-0.160000,0.222000,0.037000,0.225000,-0.016000,0.211000]
[0.000000,0.000000,0.000000,0.264080,0.168000,-0.181903,-0.021588,-0.131628,-0.044312,-0.182419,0.232053,-0.160054,0.222078,0.038384,0.224224,-0.017431,0.211315]
[0.000000,0.000000,0.000000,0.264000,0.168000,-0.182000,-0.022000,-0.132000,-0.043000,-0.182000,0.232000,-0.160000,0.222000,0.040000,0.223000,-0.019000,0.212000]
[0.000000,0.000000,0.000000,0.263580,0.168000,-0.182899,-0.022051,-0.131948,-0.042814,-0.182296,0.231680,-0.159678,0.221173,0.042216,0.221554,-0.020878,0.213430]
[0.000000,0.000000,0.000000,0.263000,0.168000,-0.184000,-0.022000,-0.132000,-0.043000,-0.183000,0.231000,-0.159000,0.220000,0.045000,0.220000,-0.023000,0.215000]
[0.000000,0.000000,0.000000,0.262474,0.167999,-0.184627,-0.022083,-0.132578,-0.042682,-0.183646,0.229978,-0.157986,0.218981,0.048125,0.218435,-0.025182,0.216091]
[0.000000,0.000000,0.000000,0.262000,0.168000,-0.185000,-0.022000,-0.133000,-0.042000,-0.184000,0.229000,-0.157000,0.218000,0.051000,0.217000,-0.027000,0.217000]
[0.000000,0.000000,0.000000,0.261525,0.168002,-0.185467,-0.021491,-0.132613,-0.041335,-0.183993,0.228407,-0.156380,0.216902,0.053159,0.215831,-0.028144,0.218079]
[0.000000,0.000000,0.000000,0.261000,0.168000,-0.186000,-0.021000,-0.132000,-0.041000,-0.184000,0.228000,-0.156000,0.216000,0.055000,0.215000,-0.029000,0.219000]
[0.000000,0.000000,0.000000,0.260426,0.167993,-0.186504,-0.020951,-0.131845,-0.041105,-0.184381,0.227520,-0.155620,0.215534,0.056991,0.214493,-0.029990,0.219466]
[0.000000,0.000000,0.000000,0.260000,0.168000,-0.187000,-0.021000,-0.132000,-0.041000,-0.185000,0.227000,-0.155000,0.215000,0.059000,0.214000,-0.031000,0.220000]
[0.000000,0.000000,0.000000,0.259894,0.168027,-0.187517,-0.020703,-0.132133,-0.040245,-0.185607,0.226514,-0.154015,0.213962,0.060753,0.213324,-0.031769,0.221058]
[0.000000,0.000000,0.000000,0.260000,0.168000,-0.188000,-0.020000,-0.132000,-0.040000,-0.186000,0.226000,-0.153000,0.213000,0.062000,0.213000,-0.032000,0.222000]
[0.000000,0.000000,0.000000,0.260122,0.167897,-0.188427,-0.018986,-0.131496,-0.041289,-0.186066,0.225423,-0.152322,0.212742,0.062620,0.213460,-0.031559,0.222177]
[0.000000,0.000000,0.000000,0.260000,0.168000,-0.189000,-0.018000,-0.131000,-0.043000,-0.186000,0.225000,-0.152000,0.213000,0.063000,0.214000,-0.031000,0.222000]
[0.000000,0.000000,0.000000,0.259494,0.168508,-0.189900,-0.017354,-0.130881,-0.043849,-0.186004,0.224920,-0.151949,0.213443,0.063515,0.213959,-0.030871,0.221983]
[0.000000,0.000000,0.000000,0.259000,0.169000,-0.191000,-0.017000,-0.131000,-0.044000,-0.186000,0.225000,-0.152000,0.214000,0.064000,0.214000,-0.031000,0.222000]
[0.000000,0.000000,0.000000,0.258901,0.169072,-0.192099,-0.016724,-0.131105,-0.043941,-0.185919,0.225023,-0.152009,0.214610,0.064194,0.214828,-0.031081,0.221891]
[0.000000,0.000000,0.000000,0.259000,0.169000,-0.193000,-0.016000,-0.131000,-0.044000,-0.186000,0.225000,-0.152000,0.215000,0.064000,0.216000,-0.031000,0.222000]
[0.000000,0.000000,0.000000,0.259027,0.169081,-0.193581,-0.014501,-0.130574,-0.044389,-0.186446,0.224987,-0.152017,0.214991,0.063457,0.216980,-0.030679,0.222578]
[0.000000,0.000000,0.000000,0.259000,0.169000,-0.194000,-0.013000,-0.130000,-0.045000,-0.187000,0.225000,-0.152000,0.215000,0.063000,0.218000,-0.030000,0.223000]
[0.000000,0.000000,0.000000,0.258993,0.168481,-0.194454,-0.012273,-0.129474,-0.045630,-0.187421,0.225028,-0.151922,0.215427,0.062978,0.219378,-0.028954,0.222673]
[0.000000,0.000000,0.000000,0.259000,0.168000,-0.195000,-0.012000,-0.129000,-0.046000,-0.188000,0.225000,-0.152000,0.216000,0.063000,0.221000,-0.028000,0.222000]
[0.000000,0.000000,0.000000,0.259002,0.167996,-0.195604,-0.011656,-0.128532,-0.045966,-0.188995,0.224899,-0.152418,0.216426,0.062633,0.222632,-0.027505,0.221481]
[0.000000,0.000000,0.000000,0.259000,0.168000,-0.196000,-0.011000,-0.128000,-0.046000,-0.190000,0.225000,-0.153000,0.217000,0.062000,0.224000,-0.027000,0.221000]
[0.000000,0.000000,0.000000,0.258998,0.167535,-0.196004,-0.009979,-0.127400,-0.046507,-0.190600,0.225500,-0.153529,0.217993,0.061366,0.224970,-0.026025,0.220405]
[0.000000,0.000000,0.000000,0.259000,0.167000,-0.196000,-0.009000,-0.127000,-0.047000,-0.191000,0.226000,-0.154000,0.219000,0.061000,0.226000,-0.025000,0.220000]
[0.000000,0.000000,0.000000,0.259007,0.166865,-0.196381,-0.008430,-0.126993,-0.047005,-0.191480,0.226102,-0.154465,0.219601,0.061027,0.227488,-0.024395,0.220025]
[0.000000,0.000000,0.000000,0.259000,0.167000,-0.197000,-0.008000,-0.127000,-0.047000,-0.192000,0.226000,-0.155000,0.220000,0.061000,0.229000,-0.024000,0.220000]
[0.000000,0.000000,0.000000,0.258973,0.167129,-0.197599,-0.007427,-0.126629,-0.047474,-0.192481,0.225966,-0.155610,0.220480,0.060526,0.230077,-0.023522,0.219493]
[0.000000,0.000000,0.000000,0.259000,0.167000,-0.198000,-0.007000,-0.126000,-0.048000,-0.193000,0.226000,-0.156000,0.221000,0.060000,0.231000,-0.023000,0.219000]
[0.000000,0.000000,0.000000,0.259100,0.166493,-0.198098,-0.006986,-0.125365,-0.048101,-0.193596,0.226034,-0.155971,0.221481,0.059868,0.232080,-0.022519,0.219001]
[0.000000,0.000000,0.000000,0.259000,0.166000,-0.198000,-0.007000,-0.125000,-0.048000,-0.194000,0.226000,-0.156000,0.222000,0.060000,0.233000,-0.022000,0.219000]
[0.000000,0.000000,0.000000,0.258500,0.165900,-0.197882,-0.006629,-0.125036,-0.047998,-0.194008,0.225898,-0.156508,0.222596,0.060127,0.233479,-0.021404,0.218502]
[0.000000,0.000000,0.000000,0.258000,0.166000,-0.198000,-0.006000,-0.125000,-0.048000,-0.194000,0.226000,-0.157000,0.223000,0.060000,0.234000,-0.021000,0.218000]
[0.000000,0.000000,0.000000,0.257900,0.166034,-0.198498,-0.005373,-0.124492,-0.047907,-0.194371,0.226501,-0.156999,0.223008,0.059500,0.235004,-0.020992,0.217990]
[0.000000,0.000000,0.000000,0.258000,0.166000,-0.199000,-0.005000,-0.124000,-0.048000,-0.195000,0.227000,-0.157000,0.223000,0.059000,0.236000,-0.021000,0.218000]
[0.000000,0.000000,0.000000,0.258027,0.165966,-0.199126,-0.005002,-0.123995,-0.048500,-0.195633,0.227100,-0.157498,0.223371,0.058874,0.236506,-0.020629,0.217536]
[0.000000,0.000000,0.000000,0.258000,0.166000,-0.199000,-0.005000,-0.124000,-0.049000,-0.196000,0.227000,-0.158000,0.224000,0.059000,0.237000,-0.020000,0.217000]
[0.000000,0.000000,0.000000,0.257993,0.166102,-0.198873,-0.004618,-0.123526,-0.049094,-0.195974,0.226973,-0.158010,0.224633,0.059128,0.237971,-0.019368,0.216865]
[0.000000,0.000000,0.000000,0.258000,0.166000,-0.199000,-0.004000,-0.123000,-0.049000,-0.196000,0.227000,-0.158000,0.225000,0.059000,0.239000,-0.019000,0.217000]
[0.000000,0.000000,0.000000,0.258002,0.165500,-0.199507,-0.003402,-0.122899,-0.049000,-0.196473,0.227007,-0.158464,0.224974,0.058490,0.239609,-0.019025,0.217128]
[0.000000,0.000000,0.000000,0.258000,0.165000,-0.200000,-0.003000,-0.123000,-0.049000,-0.197000,0.227000,-0.159000,0.225000,0.058000,0.240000,-0.019000,0.217000]
[0.000000,0.000000,0.000000,0.257999,0.164899,-0.200100,-0.002901,-0.123002,-0.048908,-0.197133,0.227000,-0.159136,0.225472,0.057911,0.240469,-0.018532,0.216498]
[0.000000,0.000000,0.000000,0.258000,0.165000,-0.200000,-0.003000,-0.123000,-0.049000,-0.197000,0.227000,-0.159000,0.226000,0.058000,0.241000,-0.018000,0.216000]
[0.000000,0.000000,0.000000,0.258000,0.165028,-0.199970,-0.003121,-0.123093,-0.049494,-0.196869,0.226993,-0.158869,0.226138,0.057990,0.241517,-0.017848,0.215881]
[0.000000,0.000000,0.000000,0.258000,0.165000,-0.200000,-0.003000,-0.123000,-0.050000,-0.197000,0.227000,-0.159000,0.226000,0.058000,0.242000,-0.018000,0.216000]
[0.000000,0.000000,0.000000,0.257999,0.164990,-0.200022,-0.002490,-0.122501,-0.050117,-0.197514,0.227027,-0.159513,0.225852,0.058130,0.242463,-0.018202,0.216105]
[0.000000,0.000000,0.000000,0.258000,0.165000,-0.200000,-0.002000,-0.122000,-0.050000,-0.198000,0.227000,-0.160000,0.226000,0.058000,0.243000,-0.018000,0.216000]
[0.000000,0.000000,0.000000,0.258004,0.165014,-0.199942,-0.001917,-0.121905,-0.049914,-0.198073,0.226899,-0.160079,0.226579,0.057366,0.243630,-0.017221,0.215701]
[0.000000,0.000000,0.000000,0.258000,0.165000,-0.200000,-0.002000,-0.122000,-0.050000,-0.198000,0.227000,-0.160000,0.227000,0.057000,0.244000,-0.017000,0.216000]
[0.000000,0.000000,0.000000,0.257985,0.164955,-0.200333,-0.001966,-0.122006,-0.050228,-0.198068,0.227501,-0.160046,0.226707,0.057654,0.243766,-0.018290,0.217468]
[0.000000,0.000000,0.000000,0.258000,0.165000,-0.201000,-0.002000,-0.122000,-0.050000,-0.198000,0.228000,-0.160000,0.226000,0.059000,0.243000,-0.020000,0.219000]
[0.000000,0.000000,0.000000,0.258054,0.165290,-0.201975,-0.002343,-0.122198,-0.048800,-0.197528,0.228099,-0.159613,0.225344,0.060516,0.241933,-0.020992,0.219428]
[0.000000,0.000000,0.000000,0.258000,0.166000,-0.203000,-0.003000,-0.123000,-0.047000,-0.197000,0.228000,-0.159000,0.225000,0.062000,0.241000,-0.022000,0.219000]
[0.000000,0.000000,0.000000,0.257672,0.167261,-0.203892,-0.003912,-0.124701,-0.045071,-0.196694,0.227980,-0.158376,0.225042,0.063408,0.240504,-0.023865,0.218319]
[0.000000,0.000000,0.000000,0.257000,0.169000,-0.205000,-0.005000,-0.127000,-0.043000,-0.196000,0.228000,-0.158000,0.225000,0.065000,0.240000,-0.026000,0.218000]
[0.000000,0.000000,0.000000,0.256007,0.171040,-0.206580,-0.006135,-0.129496,-0.040791,-0.194447,0.227980,-0.158007,0.224489,0.066979,0.239051,-0.027673,0.218421]
[0.000000,0.000000,0.000000,0.255000,0.173000,-0.208000,-0.007000,-0.132000,-0.039000,-0.193000,0.228000,-0.158000,0.224000,0.069000,0.238000,-0.029000,0.219000]
[0.000000,0.000000,0.000000,0.254299,0.174577,-0.208662,-0.007299,-0.134315,-0.038140,-0.192644,0.228099,-0.157597,0.224003,0.070677,0.237293,-0.030191,0.219123]
[0.000000,0.000000,0.000000,0.254000,0.176000,-0.209000,-0.007000,-0.136000,-0.038000,-0.193000,0.228000,-0.157000,0.224000,0.072000,0.237000,-0.031000,0.219000]
[0.000000,0.000000,0.000000,0.254046,0.177527,-0.209523,-0.006171,-0.136743,-0.038272,-0.193477,0.227500,-0.156481,0.223499,0.073061,0.237027,-0.031186,0.218962]
[0.000000,0.000000,0.000000,0.254000,0.179000,-0.210000,-0.005000,-0.137000,-0.039000,-0.194000,0.227000,-0.156000,0.223000,0.074000,0.237000,-0.031000,0.219000]
[0.000000,0.000000,0.000000,0.253516,0.180192,-0.210121,-0.003769,-0.137340,-0.040146,-0.194573,0.226901,-0.155480,0.223000,0.074952,0.236599,-0.030815,0.219029]
[0.000000,0.000000,0.000000,0.253000,0.181000,-0.210000,-0.003000,-0.138000,-0.041000,-0.195000,0.227000,-0.155000,0.223000,0.076000,0.236000,-0.031000,0.219000]
[0.000000,0.000000,0.000000,0.252888,0.181456,-0.209867,-0.003002,-0.139024,-0.041020,-0.195107,0.227019,-0.154598,0.222502,0.077130,0.235453,-0.031679,0.218922]
[0.000000,0.000000,0.000000,0.253000,0.182000,-0.210000,-0.003000,-0.140000,-0.041000,-0.195000,0.227000,-0.154000,0.222000,0.078000,0.235000,-0.032000,0.219000]
[0.000000,0.000000,0.000000,0.253055,0.182984,-0.210535,-0.002221,-0.140563,-0.041774,-0.194876,0.227021,-0.153001,0.221992,0.078403,0.234588,-0.031345,0.219409]
[0.000000,0.000000,0.000000,0.253000,0.184000,-0.211000,-0.001000,-0.141000,-0.043000,-0.195000,0.227000,-0.152000,0.222000,0.079000,0.234000,-0.031000,0.220000]
[0.000000,0.000000,0.000000,0.252891,0.184607,-0.210994,0.000138,-0.141599,-0.044134,-0.195514,0.226896,-0.151397,0.221530,0.080384,0.233070,-0.032193,0.220568]
[0.000000,0.000000,0.000000,0.253000,0.185000,-0.211000,0.001000,-0.142000,-0.045000,-0.196000,0.227000,-0.151000,0.221000,0.082000,0.232000,-0.034000,0.221000]
[0.000000,0.000000,0.000000,0.253504,0.185463,-0.211491,0.001545,-0.141915,-0.045564,-0.196067,0.227521,-0.150534,0.220890,0.083186,0.231006,-0.035258,0.221193]
[0.000000,0.000000,0.000000,0.254000,0.186000,-0.212000,0.002000,-0.142000,-0.046000,-0.196000,0.228000,-0.150000,0.221000,0.084000,0.230000,-0.036000,0.221000]
[0.000000,0.000000,0.000000,0.254092,0.186540,-0.212043,0.002558,-0.142867,-0.046486,-0.196094,0.228019,-0.149466,0.221037,0.084620,0.228906,-0.036525,0.220408]
[0.000000,0.000000,0.000000,0.254000,0.187000,-0.212000,0.003000,-0.144000,-0.047000,-0.196000,0.228000,-0.149000,0.221000,0.085000,0.228000,-0.037000,0.220000]
[0.000000,0.000000,0.000000,0.254002,0.187378,-0.212338,0.003224,-0.144741,-0.047619,-0.195434,0.228401,-0.148603,0.220964,0.085083,0.227494,-0.037518,0.220299]
[0.000000,0.000000,0.000000,0.254000,0.188000,-0.213000,0.004000,-0.145000,-0.049000,-0.195000,0.229000,-0.148000,0.221000,0.085000,0.227000,-0.038000,0.221000]
[0.000000,0.000000,0.000000,0.253899,0.189072,-0.213729,0.005920,-0.144918,-0.051538,-0.195297,0.229502,-0.146998,0.221108,0.084922,0.226119,-0.038403,0.221645]
[0.000000,0.000000,0.000000,0.254000,0.190000,-0.214000,0.008000,-0.145000,-0.054000,-0.196000,0.230000,-0.146000,0.221000,0.085000,0.225000,-0.039000,0.222000]
[0.000000,0.000000,0.000000,0.254527,0.190208,-0.213497,0.009219,-0.145588,-0.055230,-0.196628,0.230591,-0.145405,0.220480,0.085353,0.223906,-0.039994,0.221995]
[0.000000,0.000000,0.000000,0.255000,0.190000,-0.213000,0.010000,-0.146000,-0.056000,-0.197000,0.231000,-0.145000,0.220000,0.086000,0.223000,-0.041000,0.222000]
[0.000000,0.000000,0.000000,0.254995,0.189844,-0.213282,0.010952,-0.145604,-0.057292,-0.197066,0.231007,-0.144508,0.219973,0.086915,0.222382,-0.041619,0.222374]
[0.000000,0.000000,0.000000,0.255000,0.190000,-0.214000,0.012000,-0.145000,-0.059000,-0.197000,0.231000,-0.144000,0.220000,0.088000,0.222000,-0.042000,0.223000]
[0.000000,0.000000,0.000000,0.255495,0.190539,-0.214625,0.012974,-0.144870,-0.060727,-0.196982,0.231380,-0.143564,0.219627,0.089111,0.221692,-0.042404,0.223632]
[0.000000,0.000000,0.000000,0.256000,0.191000,-0.215000,0.014000,-0.145000,-0.062000,-0.197000,0.232000,-0.143000,0.219000,0.090000,0.221000,-0.043000,0.224000]
[0.000000,0.000000,0.000000,0.256027,0.190998,-0.215093,0.015154,-0.145040,-0.062549,-0.197005,0.232599,-0.142110,0.218392,0.090514,0.219599,-0.043891,0.223972]
[0.000000,0.000000,0.000000,0.256000,0.191000,-0.215000,0.016000,-0.145000,-0.063000,-0.197000,0.233000,-0.141000,0.218000,0.091000,0.218000,-0.045000,0.224000]
[0.000000,0.000000,0.000000,0.256399,0.191468,-0.214877,0.016160,-0.144971,-0.063952,-0.196997,0.233101,-0.139872,0.217930,0.091832,0.216788,-0.046158,0.224479]
[0.000000,0.000000,0.000000,0.257000,0.192000,-0.215000,0.016000,-0.145000,-0.065000,-0.197000,0.233000,-0.139000,0.218000,0.093000,0.216000,-0.047000,0.225000]
[0.000000,0.000000,0.000000,0.257502,0.192129,-0.215524,0.015956,-0.145076,-0.065644,-0.197008,0.232873,-0.138529,0.218014,0.094284,0.215499,-0.047229,0.225111]
[0.000000,0.000000,0.000000,0.258000,0.192000,-0.216000,0.016000,-0.145000,-0.066000,-0.197000,0.233000,-0.138000,0.218000,0.095000,0.215000,-0.047000,0.225000]
[0.000000,0.000000,0.000000,0.258592,0.191892,-0.216026,0.016017,-0.144601,-0.066348,-0.196973,0.233532,-0.137014,0.218015,0.094658,0.214340,-0.046553,0.224951]
[0.000000,0.000000,0.000000,0.259000,0.192000,-0.216000,0.016000,-0.144000,-0.067000,-0.197000,0.234000,-0.136000,0.218000,0.094000,0.214000,-0.046000,0.225000]
[0.000000,0.000000,0.000000,0.259006,0.192428,-0.216371,0.015977,-0.143397,-0.068090,-0.197102,0.233997,-0.135417,0.217926,0.093836,0.214390,-0.045434,0.225083]
[0.000000,0.000000,0.000000,0.259000,0.193000,-0.217000,0.016000,-0.143000,-0.069000,-0.197000,0.234000,-0.135000,0.218000,0.094000,0.215000,-0.045000,0.225000]
[0.000000,0.000000,0.000000,0.259385,0.193520,-0.217615,0.016074,-0.142937,-0.069169,-0.196495,0.234478,-0.134443,0.218407,0.094124,0.215223,-0.044836,0.224591]
[0.000000,0.000000,0.000000,0.260000,0.194000,-0.218000,0.016000,-0.143000,-0.069000,-0.196000,0.235000,-0.134000,0.219000,0.094000,0.215000,-0.045000,0.224000]
[0.000000,0.000000,0.000000,0.260580,0.194493,-0.218045,0.015600,-0.142979,-0.068985,-0.195918,0.235091,-0.133936,0.219573,0.093542,0.214467,-0.045471,0.223428]
[0.000000,0.000000,0.000000,0.261000,0.195000,-0.218000,0.015000,-0.143000,-0.069000,-0.196000,0.235000,-0.134000,0.220000,0.093000,0.214000,-0.046000,0.223000]
[0.000000,0.000000,0.000000,0.261170,0.195507,-0.218205,0.014400,-0.143271,-0.068765,-0.195832,0.235159,-0.133814,0.220177,0.092708,0.214033,-0.046279,0.222822]
[0.000000,0.000000,0.000000,0.261000,0.196000,-0.219000,0.014000,-0.144000,-0.068000,-0.195000,0.236000,-0.133000,0.220000,0.093000,0.215000,-0.046000,0.223000]
[0.0,0.000000,0.000000,0.256032,0.191806,-0.223194,0.024581,-0.108097,-0.061355,-0.178677,0.235484,-0.134129,0.224161,0.097032,0.181000,-0.038484,0.208226]
[-0.01,0.000000,0.000000,0.251065,0.187613,-0.227387,0.035161,-0.072194,-0.054710,-0.162355,0.234968,-0.135258,0.228323,0.101065,0.147000,-0.030968,0.193452]
[-0.02,0.000000,0.000000,0.246097,0.183419,-0.231581,0.045742,-0.036290,-0.048065,-0.146032,0.234452,-0.136387,0.232484,0.105097,0.113000,-0.023452,0.178677]
[-0.03,0.000000,0.000000,0.241129,0.179226,-0.235774,0.056323,-0.000387,-0.041419,-0.129710,0.233935,-0.137516,0.236645,0.109129,0.079000,-0.015935,0.163903]
[-0.04,0.000000,0.000000,0.236161,0.175032,-0.239968,0.066903,0.035516,-0.034774,-0.113387,0.233419,-0.138645,0.240806,0.113161,0.045000,-0.008419,0.149129]
[-0.049999999999999996,0.000000,0.000000,0.231194,0.170839,-0.244161,0.077484,0.071419,-0.028129,-0.097065,0.232903,-0.139774,0.244968,0.117194,0.011000,-0.000903,0.134355]
[-0.06,0.000000,0.000000,0.226226,0.166645,-0.248355,0.088065,0.107323,-0.021484,-0.080742,0.232387,-0.140903,0.249129,0.121226,-0.023000,0.006613,0.119581]
[-0.06999999999999999,0.000000,0.000000,0.221258,0.162452,-0.252548,0.098645,0.143226,-0.014839,-0.064419,0.231871,-0.142032,0.253290,0.125258,-0.057000,0.014129,0.104806]
[-0.08,0.000000,0.000000,0.216290,0.158258,-0.256742,0.109226,0.179129,-0.008194,-0.048097,0.231355,-0.143161,0.257452,0.129290,-0.091000,0.021645,0.090032]
[-0.09,0.000000,0.000000,0.211323,0.154065,-0.260935,0.119806,0.215032,-0.001548,-0.031774,0.230839,-0.144290,0.261613,0.133323,-0.125000,0.029161,0.075258]
[-0.09999999999999999,0.000000,0.000000,0.206355,0.149871,-0.265129,0.130387,0.250935,0.005097,-0.015452,0.230323,-0.145419,0.265774,0.137355,-0.159000,0.036677,0.060484]
[-0.10999999999999999,0.000000,0.000000,0.201387,0.145677,-0.269323,0.140968,0.286839,0.011742,0.000871,0.229806,-0.146548,0.269935,0.141387,-0.193000,0.044194,0.045710]
[-0.12,0.000000,0.000000,0.196419,0.141484,-0.273516,0.151548,0.322742,0.018387,0.017194,0.229290,-0.147677,0.274097,0.145419,-0.227000,0.051710,0.030935]
[-0.13,0.000000,0.000000,0.191452,0.137290,-0.277710,0.162129,0.358645,0.025032,0.033516,0.228774,-0.148806,0.278258,0.149452,-0.261000,0.059226,0.016161]
[-0.13999999999999999,0.000000,0.000000,0.186484,0.133097,-0.281903,0.172710,0.394548,0.031677,0.049839,0.228258,-0.149935,0.282419,0.153484,-0.295000,0.066742,0.001387]
[-0.15,0.000000,0.000000,0.181516,0.128903,-0.286097,0.183290,0.430452,0.038323,0.066161,0.227742,-0.151065,0.286581,0.157516,-0.329000,0.074258,-0.013387]
[-0.16,0.000000,0.000000,0.176548,0.124710,-0.290290,0.193871,0.466355,0.044968,0.082484,0.227226,-0.152194,0.290742,0.161548,-0.363000,0.081774,-0.028161]
[-0.16999999999999998,0.000000,0.000000,0.171581,0.120516,-0.294484,0.204452,0.502258,0.051613,0.098806,0.226710,-0.153323,0.294903,0.165581,-0.397000,0.089290,-0.042935]
[-0.18,0.000000,0.000000,0.166613,0.116323,-0.298677,0.215032,0.538161,0.058258,0.115129,0.226194,-0.154452,0.299065,0.169613,-0.431000,0.096806,-0.057710]
[-0.18999999999999997,0.000000,0.000000,0.161645,0.112129,-0.302871,0.225613,0.574065,0.064903,0.131452,0.225677,-0.155581,0.303226,0.173645,-0.465000,0.104323,-0.072484]
[-0.19999999999999998,0.000000,0.000000,0.156677,0.107935,-0.307065,0.236194,0.609968,0.071548,0.147774,0.225161,-0.156710,0.307387,0.177677,-0.499000,0.111839,-0.087258]
[-0.21,0.000000,0.000000,0.151710,0.103742,-0.311258,0.246774,0.645871,0.078194,0.164097,0.224645,-0.157839,0.311548,0.181710,-0.533000,0.119355,-0.102032]
[-0.21999999999999997,0.000000,0.000000,0.146742,0.099548,-0.315452,0.257355,0.681774,0.084839,0.180419,0.224129,-0.158968,0.315710,0.185742,-0.567000,0.126871,-0.116806]
[-0.23,0.000000,0.000000,0.141774,0.095355,-0.319645,0.267935,0.717677,0.091484,0.196742,0.223613,-0.160097,0.319871,0.189774,-0.601000,0.134387,-0.131581]
[-0.24,0.000000,0.000000,0.136806,0.091161,-0.323839,0.278516,0.753581,0.098129,0.213065,0.223097,-0.161226,0.324032,0.193806,-0.635000,0.141903,-0.146355]
[-0.25,0.000000,0.000000,0.131839,0.086968,-0.328032,0.289097,0.789484,0.104774,0.229387,0.222581,-0.162355,0.328194,0.197839,-0.669000,0.149419,-0.161129]
[-0.26,0.000000,0.000000,0.126871,0.082774,-0.332226,0.299677,0.825387,0.111419,0.245710,0.222065,-0.163484,0.332355,0.201871,-0.703000,0.156935,-0.175903]
[-0.27,0.000000,0.000000,0.121903,0.078581,-0.336419,0.310258,0.861290,0.118065,0.262032,0.221548,-0.164613,0.336516,0.205903,-0.737000,0.164452,-0.190677]
[-0.27999999999999997,0.000000,0.000000,0.116935,0.074387,-0.340613,0.320839,0.897194,0.124710,0.278355,0.221032,-0.165742,0.340677,0.209935,-0.771000,0.171968,-0.205452]
[-0.29,0.000000,0.000000,0.111968,0.070194,-0.344806,0.331419,0.933097,0.131355,0.294677,0.220516,-0.166871,0.344839,0.213968,-0.805000,0.179484,-0.220226]
[-0.3,0.000000,0.000000,0.107000,0.066000,-0.349000,0.342000,0.969000,0.138000,0.311000,0.220000,-0.168000,0.349000,0.218000,-0.839000,0.187000,-0.235000]
[-0.3,0.000000,0.000000,0.106847,0.065863,-0.349000,0.342150,0.968002,0.138963,0.310051,0.219999,-0.167988,0.349000,0.217997,-0.838940,0.188198,-0.234928]
[-0.3,0.000000,0.000000,0.105980,0.064903,-0.349000,0.343034,0.967833,0.139363,0.309571,0.220004,-0.168059,0.349000,0.218015,-0.839317,0.188936,-0.235380]
[-0.3,0.000000,0.000000,0.105608,0.065088,-0.349000,0.343315,0.966480,0.141940,0.307546,0.219976,-0.167619,0.349000,0.217917,-0.839646,0.189846,-0.235240]
[-0.3,0.000000,0.000000,0.105031,0.064553,-0.349000,0.344472,0.966037,0.143516,0.309604,0.220106,-0.166876,0.349000,0.218532,-0.839363,0.190624,-0.234349]
[-0.3,0.000000,0.000000,0.104213,0.063229,-0.349000,0.346019,0.965306,0.145293,0.311519,0.219291,-0.167126,0.349000,0.219123,-0.840330,0.190294,-0.234737]
[-0.3,0.000000,0.000000,0.104800,0.062970,-0.349000,0.343656,0.964979,0.147580,0.308447,0.218984,-0.166151,0.349000,0.218306,-0.837704,0.193522,-0.231395]
[-0.3,0.000000,0.000000,0.105013,0.063002,-0.349000,0.340234,0.964972,0.150788,0.307125,0.218967,-0.165994,0.349000,0.215248,-0.833264,0.194119,-0.231837]
[-0.3,0.000000,0.000000,0.105002,0.063000,-0.349000,0.333460,0.966057,0.154043,0.303973,0.220028,-0.166027,0.349000,0.208398,-0.827632,0.190831,-0.235131]
[-0.3,0.000000,0.000000,0.105023,0.063009,-0.349000,0.325579,0.967560,0.152852,0.306396,0.220162,-0.167394,0.349000,0.197888,-0.821639,0.189920,-0.234658]
[-0.3,0.000000,0.000000,0.104801,0.062944,-0.349000,0.317065,0.970555,0.153110,0.307207,0.221055,-0.169576,0.348999,0.184216,-0.813689,0.190412,-0.232278]
[-0.3,0.000000,0.000000,0.103085,0.063387,-0.349000,0.303238,0.971349,0.155794,0.305891,0.221376,-0.172827,0.349004,0.162539,-0.804534,0.190464,-0.230176]
[-0.3,0.000000,0.000000,0.100808,0.064684,-0.349000,0.284777,0.968735,0.160085,0.305442,0.222615,-0.177211,0.348982,0.130306,-0.792203,0.186345,-0.231202]
[-0.3,0.000000,0.000000,0.097908,0.065575,-0.349000,0.263784,0.964153,0.168113,0.301307,0.223826,-0.184222,0.349060,0.093272,-0.779876,0.178428,-0.231761]
[-0.3,0.000000,0.000000,0.092698,0.068661,-0.349000,0.242968,0.957634,0.173667,0.307081,0.224010,-0.191276,0.348171,0.045391,-0.765595,0.175132,-0.225834]
[-0.3,0.000000,0.000000,0.084859,0.071031,-0.349000,0.224705,0.952925,0.175991,0.313095,0.223994,-0.199124,0.345952,-0.007904,-0.749739,0.172956,-0.217883]
[-0.3,0.000000,0.000000,0.077021,0.073435,-0.349000,0.207751,0.947026,0.173842,0.319873,0.222720,-0.206068,0.340898,-0.062801,-0.733511,0.170750,-0.210807]
[-0.3,0.000000,0.000000,0.070320,0.076676,-0.349000,0.192372,0.940938,0.173915,0.325340,0.218389,-0.215597,0.325863,-0.121900,-0.714415,0.165871,-0.202425]
[-0.3,0.000000,0.000000,0.063286,0.078823,-0.349000,0.179160,0.937415,0.172159,0.331555,0.209157,-0.228515,0.299274,-0.176383,-0.695019,0.155036,-0.198748]
[-0.3,0.000000,0.000000,0.057754,0.081099,-0.349000,0.167849,0.933119,0.170044,0.337788,0.199506,-0.245676,0.272693,-0.223114,-0.670958,0.145308,-0.195334]
[-0.3,0.000000,0.000000,0.052450,0.083467,-0.349000,0.158114,0.930642,0.166326,0.344111,0.183439,-0.266055,0.239874,-0.266578,-0.644140,0.139154,-0.191548]
[-0.3,0.000000,0.000000,0.048463,0.084853,-0.349000,0.152557,0.928187,0.161709,0.350896,0.148160,-0.297470,0.191316,-0.312306,-0.611626,0.148438,-0.184809]
[-0.3,0.000000,0.000000,0.045106,0.085962,-0.349000,0.149076,0.928031,0.157120,0.359627,0.092323,-0.350771,0.134947,-0.335705,-0.571477,0.154688,-0.182083]
[-0.3,0.000000,0.000000,0.042879,0.087119,-0.349000,0.147886,0.925850,0.154849,0.370774,0.011226,-0.424688,0.079608,-0.330137,-0.531313,0.165204,-0.176202]
[-0.3,0.000000,0.000000,0.041755,0.087983,-0.349000,0.145340,0.924648,0.154165,0.377085,-0.084133,-0.502014,0.033435,-0.296711,-0.509280,0.158491,-0.164559]
[-0.3,0.000000,0.000000,0.040844,0.088621,-0.349000,0.141957,0.922220,0.154875,0.383211,-0.180213,-0.572680,0.000265,-0.253876,-0.495866,0.153546,-0.156325]
[-0.3,0.000000,0.000000,0.041464,0.090527,-0.349000,0.138062,0.920088,0.153312,0.389296,-0.286660,-0.638889,-0.013957,-0.195802,-0.489127,0.155511,-0.154419]
[-0.3,0.000000,0.000000,0.042562,0.092265,-0.349000,0.133525,0.917156,0.153426,0.392521,-0.397009,-0.696256,-0.018149,-0.129169,-0.486748,0.152768,-0.153528]
[-0.3,0.000000,0.000000,0.044496,0.093823,-0.349000,0.128209,0.913684,0.155554,0.393079,-0.509186,-0.744497,-0.019220,-0.057591,-0.493703,0.142680,-0.150820]
[-0.3,0.000000,0.000000,0.046815,0.094898,-0.349000,0.122449,0.910286,0.157738,0.392961,-0.619888,-0.783017,-0.017292,0.014862,-0.505959,0.134575,-0.147176]
[-0.3,0.000000,0.000000,0.049083,0.096038,-0.349000,0.117874,0.906878,0.161060,0.394058,-0.724482,-0.816013,-0.012839,0.086405,-0.518496,0.128785,-0.145924]
[-0.3,0.000000,0.000000,0.051237,0.097176,-0.349000,0.114433,0.903615,0.162512,0.394873,-0.824843,-0.842808,-0.008299,0.156533,-0.535815,0.122168,-0.142546]
[-0.3,0.000000,0.000000,0.052272,0.098293,-0.349000,0.111552,0.901214,0.164754,0.394255,-0.919534,-0.863718,-0.003880,0.224125,-0.555864,0.117748,-0.140478]
[-0.3,0.000000,0.000000,0.053521,0.099515,-0.349000,0.110451,0.897475,0.162596,0.397499,-1.010498,-0.876208,0.001527,0.288472,-0.582294,0.113778,-0.140703]
[-0.3,0.000000,0.000000,0.054069,0.100070,-0.349000,0.110453,0.895392,0.159821,0.403497,-1.092671,-0.885815,0.008322,0.346887,-0.610953,0.113138,-0.142774]
[-0.3,0.000000,0.000000,0.053987,0.099988,-0.349000,0.111641,0.893584,0.156293,0.409011,-1.165786,-0.893346,0.016617,0.398816,-0.633089,0.116787,-0.143066]
[-0.3,0.000000,0.000000,0.054002,0.099998,-0.349000,0.113711,0.892083,0.155298,0.413252,-1.230730,-0.900108,0.025702,0.444336,-0.651757,0.120645,-0.142890]
[-0.3,0.000000,0.000000,0.054000,0.100002,-0.349000,0.114991,0.891042,0.152043,0.418937,-1.289062,-0.906859,0.034895,0.484331,-0.666744,0.122015,-0.144007]
[-0.3,0.000000,0.000000,0.053993,0.100069,-0.349000,0.114910,0.887710,0.152260,0.420008,-1.340884,-0.915746,0.036963,0.523932,-0.683919,0.118407,-0.141762]
[-0.3,0.000000,0.000000,0.054073,0.101267,-0.349000,0.111929,0.885436,0.155691,0.417929,-1.385521,-0.921135,0.033664,0.560994,-0.705052,0.111427,-0.141126]
[-0.3,0.000000,0.000000,0.056095,0.102396,-0.349000,0.106096,0.883880,0.157204,0.410158,-1.426149,-0.924616,0.027266,0.594884,-0.729216,0.104938,-0.142473]
[-0.3,0.000000,0.000000,0.059043,0.103438,-0.349000,0.099926,0.883629,0.156506,0.403236,-1.461923,-0.925563,0.022747,0.623494,-0.752217,0.100011,-0.143120]
[-0.3,0.000000,0.000000,0.061987,0.105256,-0.349000,0.093254,0.882214,0.155413,0.397837,-1.494014,-0.925975,0.020130,0.646636,-0.771455,0.099331,-0.142786]
[-0.3,0.000000,0.000000,0.064554,0.107563,-0.349000,0.084684,0.882039,0.153978,0.391328,-1.522123,-0.926780,0.019816,0.667382,-0.783482,0.102161,-0.144605]
[-0.3,0.000000,0.000000,0.067756,0.109887,-0.349000,0.076541,0.881091,0.155067,0.384408,-1.547366,-0.927859,0.022677,0.684928,-0.790564,0.107643,-0.145895]
[-0.3,0.000000,0.000000,0.071179,0.111080,-0.349000,0.068665,0.879944,0.151911,0.379840,-1.570056,-0.931182,0.028329,0.699674,-0.796188,0.112269,-0.148081]
[-0.3,0.000000,0.000000,0.074456,0.113438,-0.349000,0.062950,0.878809,0.153446,0.376054,-1.589103,-0.934651,0.035157,0.712144,-0.798359,0.116058,-0.149346]
[-0.3,0.000000,0.000000,0.076612,0.115408,-0.349000,0.056005,0.877656,0.155384,0.368973,-1.607157,-0.939638,0.042014,0.724151,-0.802786,0.112944,-0.151269]
[-0.3,0.000000,0.000000,0.079023,0.116416,-0.349000,0.049329,0.876627,0.156433,0.362421,-1.622722,-0.944918,0.048386,0.733851,-0.809546,0.109839,-0.150493]
[-0.3,0.000000,0.000000,0.080585,0.117708,-0.349000,0.045891,0.874819,0.153792,0.362174,-1.636286,-0.949469,0.053984,0.741818,-0.814106,0.108961,-0.149927]
[-0.3,0.000000,0.000000,0.082381,0.117966,-0.349000,0.041459,0.873113,0.155233,0.356198,-1.648365,-0.953169,0.059584,0.747578,-0.815654,0.108348,-0.150009]
[-0.3,0.000000,0.000000,0.084796,0.118839,-0.349000,0.036444,0.873034,0.155176,0.351309,-1.659749,-0.957420,0.065509,0.754216,-0.818523,0.106450,-0.150009]
[-0.3,0.000000,0.000000,0.086000,0.120000,-0.349000,0.033000,0.872000,0.156000,0.347000,-1.669000,-0.962000,0.068000,0.760000,-0.822000,0.102000,-0.150000]
[-0.3,0.000000,0.000000,0.087029,0.121129,-0.349000,0.029574,0.870971,0.158098,0.343541,-1.678019,-0.965389,0.071188,0.765776,-0.824418,0.100465,-0.149773]
[-0.3,0.000000,0.000000,0.087213,0.122326,-0.349000,0.026376,0.870845,0.158023,0.340888,-1.685715,-0.968827,0.070889,0.772490,-0.829137,0.093629,-0.147979]
[-0.3,0.000000,0.000000,0.088118,0.123021,-0.349000,0.024253,0.869477,0.157585,0.340123,-1.692091,-0.972130,0.071295,0.777672,-0.830788,0.092203,-0.149547]
[-0.3,0.000000,0.000000,0.087953,0.123423,-0.349000,0.021746,0.869034,0.157082,0.336421,-1.697662,-0.976132,0.072760,0.782139,-0.830204,0.089657,-0.150078]
[-0.3,0.000000,0.000000,0.088081,0.124768,-0.349000,0.020917,0.868319,0.155723,0.337228,-1.703423,-0.980200,0.072276,0.786702,-0.832447,0.084097,-0.149907]
[-0.3,0.000000,0.000000,0.087246,0.125053,-0.349000,0.020934,0.867940,0.154076,0.338894,-1.708350,-0.982558,0.072705,0.791210,-0.833755,0.080534,-0.150772]
[-0.3,0.000000,0.000000,0.086022,0.124962,-0.349000,0.021956,0.868029,0.153993,0.339901,-1.711803,-0.985834,0.073982,0.795800,-0.835902,0.077221,-0.151953]
[-0.3,0.000000,0.000000,0.085965,0.126026,-0.349000,0.021972,0.866914,0.153981,0.342093,-1.716291,-0.988083,0.074040,0.799248,-0.837079,0.072817,-0.153133]
[-0.3,0.000000,0.000000,0.084767,0.126165,-0.349000,0.022202,0.865804,0.152452,0.343498,-1.719423,-0.989384,0.075187,0.802321,-0.838052,0.071812,-0.155297]
[-0.3,0.000000,0.000000,0.083647,0.127040,-0.349000,0.022986,0.864582,0.149192,0.346922,-1.722004,-0.991404,0.076678,0.803566,-0.838131,0.070916,-0.156342]
[-0.3,0.000000,0.000000,0.082587,0.127447,-0.349000,0.023777,0.863977,0.147028,0.351481,-1.725040,-0.992824,0.078493,0.805969,-0.837024,0.070818,-0.157369]
[-0.3,0.000000,0.000000,0.080867,0.128090,-0.349000,0.026254,0.863548,0.145168,0.355379,-1.727324,-0.995368,0.080204,0.808331,-0.835949,0.068110,-0.159334]
[-0.3,0.000000,0.000000,0.078379,0.127979,-0.349000,0.028553,0.861541,0.145593,0.357744,-1.728692,-0.996691,0.081890,0.809717,-0.835221,0.066080,-0.160098]
[-0.3,0.000000,0.000000,0.077175,0.128014,-0.349000,0.029941,0.859198,0.147778,0.357050,-1.730809,-0.998793,0.081998,0.811746,-0.835028,0.065971,-0.159984]
[-0.3,0.000000,0.000000,0.074982,0.128010,-0.349000,0.029991,0.857996,0.148994,0.358002,-1.732028,-1.000015,0.081990,0.814038,-0.833984,0.065982,-0.159996]
[-0.3,0.000000,0.000000,0.074915,0.129171,-0.349000,0.028743,0.857891,0.147916,0.355441,-1.734232,-1.001184,0.080860,0.816309,-0.834154,0.063593,-0.160144]
[-0.3,0.000000,0.000000,0.073885,0.130266,-0.349000,0.026366,0.856893,0.145917,0.352946,-1.735263,-1.002077,0.079473,0.818580,-0.835005,0.059925,-0.160912]
[-0.3,0.000000,0.000000,0.074026,0.131512,-0.349000,0.024447,0.857029,0.139729,0.354617,-1.736408,-1.001988,0.077327,0.820827,-0.835603,0.058028,-0.159436]
[-0.3,0.000000,0.000000,0.074021,0.131997,-0.349000,0.023683,0.856995,0.138449,0.354734,-1.737659,-1.001960,0.073498,0.823202,-0.838547,0.056137,-0.159024]
[-0.3,0.000000,0.000000,0.073896,0.132598,-0.349000,0.020822,0.856994,0.137964,0.352337,-1.737978,-1.002166,0.066936,0.824732,-0.843107,0.051096,-0.158367]
[-0.3,0.000000,0.000000,0.074863,0.133914,-0.349000,0.019774,0.857022,0.134385,0.353471,-1.738769,-1.000397,0.059244,0.825856,-0.851565,0.047458,-0.157178]
[-0.3,0.000000,0.000000,0.075005,0.133989,-0.349000,0.021030,0.856976,0.133034,0.356000,-1.739987,-0.998080,0.051262,0.826033,-0.860674,0.045051,-0.156024]
[-0.3,0.000000,0.000000,0.074984,0.135128,-0.349000,0.017629,0.858042,0.131966,0.353751,-1.740059,-0.995881,0.043258,0.825007,-0.870837,0.043873,-0.156042]
[-0.3,0.000000,0.000000,0.075208,0.136032,-0.349000,0.014742,0.858079,0.131887,0.351735,-1.741111,-0.994591,0.034271,0.826278,-0.879655,0.041338,-0.155664]
[-0.3,0.000000,0.000000,0.076025,0.136237,-0.349000,0.012985,0.859761,0.130429,0.350530,-1.740892,-0.992536,0.026640,0.827331,-0.885069,0.038056,-0.153324]
[-0.3,0.000000,0.000000,0.076494,0.137633,-0.349000,0.010307,0.861486,0.127361,0.350201,-1.741500,-0.991457,0.020796,0.828604,-0.886630,0.036812,-0.150417]
[-0.3,0.000000,0.000000,0.077000,0.137949,-0.349000,0.009084,0.863299,0.125666,0.347858,-1.742106,-0.990901,0.016984,0.828975,-0.886873,0.037247,-0.148280]
[-0.3,0.000000,0.000000,0.077715,0.138795,-0.349000,0.004734,0.864736,0.126924,0.342455,-1.741894,-0.991113,0.014413,0.829725,-0.888510,0.035374,-0.147068]
[-0.3,0.000000,0.000000,0.078912,0.139020,-0.349000,0.003103,0.866813,0.126101,0.342946,-1.742931,-0.990053,0.012226,0.830898,-0.889958,0.034989,-0.147951]
[-0.3,0.000000,0.000000,0.080044,0.139002,-0.349000,0.000945,0.868003,0.124917,0.342004,-1.742994,-0.989976,0.009980,0.832019,-0.891098,0.035045,-0.148066]
[-0.3,0.000000,0.000000,0.081072,0.138996,-0.349000,0.001243,0.868154,0.121566,0.344468,-1.743015,-0.989000,0.012914,0.831975,-0.895818,0.037235,-0.152938]
[-0.3,0.000000,0.000000,0.080911,0.139018,-0.349000,0.001597,0.868902,0.121530,0.343953,-1.742931,-0.990571,0.019447,0.832058,-0.899591,0.036375,-0.158051]
[-0.3,0.000000,0.000000,0.081438,0.138907,-0.349000,-0.000649,0.867408,0.123219,0.340428,-1.743432,-0.992965,0.023778,0.831641,-0.900019,0.034869,-0.161456]
[-0.3,0.000000,0.000000,0.082088,0.139591,-0.349000,-0.001117,0.867050,0.122948,0.342079,-1.744089,-0.994650,0.027822,0.830398,-0.900006,0.034571,-0.163612]
[-0.3,0.000000,0.000000,0.081983,0.140062,-0.349000,-0.000342,0.866260,0.123018,0.344546,-1.743984,-0.995683,0.031096,0.829314,-0.899963,0.033149,-0.165457]
[-0.3,0.000000,0.000000,0.082003,0.139992,-0.349000,0.000882,0.865988,0.122977,0.345780,-1.744001,-0.996890,0.034601,0.828095,-0.900100,0.033077,-0.166800]
[-0.3,0.000000,0.000000,0.082000,0.140000,-0.349000,0.001019,0.865989,0.123013,0.347034,-1.744001,-0.997012,0.037906,0.827054,-0.897110,0.032941,-0.168972]
[-0.3,0.000000,0.000000,0.081994,0.140000,-0.349000,0.000077,0.867043,0.120598,0.344061,-1.744017,-0.995877,0.045885,0.821317,-0.886571,0.039673,-0.170233]
[-0.3,0.000000,0.000000,0.082053,0.140000,-0.349000,0.002600,0.867144,0.116062,0.347440,-1.743831,-0.994740,0.055391,0.814363,-0.866380,0.047397,-0.171883]
[-0.3,0.000000,0.000000,0.081637,0.140000,-0.349000,0.004497,0.868430,0.113457,0.346460,-1.742451,-0.993693,0.066628,0.803285,-0.836723,0.062621,-0.168793]
[-0.3,0.000000,0.000000,0.080894,0.140000,-0.349000,0.005285,0.869444,0.112607,0.346365,-1.735162,-0.992117,0.079966,0.781475,-0.801567,0.083628,-0.165766]
[-0.3,0.000000,0.000000,0.081049,0.139998,-0.349000,0.008068,0.871200,0.110698,0.347708,-1.719439,-0.994164,0.096153,0.750056,-0.759036,0.107550,-0.164462]
[-0.3,0.000000,0.000000,0.080906,0.140005,-0.349000,0.009716,0.873743,0.109541,0.348218,-1.700279,-1.000667,0.111744,0.711019,-0.711492,0.132325,-0.160762]
[-0.3,0.000000,0.000000,0.081948,0.139990,-0.349000,0.012774,0.873994,0.114614,0.346092,-1.673189,-1.007612,0.118873,0.664625,-0.669003,0.146926,-0.147093]
[-0.3,0.000000,0.000000,0.082001,0.139966,-0.349000,0.017477,0.875086,0.118089,0.349512,-1.632239,-1.009868,0.115432,0.598862,-0.620541,0.169270,-0.131129]
[-0.3,0.000000,0.000000,0.081861,0.138824,-0.349000,0.031583,0.877610,0.117464,0.364873,-1.560963,-1.000531,0.095850,0.503819,-0.575721,0.191134,-0.114654]
[-0.3,0.000000,0.000000,0.078501,0.137417,-0.349000,0.046171,0.882621,0.112586,0.377508,-1.467705,-0.978113,0.067014,0.399562,-0.536674,0.203443,-0.104395]
[-0.3,0.000000,0.000000,0.073081,0.135149,-0.349000,0.061377,0.888078,0.108422,0.383569,-1.360875,-0.944367,0.035499,0.291755,-0.503751,0.209374,-0.098029]
[-0.3,0.000000,0.000000,0.068167,0.132200,-0.349000,0.077402,0.891360,0.106201,0.390858,-1.247044,-0.904026,0.008776,0.184253,-0.471126,0.212656,-0.093721]
[-0.3,0.000000,0.000000,0.061767,0.129478,-0.349000,0.093093,0.893257,0.105573,0.395731,-1.118317,-0.856800,-0.010118,0.097884,-0.458465,0.186006,-0.100708]
[-0.3,0.000000,0.000000,0.053203,0.127281,-0.349000,0.110746,0.897486,0.101489,0.403085,-0.986025,-0.807660,-0.017063,0.021135,-0.453822,0.156368,-0.113534]
[-0.3,0.000000,0.000000,0.042000,0.125000,-0.349000,0.130000,0.899000,0.102000,0.406000,-0.863000,-0.762000,-0.011000,-0.052000,-0.449000,0.138000,-0.128000]
[-0.3,0.000000,0.000000,0.050548,0.126839,-0.341129,0.125645,0.875677,0.091935,0.406129,-0.837903,-0.737419,0.000613,-0.048516,-0.436129,0.132290,-0.128645]
[-0.29,0.000000,0.000000,0.059097,0.128677,-0.333258,0.121290,0.852355,0.081871,0.406258,-0.812806,-0.712839,0.012226,-0.045032,-0.423258,0.126581,-0.129290]
[-0.27999999999999997,0.000000,0.000000,0.067645,0.130516,-0.325387,0.116935,0.829032,0.071806,0.406387,-0.787710,-0.688258,0.023839,-0.041548,-0.410387,0.120871,-0.129935]
[-0.27,0.000000,0.000000,0.076194,0.132355,-0.317516,0.112581,0.805710,0.061742,0.406516,-0.762613,-0.663677,0.035452,-0.038065,-0.397516,0.115161,-0.130581]
[-0.26,0.000000,0.000000,0.084742,0.134194,-0.309645,0.108226,0.782387,0.051677,0.406645,-0.737516,-0.639097,0.047065,-0.034581,-0.384645,0.109452,-0.131226]
[-0.25,0.000000,0.000000,0.093290,0.136032,-0.301774,0.103871,0.759065,0.041613,0.406774,-0.712419,-0.614516,0.058677,-0.031097,-0.371774,0.103742,-0.131871]
[-0.24,0.000000,0.000000,0.101839,0.137871,-0.293903,0.099516,0.735742,0.031548,0.406903,-0.687323,-0.589935,0.070290,-0.027613,-0.358903,0.098032,-0.132516]
[-0.22999999999999998,0.000000,0.000000,0.110387,0.139710,-0.286032,0.095161,0.712419,0.021484,0.407032,-0.662226,-0.565355,0.081903,-0.024129,-0.346032,0.092323,-0.133161]
[-0.21999999999999997,0.000000,0.000000,0.118935,0.141548,-0.278161,0.090806,0.689097,0.011419,0.407161,-0.637129,-0.540774,0.093516,-0.020645,-0.333161,0.086613,-0.133806]
[-0.21,0.000000,0.000000,0.127484,0.143387,-0.270290,0.086452,0.665774,0.001355,0.407290,-0.612032,-0.516194,0.105129,-0.017161,-0.320290,0.080903,-0.134452]
[-0.2,0.000000,0.000000,0.136032,0.145226,-0.262419,0.082097,0.642452,-0.008710,0.407419,-0.586935,-0.491613,0.116742,-0.013677,-0.307419,0.075194,-0.135097]
[-0.19,0.000000,0.000000,0.144581,0.147065,-0.254548,0.077742,0.619129,-0.018774,0.407548,-0.561839,-0.467032,0.128355,-0.010194,-0.294548,0.069484,-0.135742]
[-0.18,0.000000,0.000000,0.153129,0.148903,-0.246677,0.073387,0.595806,-0.028839,0.407677,-0.536742,-0.442452,0.139968,-0.006710,-0.281677,0.063774,-0.136387]
[-0.16999999999999998,0.000000,0.000000,0.161677,0.150742,-0.238806,0.069032,0.572484,-0.038903,0.407806,-0.511645,-0.417871,0.151581,-0.003226,-0.268806,0.058065,-0.137032]
[-0.16,0.000000,0.000000,0.170226,0.152581,-0.230935,0.064677,0.549161,-0.048968,0.407935,-0.486548,-0.393290,0.163194,0.000258,-0.255935,0.052355,-0.137677]
[-0.15,0.000000,0.000000,0.178774,0.154419,-0.223065,0.060323,0.525839,-0.059032,0.408065,-0.461452,-0.368710,0.174806,0.003742,-0.243065,0.046645,-0.138323]
[-0.13999999999999999,0.000000,0.000000,0.187323,0.156258,-0.215194,0.055968,0.502516,-0.069097,0.408194,-0.436355,-0.344129,0.186419,0.007226,-0.230194,0.040935,-0.138968]
[-0.13,0.000000,0.000000,0.195871,0.158097,-0.207323,0.051613,0.479194,-0.079161,0.408323,-0.411258,-0.319548,0.198032,0.010710,-0.217323,0.035226,-0.139613]
[-0.12,0.000000,0.000000,0.204419,0.159935,-0.199452,0.047258,0.455871,-0.089226,0.408452,-0.386161,-0.294968,0.209645,0.014194,-0.204452,0.029516,-0.140258]
[-0.11000000000000001,0.000000,0.000000,0.212968,0.161774,-0.191581,0.042903,0.432548,-0.099290,0.408581,-0.361065,-0.270387,0.221258,0.017677,-0.191581,0.023806,-0.140903]
[-0.1,0.000000,0.000000,0.221516,0.163613,-0.183710,0.038548,0.409226,-0.109355,0.408710,-0.335968,-0.245806,0.232871,0.021161,-0.178710,0.018097,-0.141548]
[-0.09,0.000000,0.000000,0.230065,0.165452,-0.175839,0.034194,0.385903,-0.119419,0.408839,-0.310871,-0.221226,0.244484,0.024645,-0.165839,0.012387,-0.142194]
[-0.08000000000000002,0.000000,0.000000,0.238613,0.167290,-0.167968,0.029839,0.362581,-0.129484,0.408968,-0.285774,-0.196645,0.256097,0.028129,-0.152968,0.006677,-0.142839]
[-0.06999999999999998,0.000000,0.000000,0.247161,0.169129,-0.160097,0.025484,0.339258,-0.139548,0.409097,-0.260677,-0.172065,0.267710,0.031613,-0.140097,0.000968,-0.143484]
[-0.06,0.000000,0.000000,0.255710,0.170968,-0.152226,0.021129,0.315935,-0.149613,0.409226,-0.235581,-0.147484,0.279323,0.035097,-0.127226,-0.004742,-0.144129]
[-0.04999999999999999,0.000000,0.000000,0.264258,0.172806,-0.144355,0.016774,0.292613,-0.159677,0.409355,-0.210484,-0.122903,0.290935,0.038581,-0.114355,-0.010452,-0.144774]
[-0.03999999999999998,0.000000,0.000000,0.272806,0.174645,-0.136484,0.012419,0.269290,-0.169742,0.409484,-0.185387,-0.098323,0.302548,0.042065,-0.101484,-0.016161,-0.145419]
[-0.02999999999999997,0.000000,0.000000,0.281355,0.176484,-0.128613,0.008065,0.245968,-0.179806,0.409613,-0.160290,-0.073742,0.314161,0.045548,-0.088613,-0.021871,-0.146065]
[-0.020000000000000018,0.000000,0.000000,0.289903,0.178323,-0.120742,0.003710,0.222645,-0.189871,0.409742,-0.135194,-0.049161,0.325774,0.049032,-0.075742,-0.027581,-0.146710]
[-0.010000000000000009,0.000000,0.000000,0.298452,0.180161,-0.112871,-0.000645,0.199323,-0.199935,0.409871,-0.110097,-0.024581,0.337387,0.052516,-0.062871,-0.033290,-0.147355]
[0.000000,0.000000,0.000000,0.307000,0.182000,-0.105000,-0.005000,0.176000,-0.210000,0.410000,-0.085000,0.000000,0.349000,0.056000,-0.050000,-0.039000,-0.148000]
[0.000000,0.000000,0.000000,0.307049,0.183002,-0.105000,-0.005041,0.176046,-0.210023,0.410038,-0.084949,0.000000,0.349000,0.056002,-0.049054,-0.039003,-0.148050]
[0.000000,0.000000,0.000000,0.306077,0.182944,-0.105001,-0.004104,0.175088,-0.209923,0.409115,-0.085929,-0.000000,0.349000,0.055993,-0.048108,-0.038990,-0.147072]
[0.000000,0.000000,0.000000,0.305935,0.183886,-0.104996,-0.003224,0.174883,-0.211530,0.408170,-0.086037,0.000000,0.349000,0.056034,-0.047163,-0.039048,-0.146957]
[0.000000,0.000000,0.000000,0.306170,0.183975,-0.105017,-0.001446,0.175882,-0.214493,0.407164,-0.085951,-0.000000,0.349000,0.055849,-0.046212,-0.038790,-0.147075]
[0.000000,0.000000,0.000000,0.304557,0.184668,-0.104928,0.000374,0.175450,-0.215759,0.406880,-0.086161,0.000000,0.349000,0.057402,-0.045289,-0.041034,-0.146339]
[0.000000,0.000000,0.000000,0.303210,0.185696,-0.105592,0.003041,0.173670,-0.217224,0.407613,-0.084760,-0.000000,0.349000,0.059245,-0.044559,-0.044447,-0.145207]
[0.000000,0.000000,0.000000,0.302521,0.186614,-0.106745,0.005363,0.171756,-0.219425,0.408719,-0.082715,0.000000,0.349000,0.061990,-0.047442,-0.049899,-0.145017]
[0.000000,0.000000,0.000000,0.300814,0.187577,-0.106990,0.006974,0.169845,-0.220376,0.409070,-0.080904,-0.000000,0.349000,0.063628,-0.050258,-0.053811,-0.144552]
[0.000000,0.000000,0.000000,0.299499,0.188488,-0.107389,0.009658,0.168050,-0.222678,0.408973,-0.078868,0.000000,0.349000,0.064976,-0.052430,-0.057118,-0.143352]
[0.000000,0.000000,0.000000,0.298090,0.189548,-0.108581,0.011550,0.165715,-0.224050,0.409032,-0.077534,-0.000000,0.349000,0.066598,-0.055315,-0.059937,-0.143021]
[0.000000,0.000000,0.000000,0.296567,0.190039,-0.109013,0.012742,0.162724,-0.224887,0.408909,-0.076297,0.000000,0.349000,0.067305,-0.058622,-0.062528,-0.142629]
[0.000000,0.000000,0.000000,0.295349,0.190172,-0.109232,0.014477,0.160072,-0.225521,0.409337,-0.074267,-0.000000,0.349000,0.068627,-0.062073,-0.065985,-0.141896]
[0.000000,0.000000,0.000000,0.293604,0.191580,-0.110369,0.015250,0.156700,-0.223954,0.410071,-0.072417,0.000000,0.349000,0.070612,-0.065206,-0.069610,-0.142000]
[0.000000,0.000000,0.000000,0.292744,0.193365,-0.111088,0.016300,0.153627,-0.225310,0.410072,-0.070498,-0.000000,0.349000,0.072487,-0.070545,-0.075171,-0.142080]
[0.000000,0.000000,0.000000,0.291925,0.194068,-0.110923,0.017042,0.152523,-0.226225,0.409707,-0.068662,0.000000,0.349000,0.074363,-0.075807,-0.078779,-0.141740]
[0.000000,0.000000,0.000000,0.292023,0.193929,-0.109690,0.017043,0.149816,-0.226989,0.406364,-0.066626,-0.000000,0.349000,0.076312,-0.079742,-0.083827,-0.139742]
[0.000000,0.000000,0.000000,0.291982,0.192866,-0.106739,0.016881,0.150004,-0.225868,0.401630,-0.063793,0.000000,0.349000,0.078071,-0.085367,-0.088131,-0.139022]
[0.000000,0.000000,0.000000,0.292018,0.190943,-0.103921,0.014973,0.148949,-0.225011,0.397896,-0.061950,-0.000000,0.349000,0.077992,-0.086991,-0.088029,-0.140037]
[0.000000,0.000000,0.000000,0.292982,0.189051,-0.101084,0.015011,0.147047,-0.225994,0.394107,-0.060055,-0.000000,0.349000,0.077995,-0.086017,-0.089992,-0.140989]
[0.000000,0.000000,0.000000,0.293019,0.187184,-0.098217,0.014021,0.145249,-0.225088,0.390344,-0.058161,0.000000,0.349000,0.078037,-0.086022,-0.088148,-0.140999]
[0.000000,0.000000,0.000000,0.292974,0.185150,-0.096200,0.014869,0.141482,-0.224900,0.386426,-0.056271,-0.000000,0.349000,0.077157,-0.085139,-0.087948,-0.141062]
[0.000000,0.000000,0.000000,0.293091,0.185005,-0.095151,0.015033,0.139283,-0.225847,0.384360,-0.054379,0.000000,0.349000,0.076175,-0.084298,-0.087407,-0.140156]
[0.000000,0.000000,0.000000,0.292190,0.184300,-0.094316,0.015062,0.137583,-0.226101,0.381885,-0.052481,-0.000000,0.349000,0.075271,-0.082298,-0.084676,-0.139948]
[0.000000,0.000000,0.000000,0.292009,0.183300,-0.092686,0.014336,0.134961,-0.225420,0.378154,-0.050616,0.000000,0.349000,0.074196,-0.082564,-0.083029,-0.140014]
[0.000000,0.000000,0.000000,0.291467,0.182267,-0.090519,0.013403,0.131936,-0.223727,0.374919,-0.048618,-0.000000,0.349000,0.074013,-0.083320,-0.083230,-0.140006]
[0.000000,0.000000,0.000000,0.290249,0.181954,-0.089866,0.012149,0.129823,-0.222096,0.372692,-0.047337,0.000000,0.349000,0.073536,-0.081769,-0.081647,-0.139958]
[0.000000,0.000000,0.000000,0.290104,0.181935,-0.090049,0.012882,0.127502,-0.222781,0.371353,-0.046479,-0.000000,0.349000,0.072275,-0.080727,-0.081463,-0.140157]
[0.000000,0.000000,0.000000,0.289181,0.182412,-0.089952,0.014940,0.124408,-0.225497,0.370806,-0.045510,0.000000,0.349000,0.072314,-0.081495,-0.081663,-0.139330]
[0.000000,0.000000,0.000000,0.287176,0.183417,-0.090212,0.017264,0.122152,-0.228015,0.371629,-0.044562,-0.000000,0.349000,0.073541,-0.082232,-0.080884,-0.139693]
[0.000000,0.000000,0.000000,0.284899,0.184559,-0.091974,0.019880,0.119897,-0.229479,0.374137,-0.043644,0.000000,0.349000,0.074093,-0.081398,-0.080871,-0.141435]
[0.000000,0.000000,0.000000,0.282242,0.187049,-0.095054,0.021585,0.117269,-0.230144,0.376801,-0.042602,-0.000000,0.349000,0.073916,-0.079282,-0.079210,-0.142647]
[0.000000,0.000000,0.000000,0.280487,0.189366,-0.097650,0.023654,0.115377,-0.229727,0.378320,-0.041978,0.000000,0.349000,0.074223,-0.077585,-0.078100,-0.144148]
[0.000000,0.000000,0.000000,0.278562,0.190412,-0.099286,0.025110,0.112079,-0.228980,0.379219,-0.041842,-0.000000,0.349000,0.075144,-0.077032,-0.079023,-0.144087]
[0.000000,0.000000,0.000000,0.276675,0.192088,-0.100108,0.026641,0.108629,-0.230419,0.380122,-0.040910,0.000000,0.349000,0.074828,-0.076769,-0.077695,-0.145221]
[0.000000,0.000000,0.000000,0.274790,0.192109,-0.101212,0.031385,0.107975,-0.233300,0.381210,-0.041039,-0.000000,0.349000,0.074005,-0.074851,-0.077138,-0.146024]
[0.000000,0.000000,0.000000,0.272881,0.194107,-0.103048,0.033107,0.106860,-0.235060,0.383046,-0.040957,0.000000,0.349000,0.075079,-0.075076,-0.080218,-0.146022]
[0.000000,0.000000,0.000000,0.271000,0.195000,-0.103000,0.036000,0.104000,-0.236000,0.383000,-0.040000,0.000000,0.349000,0.076000,-0.076000,-0.083000,-0.147000]
[0.000000,0.000000,0.000000,0.270079,0.194973,-0.103927,0.038886,0.103097,-0.237904,0.383958,-0.040024,-0.000000,0.349000,0.075975,-0.074064,-0.082089,-0.147974]
[0.000000,0.000000,0.000000,0.268179,0.195916,-0.104944,0.040670,0.100281,-0.239647,0.384025,-0.039071,0.000000,0.349000,0.076917,-0.074086,-0.081051,-0.148011]
[0.000000,0.000000,0.000000,0.267197,0.196039,-0.105022,0.044492,0.099088,-0.243564,0.383986,-0.039040,-0.000000,0.349000,0.077031,-0.072175,-0.080963,-0.148014]
[0.000000,0.000000,0.000000,0.265438,0.195968,-0.104997,0.045826,0.098255,-0.244042,0.384019,-0.038194,0.000000,0.349000,0.077006,-0.072838,-0.081088,-0.147914]
[0.000000,0.000000,0.000000,0.264094,0.196083,-0.104980,0.047438,0.097211,-0.244838,0.383935,-0.037937,-0.000000,0.349000,0.076926,-0.072215,-0.080274,-0.148754]
[0.000000,0.000000,0.000000,0.264101,0.195378,-0.105091,0.048801,0.096834,-0.244262,0.384251,-0.038020,0.000000,0.349000,0.077617,-0.072660,-0.079774,-0.149101]
[0.000000,0.000000,0.000000,0.263252,0.194362,-0.104412,0.049201,0.097446,-0.244357,0.382568,-0.037994,-0.000000,0.349000,0.078647,-0.072899,-0.081095,-0.148863]
[0.000000,0.000000,0.000000,0.263516,0.193437,-0.103527,0.048021,0.094683,-0.241403,0.382540,-0.038002,0.000000,0.349000,0.079534,-0.074116,-0.083320,-0.149612]
[0.000000,0.000000,0.000000,0.264017,0.192487,-0.101950,0.045847,0.092581,-0.237129,0.382371,-0.037997,-0.000000,0.349000,0.080618,-0.075241,-0.084200,-0.150004]
[0.000000,0.000000,0.000000,0.264441,0.191536,-0.100524,0.044493,0.093200,-0.235006,0.379582,-0.038007,0.000000,0.349000,0.081004,-0.074825,-0.083772,-0.150395]
[0.000000,0.000000,0.000000,0.265033,0.190613,-0.099255,0.043534,0.092604,-0.233491,0.376971,-0.037976,-0.000000,0.349000,0.081307,-0.075477,-0.084776,-0.151217]
[0.000000,0.000000,0.000000,0.265289,0.189589,-0.097468,0.042950,0.091825,-0.232738,0.375847,-0.038079,0.000000,0.349000,0.082349,-0.075866,-0.086296,-0.150593]
[0.000000,0.000000,0.000000,0.266131,0.188917,-0.096966,0.042871,0.092291,-0.231459,0.376056,-0.037725,-0.000000,0.349000,0.083387,-0.076802,-0.087895,-0.150088]
[0.000000,0.000000,0.000000,0.265915,0.189025,-0.096959,0.041524,0.093092,-0.229562,0.375936,-0.036930,0.000000,0.349000,0.083924,-0.079191,-0.090119,-0.151383]
[0.000000,0.000000,0.000000,0.266174,0.188983,-0.097158,0.039728,0.092972,-0.227428,0.376164,-0.036941,-0.000000,0.349000,0.082735,-0.077535,-0.088697,-0.151894]
[0.000000,0.000000,0.000000,0.267030,0.189032,-0.098051,0.038895,0.093023,-0.224777,0.377048,-0.035736,0.000000,0.349000,0.081978,-0.075909,-0.087965,-0.150942]
[0.000000,0.000000,0.000000,0.267063,0.188933,-0.098023,0.037888,0.092959,-0.223871,0.377028,-0.033890,-0.000000,0.349000,0.081960,-0.075997,-0.088006,-0.150971]
[0.000000,0.000000,0.000000,0.267999,0.187994,-0.099045,0.037006,0.091962,-0.221967,0.378039,-0.032963,0.000000,0.349000,0.080972,-0.076023,-0.088000,-0.149965]
[0.000000,0.000000,0.000000,0.267020,0.188952,-0.100939,0.037982,0.091001,-0.221985,0.379921,-0.031058,0.000000,0.349000,0.080035,-0.077005,-0.088003,-0.149016]
[0.000000,0.000000,0.000000,0.267015,0.190833,-0.103657,0.037211,0.091111,-0.221287,0.383625,-0.029171,-0.000000,0.349000,0.078208,-0.075224,-0.087194,-0.148961]
[0.000000,0.000000,0.000000,0.266165,0.192735,-0.108396,0.034274,0.088377,-0.216496,0.387631,-0.027201,0.000000,0.349000,0.075434,-0.072483,-0.083622,-0.149812]
[0.000000,0.000000,0.000000,0.265180,0.194608,-0.111491,0.033905,0.087066,-0.215780,0.388886,-0.026246,-0.000000,0.349000,0.072497,-0.068681,-0.079627,-0.150990]
[0.000000,0.000000,0.000000,0.264235,0.196567,-0.114323,0.033995,0.086418,-0.216645,0.389787,-0.024443,0.000000,0.349000,0.070440,-0.066283,-0.077304,-0.150150]
[0.000000,0.000000,0.000000,0.263348,0.197843,-0.116447,0.034503,0.084018,-0.218591,0.390119,-0.023311,-0.000000,0.349000,0.068637,-0.065418,-0.076403,-0.150665]
[0.000000,0.000000,0.000000,0.261878,0.198014,-0.118349,0.036744,0.080891,-0.218824,0.389485,-0.021784,0.000000,0.349000,0.066585,-0.063539,-0.074579,-0.151069]
[0.000000,0.000000,0.000000,0.259151,0.198097,-0.119719,0.040407,0.079146,-0.220761,0.387833,-0.019786,-0.000000,0.349000,0.065448,-0.063070,-0.073929,-0.151085]
[0.000000,0.000000,0.000000,0.256938,0.197444,-0.120335,0.043775,0.079293,-0.222409,0.386182,-0.017926,0.000000,0.349000,0.063924,-0.061908,-0.073578,-0.150433]
[0.000000,0.000000,0.000000,0.254554,0.196939,-0.122373,0.046081,0.081112,-0.221409,0.386428,-0.016027,-0.000000,0.349000,0.062431,-0.060932,-0.072488,-0.149995]
[0.000000,0.000000,0.000000,0.252073,0.196886,-0.125108,0.047590,0.082154,-0.220992,0.387208,-0.014129,0.000000,0.349000,0.061511,-0.060467,-0.071625,-0.149608]
[0.000000,0.000000,0.000000,0.250050,0.197578,-0.129063,0.048007,0.084874,-0.220721,0.389404,-0.012264,-0.000000,0.349000,0.060955,-0.060563,-0.073186,-0.148889]
[0.000000,0.000000,0.000000,0.246739,0.199700,-0.134791,0.048207,0.090852,-0.219639,0.392797,-0.010284,0.000000,0.349000,0.060834,-0.062334,-0.074944,-0.149016]
[0.000000,0.000000,0.000000,0.242957,0.201516,-0.139264,0.049345,0.095214,-0.216646,0.394776,-0.008687,-0.000001,0.349000,0.059526,-0.061643,-0.071969,-0.149036]
[0.000000,0.000000,0.000000,0.238977,0.203473,-0.144243,0.050055,0.100365,-0.210742,0.397357,-0.007685,0.000001,0.349000,0.057512,-0.061105,-0.069913,-0.148863]
[0.000000,0.000000,0.000000,0.234217,0.205218,-0.149967,0.050018,0.107218,-0.206320,0.398224,-0.005578,-0.000004,0.349000,0.055801,-0.062094,-0.069716,-0.147805]
[0.000000,0.000000,0.000000,0.229354,0.206105,-0.155695,0.051292,0.114990,-0.203951,0.400238,-0.002608,0.000010,0.349000,0.054855,-0.061980,-0.066686,-0.146935]
[0.000000,0.000000,0.000000,0.222575,0.207041,-0.162411,0.055272,0.124567,-0.205072,0.402102,0.001228,-0.000017,0.349000,0.052857,-0.062006,-0.064921,-0.147048]
[0.000000,0.000000,0.000000,0.215000,0.207000,-0.170000,0.060000,0.134000,-0.204000,0.404000,0.005000,-0.001000,0.349000,0.050000,-0.062000,-0.063000,-0.149000]
[0.000000,0.000000,0.000000,0.212652,0.203935,-0.173891,0.066130,0.152152,-0.196565,0.401978,0.009674,-0.004630,0.349000,0.053652,-0.078891,-0.057565,-0.150870]
[0.000000,0.000000,0.000000,0.210304,0.200870,-0.177783,0.072261,0.170304,-0.189130,0.399957,0.014348,-0.008261,0.349000,0.057304,-0.095783,-0.052130,-0.152739]
[0.000000,0.000000,0.000000,0.207957,0.197804,-0.181674,0.078391,0.188457,-0.181696,0.397935,0.019022,-0.011891,0.349000,0.060957,-0.112674,-0.046696,-0.154609]
[0.000000,0.000000,0.000000,0.205609,0.194739,-0.185565,0.084522,0.206609,-0.174261,0.395913,0.023696,-0.015522,0.349000,0.064609,-0.129565,-0.041261,-0.156478]
[0.000000,0.000000,0.000000,0.203261,0.191674,-0.189457,0.090652,0.224761,-0.166826,0.393891,0.028370,-0.019152,0.349000,0.068261,-0.146457,-0.035826,-0.158348]
[0.000000,0.000000,0.000000,0.200913,0.188609,-0.193348,0.096783,0.242913,-0.159391,0.391870,0.033043,-0.022783,0.349000,0.071913,-0.163348,-0.030391,-0.160217]
[0.000000,0.000000,0.000000,0.198565,0.185543,-0.197239,0.102913,0.261065,-0.151957,0.389848,0.037717,-0.026413,0.349000,0.075565,-0.180239,-0.024957,-0.162087]
[0.000000,0.000000,0.000000,0.196217,0.182478,-0.201130,0.109043,0.279217,-0.144522,0.387826,0.042391,-0.030043,0.349000,0.079217,-0.197130,-0.019522,-0.163957]
[0.000000,0.000000,0.000000,0.193870,0.179413,-0.205022,0.115174,0.297370,-0.137087,0.385804,0.047065,-0.033674,0.349000,0.082870,-0.214022,-0.014087,-0.165826]
[0.000000,0.000000,0.000000,0.191522,0.176348,-0.208913,0.121304,0.315522,-0.129652,0.383783,0.051739,-0.037304,0.349000,0.086522,-0.230913,-0.008652,-0.167696]
[0.000000,0.000000,0.000000,0.189174,0.173283,-0.212804,0.127435,0.333674,-0.122217,0.381761,0.056413,-0.040935,0.349000,0.090174,-0.247804,-0.003217,-0.169565]
[0.000000,0.000000,0.000000,0.186826,0.170217,-0.216696,0.133565,0.351826,-0.114783,0.379739,0.061087,-0.044565,0.349000,0.093826,-0.264696,0.002217,-0.171435]
[0.000000,0.000000,0.000000,0.184478,0.167152,-0.220587,0.139696,0.369978,-0.107348,0.377717,0.065761,-0.048196,0.349000,0.097478,-0.281587,0.007652,-0.173304]
[0.000000,0.000000,0.000000,0.182130,0.164087,-0.224478,0.145826,0.388130,-0.099913,0.375696,0.070435,-0.051826,0.349000,0.101130,-0.298478,0.013087,-0.175174]
[0.000000,0.000000,0.000000,0.179783,0.161022,-0.228370,0.151957,0.406283,-0.092478,0.373674,0.075109,-0.055457,0.349000,0.104783,-0.315370,0.018522,-0.177043]
[0.0,0.000000,0.000000,0.177435,0.157957,-0.232261,0.158087,0.424435,-0.085043,0.371652,0.079783,-0.059087,0.349000,0.108435,-0.332261,0.023957,-0.178913]
[-0.01,0.000000,0.000000,0.175087,0.154891,-0.236152,0.164217,0.442587,-0.077609,0.369630,0.084457,-0.062717,0.349000,0.112087,-0.349152,0.029391,-0.180783]
[-0.02,0.000000,0.000000,0.172739,0.151826,-0.240043,0.170348,0.460739,-0.070174,0.367609,0.089130,-0.066348,0.349000,0.115739,-0.366043,0.034826,-0.182652]
[-0.03,0.000000,0.000000,0.170391,0.148761,-0.243935,0.176478,0.478891,-0.062739,0.365587,0.093804,-0.069978,0.349000,0.119391,-0.382935,0.040261,-0.184522]
[-0.04,0.000000,0.000000,0.168043,0.145696,-0.247826,0.182609,0.497043,-0.055304,0.363565,0.098478,-0.073609,0.349000,0.123043,-0.399826,0.045696,-0.186391]
[-0.049999999999999996,0.000000,0.000000,0.165696,0.142630,-0.251717,0.188739,0.515196,-0.047870,0.361543,0.103152,-0.077239,0.349000,0.126696,-0.416717,0.051130,-0.188261]
[-0.06,0.000000,0.000000,0.163348,0.139565,-0.255609,0.194870,0.533348,-0.040435,0.359522,0.107826,-0.080870,0.349000,0.130348,-0.433609,0.056565,-0.190130]
[-0.06999999999999999,0.000000,0.000000,0.161000,0.136500,-0.259500,0.201000,0.551500,-0.033000,0.357500,0.112500,-0.084500,0.349000,0.134000,-0.450500,0.062000,-0.192000]
[-0.08,0.000000,0.000000,0.158652,0.133435,-0.263391,0.207130,0.569652,-0.025565,0.355478,0.117174,-0.088130,0.349000,0.137652,-0.467391,0.067435,-0.193870]
[-0.09,0.000000,0.000000,0.156304,0.130370,-0.267283,0.213261,0.587804,-0.018130,0.353457,0.121848,-0.091761,0.349000,0.141304,-0.484283,0.072870,-0.195739]
[-0.09999999999999999,0.000000,0.000000,0.153957,0.127304,-0.271174,0.219391,0.605957,-0.010696,0.351435,0.126522,-0.095391,0.349000,0.144957,-0.501174,0.078304,-0.197609]
[-0.10999999999999999,0.000000,0.000000,0.151609,0.124239,-0.275065,0.225522,0.624109,-0.003261,0.349413,0.131196,-0.099022,0.349000,0.148609,-0.518065,0.083739,-0.199478]
[-0.12,0.000000,0.000000,0.149261,0.121174,-0.278957,0.231652,0.642261,0.004174,0.347391,0.135870,-0.102652,0.349000,0.152261,-0.534957,0.089174,-0.201348]
[-0.13,0.000000,0.000000,0.146913,0.118109,-0.282848,0.237783,0.660413,0.011609,0.345370,0.140543,-0.106283,0.349000,0.155913,-0.551848,0.094609,-0.203217]
[-0.13999999999999999,0.000000,0.000000,0.144565,0.115043,-0.286739,0.243913,0.678565,0.019043,0.343348,0.145217,-0.109913,0.349000,0.159565,-0.568739,0.100043,-0.205087]
[-0.15,0.000000,0.000000,0.142217,0.111978,-0.290630,0.250043,0.696717,0.026478,0.341326,0.149891,-0.113543,0.349000,0.163217,-0.585630,0.105478,-0.206957]
[-0.16,0.000000,0.000000,0.139870,0.108913,-0.294522,0.256174,0.714870,0.033913,0.339304,0.154565,-0.117174,0.349000,0.166870,-0.602522,0.110913,-0.208826]
[-0.16999999999999998,0.000000,0.000000,0.137522,0.105848,-0.298413,0.262304,0.733022,0.041348,0.337283,0.159239,-0.120804,0.349000,0.170522,-0.619413,0.116348,-0.210696]
[-0.18,0.000000,0.000000,0.135174,0.102783,-0.302304,0.268435,0.751174,0.048783,0.335261,0.163913,-0.124435,0.349000,0.174174,-0.636304,0.121783,-0.212565]
[-0.18999999999999997,0.000000,0.000000,0.132826,0.099717,-0.306196,0.274565,0.769326,0.056217,0.333239,0.168587,-0.128065,0.349000,0.177826,-0.653196,0.127217,-0.214435]
[-0.19999999999999998,0.000000,0.000000,0.130478,0.096652,-0.310087,0.280696,0.787478,0.063652,0.331217,0.173261,-0.131696,0.349000,0.181478,-0.670087,0.132652,-0.216304]
[-0.21,0.000000,0.000000,0.128130,0.093587,-0.313978,0.286826,0.805630,0.071087,0.329196,0.177935,-0.135326,0.349000,0.185130,-0.686978,0.138087,-0.218174]
[-0.21999999999999997,0.000000,0.000000,0.125783,0.090522,-0.317870,0.292957,0.823783,0.078522,0.327174,0.182609,-0.138957,0.349000,0.188783,-0.703870,0.143522,-0.220043]
[-0.23,0.000000,0.000000,0.123435,0.087457,-0.321761,0.299087,0.841935,0.085957,0.325152,0.187283,-0.142587,0.349000,0.192435,-0.720761,0.148957,-0.221913]
[-0.24,0.000000,0.000000,0.121087,0.084391,-0.325652,0.305217,0.860087,0.093391,0.323130,0.191957,-0.146217,0.349000,0.196087,-0.737652,0.154391,-0.223783]
[-0.25,0.000000,0.000000,0.118739,0.081326,-0.329543,0.311348,0.878239,0.100826,0.321109,0.196630,-0.149848,0.349000,0.199739,-0.754543,0.159826,-0.225652]
[-0.26,0.000000,0.000000,0.116391,0.078261,-0.333435,0.317478,0.896391,0.108261,0.319087,0.201304,-0.153478,0.349000,0.203391,-0.771435,0.165261,-0.227522]
[-0.27,0.000000,0.000000,0.114043,0.075196,-0.337326,0.323609,0.914543,0.115696,0.317065,0.205978,-0.157109,0.349000,0.207043,-0.788326,0.170696,-0.229391]
[-0.27999999999999997,0.000000,0.000000,0.111696,0.072130,-0.341217,0.329739,0.932696,0.123130,0.315043,0.210652,-0.160739,0.349000,0.210696,-0.805217,0.176130,-0.231261]
[-0.29,0.000000,0.000000,0.109348,0.069065,-0.345109,0.335870,0.950848,0.130565,0.313022,0.215326,-0.164370,0.349000,0.214348,-0.822109,0.181565,-0.233130]
[-0.3,0.000000,0.000000,0.107000,0.066000,-0.349000,0.342000,0.969000,0.138000,0.311000,0.220000,-0.168000,0.349000,0.218000,-0.839000,0.187000,-0.235000]
[-0.3,0.000000,0.000000,0.107009,0.066008,-0.349000,0.341991,0.968000,0.139002,0.309997,0.220000,-0.168001,0.349000,0.218000,-0.839004,0.187988,-0.235005]
[-0.3,0.000000,0.000000,0.106006,0.065010,-0.349000,0.342993,0.968007,0.138985,0.310019,0.220000,-0.167997,0.349000,0.217999,-0.838985,0.188999,-0.234982]
[-0.3,0.000000,0.000000,0.106013,0.064993,-0.349000,0.342991,0.967033,0.140938,0.308045,0.220001,-0.168015,0.349000,0.218004,-0.840002,0.188968,-0.236019]
[-0.3,0.000000,0.000000,0.105017,0.065016,-0.349000,0.343965,0.966011,0.142956,0.307932,0.219995,-0.167024,0.349000,0.217981,-0.839012,0.190975,-0.234030]
[-0.3,0.000000,0.000000,0.105023,0.064053,-0.349000,0.344938,0.966020,0.143943,0.310899,0.220025,-0.166986,0.349000,0.218968,-0.839947,0.190038,-0.234959]
[-0.3,0.000000,0.000000,0.104008,0.063026,-0.349000,0.346046,0.965035,0.145894,0.311114,0.219032,-0.167032,0.349000,0.219024,-0.840077,0.190869,-0.234139]
[-0.3,0.000000,0.000000,0.104947,0.062992,-0.349000,0.343192,0.964997,0.147867,0.308117,0.218999,-0.166039,0.349000,0.218101,-0.837217,0.193868,-0.231100]
[-0.3,0.000000,0.000000,0.105016,0.063002,-0.349000,0.340271,0.964968,0.150753,0.307144,0.218963,-0.165993,0.349000,0.215288,-0.833307,0.194137,-0.231811]
[-0.3,0.000000,0.000000,0.104997,0.063000,-0.349000,0.334528,0.965934,0.153917,0.304084,0.219957,-0.165981,0.349000,0.209571,-0.828369,0.191190,-0.234845]
[-0.3,0.000000,0.000000,0.104995,0.062998,-0.349000,0.327573,0.966828,0.153099,0.305794,0.219968,-0.166860,0.349000,0.200826,-0.823496,0.190031,-0.235113]
[-0.3,0.000000,0.000000,0.105028,0.063010,-0.349000,0.320716,0.969773,0.152967,0.306950,0.220938,-0.168829,0.349000,0.190167,-0.816648,0.189931,-0.233202]
[-0.3,0.000000,0.000000,0.104160,0.062960,-0.349000,0.311249,0.970934,0.153751,0.307133,0.220978,-0.170707,0.348999,0.174944,-0.809811,0.190987,-0.231194]
[-0.3,0.000000,0.000000,0.102224,0.063867,-0.349000,0.296773,0.971193,0.157574,0.305076,0.221871,-0.174569,0.349003,0.152043,-0.800196,0.189368,-0.229938]
[-0.3,0.000000,0.000000,0.100260,0.064916,-0.349000,0.280118,0.967510,0.161306,0.305291,0.222876,-0.178380,0.348990,0.121768,-0.789276,0.184786,-0.231798]
[-0.3,0.000000,0.000000,0.097473,0.065760,-0.349000,0.261404,0.963612,0.169098,0.301016,0.223925,-0.185124,0.349039,0.088777,-0.778469,0.177661,-0.231430]
[-0.3,0.000000,0.000000,0.092810,0.068602,-0.349000,0.243296,0.957743,0.173612,0.306920,0.224012,-0.191160,0.348198,0.046279,-0.765857,0.175152,-0.225970]
[-0.3,0.000000,0.000000,0.086049,0.070768,-0.349000,0.227202,0.953539,0.175980,0.312338,0.224032,-0.198046,0.346343,-0.000283,-0.751959,0.173327,-0.218899]
[-0.3,0.000000,0.000000,0.078994,0.072615,-0.349000,0.212227,0.948905,0.174271,0.318085,0.223240,-0.204028,0.342917,-0.047479,-0.738316,0.171259,-0.213055]
[-0.3,0.000000,0.000000,0.072925,0.075558,-0.349000,0.198102,0.942776,0.173963,0.323266,0.220721,-0.211600,0.333435,-0.098643,-0.721676,0.168861,-0.205114]
[-0.3,0.000000,0.000000,0.067055,0.077697,-0.349000,0.185940,0.939491,0.173288,0.328065,0.214425,-0.221061,0.314070,-0.148970,-0.705861,0.160675,-0.200486]
[-0.3,0.000000,0.000000,0.060904,0.079642,-0.349000,0.174799,0.935716,0.171333,0.333997,0.205508,-0.234333,0.289194,-0.193681,-0.686751,0.151519,-0.197534]
[-0.3,0.000000,0.000000,0.056780,0.081615,-0.349000,0.165610,0.932432,0.169498,0.339042,0.197082,-0.249876,0.266724,-0.232978,-0.665223,0.143314,-0.194562]
[-0.3,0.000000,0.000000,0.051878,0.083680,-0.349000,0.157270,0.930415,0.165829,0.344819,0.180856,-0.268532,0.235592,-0.271130,-0.641165,0.139264,-0.191019]
[-0.3,0.000000,0.000000,0.048538,0.084830,-0.349000,0.152649,0.928229,0.161824,0.350719,0.149302,-0.296445,0.192674,-0.311294,-0.612537,0.148143,-0.184962]
[-0.3,0.000000,0.000000,0.045602,0.085789,-0.349000,0.149478,0.928093,0.157711,0.358037,0.102295,-0.341151,0.143636,-0.334057,-0.577989,0.153590,-0.182383]
[-0.3,0.000000,0.000000,0.043319,0.086753,-0.349000,0.148196,0.926439,0.155339,0.368023,0.036108,-0.402964,0.094257,-0.335145,-0.540842,0.163629,-0.178595]
[-0.3,0.000000,0.000000,0.042215,0.087892,-0.349000,0.146591,0.925235,0.154027,0.374907,-0.045822,-0.471744,0.050832,-0.311284,-0.516828,0.161788,-0.169451]
[-0.3,0.000000,0.000000,0.041189,0.087864,-0.349000,0.143708,0.923533,0.154830,0.379710,-0.128096,-0.535455,0.015682,-0.278994,-0.501668,0.155957,-0.159627]
[-0.3,0.000000,0.000000,0.040876,0.089521,-0.349000,0.140805,0.921451,0.154381,0.385620,-0.216114,-0.596591,-0.006803,-0.234561,-0.493389,0.152717,-0.155365]
[-0.3,0.000000,0.000000,0.041738,0.090719,-0.349000,0.137033,0.919586,0.153093,0.390202,-0.310558,-0.652012,-0.015081,-0.182313,-0.487911,0.156677,-0.154192]
[-0.3,0.000000,0.000000,0.042670,0.092494,-0.349000,0.133104,0.916824,0.153571,0.392692,-0.407319,-0.701172,-0.018439,-0.122530,-0.487001,0.151687,-0.153408]
[-0.3,0.000000,0.000000,0.044413,0.093794,-0.349000,0.128408,0.913797,0.155477,0.393091,-0.505410,-0.743051,-0.019248,-0.059993,-0.493344,0.142958,-0.150951]
[-0.3,0.000000,0.000000,0.046464,0.094705,-0.349000,0.123318,0.910828,0.157309,0.392915,-0.602566,-0.777318,-0.017773,0.003261,-0.503955,0.135746,-0.147599]
[-0.3,0.000000,0.000000,0.048404,0.095720,-0.349000,0.119005,0.907883,0.160329,0.393613,-0.695068,-0.807193,-0.014221,0.066110,-0.514583,0.130458,-0.146377]
[-0.3,0.000000,0.000000,0.050493,0.096703,-0.349000,0.115892,0.904783,0.161537,0.394938,-0.784305,-0.832353,-0.010167,0.127933,-0.528274,0.124670,-0.143929]
[-0.3,0.000000,0.000000,0.051755,0.097704,-0.349000,0.112741,0.902622,0.164410,0.394185,-0.868886,-0.853586,-0.006169,0.188043,-0.544603,0.120117,-0.141507]
[-0.3,0.000000,0.000000,0.052653,0.098667,-0.349000,0.111248,0.900052,0.163766,0.395081,-0.950921,-0.868610,-0.002420,0.246290,-0.563819,0.116160,-0.140016]
[-0.3,0.000000,0.000000,0.053768,0.099764,-0.349000,0.110176,0.896746,0.162466,0.398457,-1.028503,-0.878290,0.003021,0.301280,-0.588625,0.113341,-0.141270]
[-0.3,0.000000,0.000000,0.054055,0.100056,-0.349000,0.110579,0.895323,0.159387,0.404093,-1.099167,-0.886571,0.008888,0.351498,-0.613084,0.113270,-0.142844]
[-0.3,0.000000,0.000000,0.053985,0.099986,-0.349000,0.111594,0.893689,0.156359,0.408842,-1.162891,-0.893075,0.016220,0.396763,-0.632266,0.116579,-0.143072]
[-0.3,0.000000,0.000000,0.054005,0.099998,-0.349000,0.113312,0.892210,0.155550,0.412413,-1.220313,-0.898966,0.024158,0.437143,-0.648828,0.120158,-0.142836]
[-0.3,0.000000,0.000000,0.053997,0.100022,-0.349000,0.114784,0.891571,0.153000,0.417507,-1.272528,-0.904654,0.032612,0.472785,-0.662458,0.122013,-0.143854]
[-0.3,0.000000,0.000000,0.054009,0.099915,-0.349000,0.115139,0.889102,0.151515,0.419963,-1.320084,-0.912235,0.036884,0.507448,-0.676223,0.120554,-0.142882]
[-0.3,0.000000,0.000000,0.053969,0.100569,-0.349000,0.114116,0.886696,0.153808,0.419815,-1.361698,-0.918388,0.036279,0.541034,-0.692955,0.115363,-0.141087]
[-0.3,0.000000,0.000000,0.054357,0.101633,-0.349000,0.110025,0.884591,0.156489,0.415703,-1.399402,-0.922754,0.031296,0.572640,-0.712876,0.109172,-0.141507]
[-0.3,0.000000,0.000000,0.056843,0.102632,-0.349000,0.104988,0.883940,0.157194,0.408523,-1.433678,-0.924779,0.026423,0.601050,-0.734035,0.103790,-0.142710]
[-0.3,0.000000,0.000000,0.059194,0.103519,-0.349000,0.099396,0.883528,0.156413,0.402826,-1.464484,-0.925663,0.022384,0.625451,-0.753839,0.099758,-0.143113]
[-0.3,0.000000,0.000000,0.061804,0.105133,-0.349000,0.093595,0.882267,0.155469,0.398127,-1.492492,-0.925985,0.020159,0.645578,-0.770629,0.099242,-0.142783]
[-0.3,0.000000,0.000000,0.064185,0.107167,-0.349000,0.086339,0.882023,0.154133,0.392564,-1.517420,-0.926543,0.019776,0.663820,-0.781893,0.101491,-0.144159]
[-0.3,0.000000,0.000000,0.066650,0.109260,-0.349000,0.078883,0.881507,0.154859,0.386377,-1.539959,-0.927432,0.021386,0.680026,-0.788610,0.105898,-0.145571]
[-0.3,0.000000,0.000000,0.069718,0.110566,-0.349000,0.071839,0.880405,0.153302,0.381425,-1.560775,-0.929580,0.025686,0.693694,-0.794152,0.110261,-0.147159]
[-0.3,0.000000,0.000000,0.072764,0.112012,-0.349000,0.066116,0.879442,0.152078,0.378528,-1.578837,-0.932675,0.031335,0.705273,-0.797320,0.114701,-0.148542]
[-0.3,0.000000,0.000000,0.075192,0.114215,-0.349000,0.060786,0.878451,0.154229,0.373900,-1.594910,-0.936027,0.037318,0.716222,-0.799270,0.115431,-0.150147]
[-0.3,0.000000,0.000000,0.077044,0.115621,-0.349000,0.054694,0.877428,0.155586,0.367668,-1.610522,-0.940770,0.043358,0.726120,-0.804143,0.112281,-0.151281]
[-0.3,0.000000,0.000000,0.079184,0.116492,-0.349000,0.048927,0.876559,0.156462,0.362074,-1.623614,-0.945213,0.048760,0.734470,-0.809925,0.109676,-0.150407]
[-0.3,0.000000,0.000000,0.080529,0.117638,-0.349000,0.045992,0.874963,0.154038,0.362036,-1.635472,-0.949195,0.053647,0.741429,-0.813911,0.108943,-0.149917]
[-0.3,0.000000,0.000000,0.081921,0.117995,-0.349000,0.042624,0.873280,0.154400,0.358186,-1.646335,-0.952572,0.058535,0.746542,-0.815490,0.108605,-0.150018]
[-0.3,0.000000,0.000000,0.084140,0.118415,-0.349000,0.037714,0.873022,0.155814,0.351966,-1.656245,-0.955928,0.063841,0.752061,-0.817316,0.107279,-0.150010]
[-0.3,0.000000,0.000000,0.085547,0.119529,-0.349000,0.034445,0.872615,0.155099,0.349124,-1.665187,-0.960123,0.067103,0.757649,-0.820685,0.103772,-0.149942]
[-0.3,0.000000,0.000000,0.086582,0.120496,-0.349000,0.031543,0.871381,0.157154,0.345448,-1.672984,-0.963561,0.069576,0.762357,-0.822904,0.101659,-0.150219]
[-0.3,0.000000,0.000000,0.086987,0.121463,-0.349000,0.028460,0.870997,0.158132,0.342281,-1.680562,-0.966436,0.071297,0.767909,-0.825756,0.098410,-0.148957]
[-0.3,0.000000,0.000000,0.087451,0.122575,-0.349000,0.025950,0.870650,0.158066,0.340975,-1.687006,-0.969467,0.070861,0.773573,-0.829909,0.092852,-0.148173]
[-0.3,0.000000,0.000000,0.088115,0.123010,-0.349000,0.024123,0.869400,0.157502,0.339912,-1.692423,-0.972321,0.071358,0.777937,-0.830696,0.092253,-0.149619]
[-0.3,0.000000,0.000000,0.087952,0.123340,-0.349000,0.021912,0.869019,0.157058,0.336589,-1.697280,-0.975816,0.072668,0.781832,-0.830116,0.090081,-0.150081]
[-0.3,0.000000,0.000000,0.088076,0.124549,-0.349000,0.020861,0.868580,0.156232,0.336688,-1.702322,-0.979564,0.072565,0.785825,-0.831990,0.084916,-0.149911]
[-0.3,0.000000,0.000000,0.087661,0.125103,-0.349000,0.020953,0.867869,0.154348,0.338634,-1.706960,-0.981860,0.072210,0.789758,-0.833439,0.081600,-0.150360]
[-0.3,0.000000,0.000000,0.086449,0.124881,-0.349000,0.021406,0.868102,0.153945,0.339291,-1.710288,-0.984258,0.073587,0.793832,-0.834845,0.078829,-0.151483]
[-0.3,0.000000,0.000000,0.085993,0.125447,-0.349000,0.022137,0.867649,0.154040,0.340898,-1.713659,-0.987064,0.073991,0.797326,-0.836519,0.075148,-0.152332]
[-0.3,0.000000,0.000000,0.085684,0.126010,-0.349000,0.021871,0.866553,0.153820,0.342369,-1.717466,-0.988381,0.074343,0.800397,-0.837473,0.072325,-0.153830]
[-0.3,0.000000,0.000000,0.084564,0.126391,-0.349000,0.022441,0.865616,0.151841,0.344091,-1.719789,-0.989810,0.075346,0.802516,-0.838044,0.071587,-0.155511]
[-0.3,0.000000,0.000000,0.083588,0.127029,-0.349000,0.022969,0.864514,0.149079,0.347068,-1.722185,-0.991454,0.076804,0.803681,-0.838154,0.070918,-0.156403]
[-0.3,0.000000,0.000000,0.082663,0.127345,-0.349000,0.023596,0.863965,0.147207,0.351008,-1.724877,-0.992651,0.078425,0.805803,-0.837229,0.070883,-0.157301]
[-0.3,0.000000,0.000000,0.081338,0.128117,-0.349000,0.025813,0.863783,0.145408,0.355013,-1.726832,-0.994891,0.079705,0.807846,-0.835871,0.068865,-0.158816]
[-0.3,0.000000,0.000000,0.079129,0.127964,-0.349000,0.027792,0.862311,0.145163,0.356912,-1.728384,-0.996374,0.081563,0.809402,-0.835681,0.066359,-0.160195]
[-0.3,0.000000,0.000000,0.077654,0.128025,-0.349000,0.029509,0.860205,0.146718,0.357740,-1.729714,-0.997695,0.082036,0.810631,-0.834950,0.065940,-0.159941]
[-0.3,0.000000,0.000000,0.076239,0.127937,-0.349000,0.030107,0.858475,0.148598,0.357268,-1.731398,-0.999479,0.082052,0.812752,-0.834718,0.066119,-0.160039]
[-0.3,0.000000,0.000000,0.074879,0.128267,-0.349000,0.029772,0.858013,0.148728,0.357736,-1.732651,-1.000306,0.081716,0.814698,-0.833800,0.065504,-0.159905]
[-0.3,0.000000,0.000000,0.074734,0.129372,-0.349000,0.028390,0.857698,0.147844,0.354737,-1.734458,-1.001412,0.080702,0.816690,-0.834378,0.063070,-0.160373]
[-0.3,0.000000,0.000000,0.073881,0.130311,-0.349000,0.026264,0.856889,0.145696,0.352977,-1.735310,-1.002080,0.079375,0.818676,-0.834994,0.059748,-0.160874]
[-0.3,0.000000,0.000000,0.074027,0.131399,-0.349000,0.024553,0.857029,0.140194,0.354499,-1.736317,-1.001986,0.077477,0.820640,-0.835423,0.057972,-0.159550]
[-0.3,0.000000,0.000000,0.074010,0.132033,-0.349000,0.023847,0.856993,0.138091,0.354932,-1.737385,-1.001976,0.074700,0.822695,-0.837862,0.057134,-0.158986]
[-0.3,0.000000,0.000000,0.073935,0.132188,-0.349000,0.022097,0.856997,0.138808,0.353226,-1.738035,-1.002106,0.069201,0.824385,-0.841234,0.052607,-0.158787]
[-0.3,0.000000,0.000000,0.074273,0.133395,-0.349000,0.019607,0.857018,0.135975,0.352210,-1.738180,-1.001555,0.062965,0.825311,-0.847232,0.049003,-0.157682]
[-0.3,0.000000,0.000000,0.075099,0.134028,-0.349000,0.020480,0.856934,0.133562,0.354875,-1.739389,-0.999386,0.055904,0.826164,-0.855347,0.046285,-0.156670]
[-0.3,0.000000,0.000000,0.074990,0.134169,-0.349000,0.020502,0.857262,0.132697,0.355742,-1.740013,-0.997375,0.049065,0.825675,-0.863512,0.044685,-0.155890]
[-0.3,0.000000,0.000000,0.074943,0.135363,-0.349000,0.016955,0.858071,0.131949,0.353312,-1.740221,-0.995700,0.041819,0.825101,-0.872369,0.043596,-0.156122]
[-0.3,0.000000,0.000000,0.075250,0.136031,-0.349000,0.014713,0.858101,0.131859,0.351697,-1.741120,-0.994514,0.033994,0.826319,-0.879919,0.041223,-0.155595]
[-0.3,0.000000,0.000000,0.076040,0.136148,-0.349000,0.013319,0.859531,0.130604,0.350668,-1.740917,-0.992646,0.027306,0.827233,-0.884824,0.038307,-0.153509]
[-0.3,0.000000,0.000000,0.076203,0.137335,-0.349000,0.010553,0.861285,0.128197,0.350072,-1.741221,-0.991737,0.021820,0.828310,-0.886324,0.036841,-0.151238]
[-0.3,0.000000,0.000000,0.077062,0.138017,-0.349000,0.009762,0.862442,0.125691,0.349413,-1.742108,-0.990902,0.018191,0.829033,-0.886984,0.037140,-0.148610]
[-0.3,0.000000,0.000000,0.077133,0.138182,-0.349000,0.007040,0.864290,0.126311,0.344746,-1.741925,-0.991076,0.015457,0.829144,-0.887334,0.036583,-0.147711]
[-0.3,0.000000,0.000000,0.078256,0.139098,-0.349000,0.003577,0.865378,0.126899,0.341989,-1.742198,-0.990787,0.013591,0.830242,-0.889373,0.034841,-0.147143]
[-0.3,0.000000,0.000000,0.079203,0.138974,-0.349000,0.002645,0.867368,0.125826,0.342911,-1.743090,-0.989964,0.011457,0.831248,-0.890085,0.034962,-0.147983]
[-0.3,0.000000,0.000000,0.080244,0.139008,-0.349000,0.000758,0.867992,0.124484,0.342128,-1.742973,-0.989822,0.009981,0.832074,-0.891612,0.035313,-0.148474]
[-0.3,0.000000,0.000000,0.081080,0.138995,-0.349000,0.001287,0.868185,0.121503,0.344540,-1.743017,-0.989009,0.013078,0.831972,-0.895951,0.037264,-0.153094]
[-0.3,0.000000,0.000000,0.080942,0.139011,-0.349000,0.001795,0.868973,0.121296,0.344414,-1.742958,-0.990353,0.018951,0.832037,-0.899412,0.036629,-0.157690]
[-0.3,0.000000,0.000000,0.081155,0.138961,-0.349000,-0.000326,0.867734,0.123171,0.340604,-1.743151,-0.992406,0.022721,0.831880,-0.900015,0.034874,-0.160592]
[-0.3,0.000000,0.000000,0.082079,0.139142,-0.349000,-0.001060,0.866985,0.122955,0.341303,-1.744080,-0.994240,0.026608,0.830805,-0.899999,0.034938,-0.163272]
[-0.3,0.000000,0.000000,0.081979,0.140078,-0.349000,-0.000889,0.866877,0.123014,0.343385,-1.743979,-0.995147,0.029477,0.829844,-0.899988,0.033765,-0.164277]
[-0.3,0.000000,0.000000,0.082005,0.139980,-0.349000,0.000187,0.865931,0.122987,0.345176,-1.744005,-0.996183,0.032511,0.828813,-0.900044,0.032992,-0.166207]
[-0.3,0.000000,0.000000,0.081998,0.140005,-0.349000,0.001097,0.865988,0.123036,0.346277,-1.744000,-0.997080,0.035358,0.827941,-0.899833,0.032858,-0.167261]
[-0.3,0.000000,0.000000,0.082002,0.139999,-0.349000,0.000831,0.866112,0.122872,0.346642,-1.743994,-0.996897,0.038772,0.826524,-0.896106,0.033557,-0.169173]
[-0.3,0.000000,0.000000,0.081993,0.140000,-0.349000,0.000096,0.867047,0.120529,0.344087,-1.744021,-0.995857,0.046030,0.821204,-0.886327,0.039779,-0.170276]
[-0.3,0.000000,0.000000,0.082025,0.140000,-0.349000,0.002311,0.867058,0.116514,0.347275,-1.743926,-0.994870,0.054181,0.815190,-0.869250,0.046139,-0.171989]
[-0.3,0.000000,0.000000,0.081912,0.140000,-0.349000,0.004167,0.868139,0.113800,0.346831,-1.742859,-0.993904,0.064128,0.806684,-0.843868,0.058679,-0.169628]
[-0.3,0.000000,0.000000,0.080942,0.140000,-0.349000,0.005054,0.869091,0.112930,0.346022,-1.739196,-0.992815,0.074347,0.790782,-0.815524,0.075111,-0.166713]
[-0.3,0.000000,0.000000,0.081020,0.140000,-0.349000,0.006261,0.870152,0.111827,0.347127,-1.727594,-0.992165,0.088446,0.766224,-0.780234,0.096121,-0.164897]
[-0.3,0.000000,0.000000,0.080978,0.140001,-0.349000,0.009159,0.872226,0.109837,0.348071,-1.712509,-0.996521,0.102323,0.735911,-0.741117,0.117084,-0.163813]
[-0.3,0.000000,0.000000,0.081062,0.139996,-0.349000,0.010169,0.874059,0.110280,0.347865,-1.694201,-1.002538,0.114766,0.699769,-0.699771,0.137240,-0.158161]
[-0.3,0.000000,0.000000,0.082038,0.140012,-0.349000,0.013206,0.874019,0.115354,0.345939,-1.668805,-1.008360,0.119094,0.657346,-0.662970,0.149152,-0.144938]
[-0.3,0.000000,0.000000,0.082001,0.139960,-0.349000,0.017560,0.875100,0.118103,0.349601,-1.631774,-1.009843,0.115333,0.598168,-0.620137,0.169479,-0.130984]
[-0.3,0.000000,0.000000,0.081966,0.138943,-0.349000,0.029797,0.877177,0.117857,0.362885,-1.570777,-1.002283,0.098756,0.515764,-0.580763,0.188989,-0.116252]
[-0.3,0.000000,0.000000,0.079795,0.137921,-0.349000,0.042641,0.881244,0.113773,0.375451,-1.491700,-0.984857,0.074643,0.425323,-0.545356,0.201430,-0.106587]
[-0.3,0.000000,0.000000,0.074805,0.135918,-0.349000,0.055570,0.886201,0.109849,0.381214,-1.401976,-0.957711,0.046832,0.331990,-0.515798,0.207210,-0.099789]
[-0.3,0.000000,0.000000,0.070858,0.133912,-0.349000,0.069477,0.890097,0.106933,0.387223,-1.303645,-0.924808,0.021203,0.236781,-0.487000,0.212146,-0.095856]
[-0.3,0.000000,0.000000,0.065862,0.130934,-0.349000,0.083346,0.892037,0.105993,0.393111,-1.201194,-0.886965,0.000549,0.148009,-0.462645,0.207494,-0.094109]
[-0.3,0.000000,0.000000,0.059884,0.128969,-0.349000,0.097250,0.894055,0.104951,0.397094,-1.083998,-0.844264,-0.013155,0.078877,-0.457959,0.176476,-0.104201]
[-0.3,0.000000,0.000000,0.051924,0.126982,-0.349000,0.113141,0.898030,0.100972,0.404054,-0.970066,-0.801648,-0.016990,0.011432,-0.452949,0.153857,-0.115093]
[-0.3,0.000000,0.000000,0.042000,0.125000,-0.349000,0.130000,0.899000,0.102000,0.406000,-0.863000,-0.762000,-0.011000,-0.052000,-0.449000,0.138000,-0.128000]
[-0.3,0.000000,0.000000,0.049161,0.126387,-0.343581,0.125194,0.865806,0.097097,0.387000,-0.827677,-0.742581,-0.003452,-0.049290,-0.427258,0.133226,-0.117129]
[-0.29,0.000000,0.000000,0.056323,0.127774,-0.338161,0.120387,0.832613,0.092194,0.368000,-0.792355,-0.723161,0.004097,-0.046581,-0.405516,0.128452,-0.106258]
[-0.27999999999999997,0.000000,0.000000,0.063484,0.129161,-0.332742,0.115581,0.799419,0.087290,0.349000,-0.757032,-0.703742,0.011645,-0.043871,-0.383774,0.123677,-0.095387]
[-0.27,0.000000,0.000000,0.070645,0.130548,-0.327323,0.110774,0.766226,0.082387,0.330000,-0.721710,-0.684323,0.019194,-0.041161,-0.362032,0.118903,-0.084516]
[-0.26,0.000000,0.000000,0.077806,0.131935,-0.321903,0.105968,0.733032,0.077484,0.311000,-0.686387,-0.664903,0.026742,-0.038452,-0.340290,0.114129,-0.073645]
[-0.25,0.000000,0.000000,0.084968,0.133323,-0.316484,0.101161,0.699839,0.072581,0.292000,-0.651065,-0.645484,0.034290,-0.035742,-0.318548,0.109355,-0.062774]
[-0.24,0.000000,0.000000,0.092129,0.134710,-0.311065,0.096355,0.666645,0.067677,0.273000,-0.615742,-0.626065,0.041839,-0.033032,-0.296806,0.104581,-0.051903]
[-0.22999999999999998,0.000000,0.000000,0.099290,0.136097,-0.305645,0.091548,0.633452,0.062774,0.254000,-0.580419,-0.606645,0.049387,-0.030323,-0.275065,0.099806,-0.041032]
[-0.21999999999999997,0.000000,0.000000,0.106452,0.137484,-0.300226,0.086742,0.600258,0.057871,0.235000,-0.545097,-0.587226,0.056935,-0.027613,-0.253323,0.095032,-0.030161]
[-0.21,0.000000,0.000000,0.113613,0.138871,-0.294806,0.081935,0.567065,0.052968,0.216000,-0.509774,-0.567806,0.064484,-0.024903,-0.231581,0.090258,-0.019290]
[-0.2,0.000000,0.000000,0.120774,0.140258,-0.289387,0.077129,0.533871,0.048065,0.197000,-0.474452,-0.548387,0.072032,-0.022194,-0.209839,0.085484,-0.008419]
[-0.19,0.000000,0.000000,0.127935,0.141645,-0.283968,0.072323,0.500677,0.043161,0.178000,-0.439129,-0.528968,0.079581,-0.019484,-0.188097,0.080710,0.002452]
[-0.18,0.000000,0.000000,0.135097,0.143032,-0.278548,0.067516,0.467484,0.038258,0.159000,-0.403806,-0.509548,0.087129,-0.016774,-0.166355,0.075935,0.013323]
[-0.16999999999999998,0.000000,0.000000,0.142258,0.144419,-0.273129,0.062710,0.434290,0.033355,0.140000,-0.368484,-0.490129,0.094677,-0.014065,-0.144613,0.071161,0.024194]
[-0.16,0.000000,0.000000,0.149419,0.145806,-0.267710,0.057903,0.401097,0.028452,0.121000,-0.333161,-0.470710,0.102226,-0.011355,-0.122871,0.066387,0.035065]
[-0.15,0.000000,0.000000,0.156581,0.147194,-0.262290,0.053097,0.367903,0.023548,0.102000,-0.297839,-0.451290,0.109774,-0.008645,-0.101129,0.061613,0.045935]
[-0.13999999999999999,0.000000,0.000000,0.163742,0.148581,-0.256871,0.048290,0.334710,0.018645,0.083000,-0.262516,-0.431871,0.117323,-0.005935,-0.079387,0.056839,0.056806]
[-0.13,0.000000,0.000000,0.170903,0.149968,-0.251452,0.043484,0.301516,0.013742,0.064000,-0.227194,-0.412452,0.124871,-0.003226,-0.057645,0.052065,0.067677]
[-0.12,0.000000,0.000000,0.178065,0.151355,-0.246032,0.038677,0.268323,0.008839,0.045000,-0.191871,-0.393032,0.132419,-0.000516,-0.035903,0.047290,0.078548]
[-0.11000000000000001,0.000000,0.000000,0.185226,0.152742,-0.240613,0.033871,0.235129,0.003935,0.026000,-0.156548,-0.373613,0.139968,0.002194,-0.014161,0.042516,0.089419]
[-0.1,0.000000,0.000000,0.192387,0.154129,-0.235194,0.029065,0.201935,-0.000968,0.007000,-0.121226,-0.354194,0.147516,0.004903,0.007581,0.037742,0.100290]
[-0.09,0.000000,0.000000,0.199548,0.155516,-0.229774,0.024258,0.168742,-0.005871,-0.012000,-0.085903,-0.334774,0.155065,0.007613,0.029323,0.032968,0.111161]
[-0.08000000000000002,0.000000,0.000000,0.206710,0.156903,-0.224355,0.019452,0.135548,-0.010774,-0.031000,-0.050581,-0.315355,0.162613,0.010323,0.051065,0.028194,0.122032]
[-0.06999999999999998,0.000000,0.000000,0.213871,0.158290,-0.218935,0.014645,0.102355,-0.015677,-0.050000,-0.015258,-0.295935,0.170161,0.013032,0.072806,0.023419,0.132903]
[-0.06,0.000000,0.000000,0.221032,0.159677,-0.213516,0.009839,0.069161,-0.020581,-0.069000,0.020065,-0.276516,0.177710,0.015742,0.094548,0.018645,0.143774]
[-0.04999999999999999,0.000000,0.000000,0.228194,0.161065,-0.208097,0.005032,0.035968,-0.025484,-0.088000,0.055387,-0.257097,0.185258,0.018452,0.116290,0.013871,0.154645]
[-0.03999999999999998,0.000000,0.000000,0.235355,0.162452,-0.202677,0.000226,0.002774,-0.030387,-0.107000,0.090710,-0.237677,0.192806,0.021161,0.138032,0.009097,0.165516]
[-0.02999999999999997,0.000000,0.000000,0.242516,0.163839,-0.197258,-0.004581,-0.030419,-0.035290,-0.126000,0.126032,-0.218258,0.200355,0.023871,0.159774,0.004323,0.176387]
[-0.020000000000000018,0.000000,0.000000,0.249677,0.165226,-0.191839,-0.009387,-0.063613,-0.040194,-0.145000,0.161355,-0.198839,0.207903,0.026581,0.181516,-0.000452,0.187258]
[-0.010000000000000009,0.000000,0.000000,0.256839,0.166613,-0.186419,-0.014194,-0.096806,-0.045097,-0.164000,0.196677,-0.179419,0.215452,0.029290,0.203258,-0.005226,0.198129]
[0.000000,0.000000,0.000000,0.264000,0.168000,-0.181000,-0.019000,-0.130000,-0.050000,-0.183000,0.232000,-0.160000,0.223000,0.032000,0.225000,-0.010000,0.209000]
[0.000000,0.000000,0.000000,0.264025,0.168000,-0.180658,-0.019611,-0.129841,-0.048659,-0.182861,0.232016,-0.160016,0.223336,0.032935,0.224839,-0.011732,0.209528]
[0.000000,0.000000,0.000000,0.263988,0.168000,-0.181204,-0.020156,-0.130116,-0.047745,-0.183066,0.231992,-0.159992,0.222799,0.034489,0.225077,-0.013516,0.210196]
[0.000000,0.000000,0.000000,0.263977,0.168000,-0.181869,-0.020727,-0.130695,-0.046658,-0.183132,0.231985,-0.159984,0.222136,0.036271,0.225153,-0.015278,0.210807]
[0.000000,0.000000,0.000000,0.264059,0.168000,-0.181957,-0.021402,-0.131435,-0.044875,-0.182628,0.232039,-0.160039,0.222029,0.037930,0.224538,-0.016961,0.211201]
[0.000000,0.000000,0.000000,0.264034,0.168000,-0.181935,-0.021959,-0.131972,-0.043136,-0.182024,0.232023,-0.160023,0.222057,0.039711,0.223212,-0.018735,0.211842]
[0.000000,0.000000,0.000000,0.263574,0.168000,-0.182912,-0.022050,-0.131947,-0.042816,-0.182303,0.231674,-0.159672,0.221160,0.042245,0.221537,-0.020901,0.213448]
[0.000000,0.000000,0.000000,0.262899,0.168000,-0.184151,-0.022008,-0.132073,-0.042987,-0.183130,0.230835,-0.158836,0.219802,0.045550,0.219716,-0.023397,0.215233]
[0.000000,0.000000,0.000000,0.262306,0.167999,-0.184763,-0.022095,-0.132792,-0.042465,-0.183812,0.229608,-0.157616,0.218649,0.049190,0.217913,-0.025881,0.216402]
[0.000000,0.000000,0.000000,0.261758,0.168001,-0.185226,-0.021773,-0.132883,-0.041633,-0.184025,0.228649,-0.156635,0.217435,0.052193,0.216357,-0.027662,0.217547]
[0.000000,0.000000,0.000000,0.261173,0.168001,-0.185833,-0.021115,-0.132163,-0.041052,-0.183967,0.228128,-0.156108,0.216237,0.054418,0.215221,-0.028728,0.218758]
[0.000000,0.000000,0.000000,0.260507,0.167993,-0.186432,-0.020940,-0.131839,-0.041083,-0.184305,0.227595,-0.155685,0.215590,0.056692,0.214557,-0.029839,0.219411]
[0.000000,0.000000,0.000000,0.259994,0.168001,-0.187011,-0.020998,-0.132004,-0.040989,-0.185015,0.226989,-0.154981,0.214982,0.059043,0.213986,-0.031021,0.220018]
[0.000000,0.000000,0.000000,0.259904,0.168029,-0.187615,-0.020599,-0.132135,-0.040111,-0.185704,0.226421,-0.153809,0.213747,0.061038,0.213213,-0.031864,0.221275]
[0.000000,0.000000,0.000000,0.260054,0.167962,-0.188153,-0.019657,-0.131849,-0.040311,-0.186056,0.225792,-0.152711,0.212823,0.062283,0.213094,-0.031901,0.222147]
[0.000000,0.000000,0.000000,0.260105,0.167904,-0.188695,-0.018436,-0.131202,-0.042244,-0.186030,0.225162,-0.152112,0.212839,0.062818,0.213798,-0.031232,0.222085]
[0.000000,0.000000,0.000000,0.259671,0.168329,-0.189596,-0.017513,-0.130880,-0.043689,-0.185997,0.224915,-0.151945,0.213296,0.063348,0.214009,-0.030867,0.221971]
[0.000000,0.000000,0.000000,0.259047,0.168955,-0.190847,-0.017036,-0.130980,-0.044001,-0.186006,0.224990,-0.151994,0.213919,0.063947,0.213954,-0.030980,0.222006]
[0.000000,0.000000,0.000000,0.258903,0.169069,-0.192133,-0.016710,-0.131106,-0.043939,-0.185917,0.225023,-0.152008,0.214629,0.064195,0.214866,-0.031082,0.221889]
[0.000000,0.000000,0.000000,0.259014,0.169007,-0.193142,-0.015748,-0.130938,-0.044052,-0.186064,0.224996,-0.152002,0.215024,0.063909,0.216215,-0.030958,0.222089]
[0.000000,0.000000,0.000000,0.259018,0.169094,-0.193743,-0.013888,-0.130366,-0.044599,-0.186659,0.224989,-0.152020,0.214962,0.063249,0.217331,-0.030476,0.222797]
[0.000000,0.000000,0.000000,0.258993,0.168755,-0.194235,-0.012516,-0.129707,-0.045354,-0.187233,0.225017,-0.151956,0.215186,0.062948,0.218700,-0.029459,0.222906]
[0.000000,0.000000,0.000000,0.258998,0.168097,-0.194829,-0.012068,-0.129135,-0.045936,-0.187790,0.225019,-0.151945,0.215843,0.063023,0.220514,-0.028235,0.222194]
