callmecarrot/action_slices/G1_ok.txt
[waist_yaw_joint,waist_roll_joint,waist_pitch_joint,left_shoulder_pitch_joint,left_shoulder_roll_joint,left_shoulder_yaw_joint,left_elbow_joint,left_wrist_roll_joint,left_wrist_pitch_joint,left_wrist_yaw_joint,right_shoulder_pitch_joint,right_shoulder_roll_joint,right_shoulder_yaw_joint,right_elbow_joint,right_wrist_roll_joint,right_wrist_pitch_joint,right_wrist_yaw_joint]
[0.00000,0.00000,0.00000,-0.01600,0.00000,0.42800,1.23700,0.70300,-0.05100,0.02000,0.13500,-0.00000,-0.22200,0.97500,-0.67200,-0.05200,-0.02700]
[0.00000,0.00000,0.00000,-0.01630,0.00000,0.42800,1.23700,0.70000,-0.05070,0.02060,0.13530,-0.00000,-0.22170,0.97380,-0.67290,-0.05110,-0.02580]
[0.00000,0.00000,0.00000,-0.01651,0.00000,0.42770,1.23730,0.69880,-0.05229,0.01892,0.13641,-0.00000,-0.22299,0.97176,-0.67323,-0.05317,-0.02166]
[0.00000,0.00000,0.00000,-0.01666,0.00000,0.42599,1.23871,0.70126,-0.05400,0.01924,0.13869,-0.00030,-0.22689,0.96883,-0.67526,-0.05642,-0.01396]
[0.00000,0.00000,0.00000,-0.01556,0.00000,0.42479,1.23820,0.70358,-0.05640,0.01587,0.14028,-0.00021,-0.23173,0.96738,-0.68658,-0.06199,-0.00557]
[0.00000,0.00000,0.00000,-0.01539,0.00000,0.42216,1.23754,0.69891,-0.05478,0.01651,0.14110,-0.00015,-0.23481,0.96667,-0.69151,-0.06440,-0.00660]
[0.00000,0.00000,0.00000,-0.01467,0.00000,0.41911,1.23678,0.69234,-0.05335,0.01546,0.14077,-0.00010,-0.23397,0.96857,-0.68956,-0.06458,-0.01032]
[0.00000,0.00000,0.00000,-0.01447,0.00000,0.41398,1.23684,0.68623,-0.04964,0.01682,0.14114,-0.00007,-0.23188,0.96900,-0.69119,-0.07040,-0.01052]
[0.00000,0.00000,0.00000,-0.01493,0.00000,0.40738,1.23809,0.67746,-0.04615,0.02197,0.14140,-0.00005,-0.23251,0.96810,-0.69263,-0.08318,-0.00257]
[0.00000,0.00000,0.00000,-0.01465,0.00000,0.39977,1.23806,0.66802,-0.04371,0.02438,0.14008,-0.00004,-0.23206,0.96537,-0.68974,-0.09363,0.00300]
[0.00000,0.00000,0.00000,-0.01386,0.00000,0.38904,1.23564,0.66232,-0.03629,0.02817,0.13585,-0.00002,-0.22484,0.95686,-0.67392,-0.09914,0.01560]
[0.00000,0.00000,0.00000,-0.01180,0.00000,0.37733,1.23095,0.65112,-0.03111,0.02752,0.12330,-0.00002,-0.20869,0.94700,-0.66164,-0.11560,0.01782]
[0.00000,0.00000,0.00000,-0.00976,0.00000,0.36313,1.22497,0.64149,-0.02747,0.02616,0.09531,-0.00001,-0.15088,0.90410,-0.65575,-0.11062,0.00257]
[0.00000,0.00000,0.00000,-0.00863,0.00000,0.35139,1.22258,0.63714,-0.02793,0.02281,0.06792,-0.00091,-0.09662,0.85397,-0.63723,-0.11523,-0.01260]
[0.00000,0.00000,0.00000,-0.00694,0.00000,0.34227,1.22000,0.63320,-0.02825,0.02047,0.04904,-0.00784,-0.04873,0.81738,-0.61256,-0.11846,-0.02322]
[0.00000,0.00000,0.00000,-0.00516,0.00000,0.33469,1.21760,0.62954,-0.02848,0.01883,0.03643,-0.01719,-0.00891,0.79057,-0.58779,-0.12072,-0.03065]
[0.00000,0.00000,0.00000,-0.00361,0.00000,0.32878,1.21562,0.62638,-0.02863,0.01768,0.02790,-0.02583,0.02196,0.77150,-0.56685,-0.12231,-0.03586]
[0.00000,0.00000,0.00000,-0.00073,0.00000,0.32615,1.21124,0.61846,-0.02904,0.01688,-0.00627,-0.03338,0.05227,0.66905,-0.54710,-0.10661,-0.02270]
[0.00000,0.00000,0.00000,0.00279,0.00000,0.32580,1.20606,0.61382,-0.02963,0.01631,-0.03469,-0.04317,0.07799,0.58923,-0.52727,-0.09503,-0.01169]
[0.00000,0.00000,0.00000,0.00525,0.00000,0.32616,1.20245,0.61118,-0.03004,0.01592,-0.05548,-0.05362,0.09899,0.53336,-0.50889,-0.08692,-0.00398]
[0.00000,0.00000,0.00000,0.00848,0.00000,0.32791,1.20141,0.61322,-0.03753,0.01954,-0.08954,-0.06693,0.13470,0.45135,-0.49122,-0.04644,-0.00849]
[0.00000,0.00000,0.00000,0.01223,0.00000,0.32794,1.19829,0.62636,-0.03887,0.01998,-0.15208,-0.08585,0.17379,0.35255,-0.45815,-0.02291,-0.00894]
[0.00000,0.00000,0.00000,0.01486,0.00000,0.32946,1.19460,0.63315,-0.03651,0.01849,-0.21175,-0.10660,0.20715,0.27468,-0.43111,-0.01154,-0.01286]
[0.00000,0.00000,0.00000,0.01670,0.00000,0.33082,1.19022,0.63070,-0.03426,0.01504,-0.28353,-0.12862,0.24011,0.19348,-0.40888,0.01352,-0.00840]
[0.00000,0.00000,0.00000,0.01889,0.00000,0.32997,1.18775,0.63409,-0.03658,0.01503,-0.35117,-0.14823,0.26377,0.13603,-0.38671,0.02327,-0.00018]
[0.00000,0.00000,0.00000,0.02133,0.00000,0.32788,1.18423,0.63197,-0.03281,0.01562,-0.41922,-0.16106,0.28064,0.08652,-0.36310,0.05019,0.01067]
[0.00000,0.00000,0.00000,0.02453,0.00000,0.32402,1.18086,0.62778,-0.02836,0.01363,-0.48785,-0.17154,0.30115,0.04077,-0.34867,0.06513,-0.00003]
[0.00000,0.00000,0.00000,0.02857,0.00000,0.32221,1.17820,0.62064,-0.02915,0.01194,-0.54970,-0.17918,0.31520,0.01534,-0.35237,0.04019,-0.03152]
[0.00000,0.00000,0.00000,0.03140,0.00000,0.32155,1.17904,0.61685,-0.03811,0.01526,-0.61549,-0.18183,0.32534,-0.02136,-0.38616,-0.00247,-0.08746]
[0.00000,0.00000,0.00000,0.03278,0.00000,0.32288,1.18023,0.62230,-0.04558,0.01818,-0.67324,-0.17948,0.33244,-0.03895,-0.41161,-0.03563,-0.12992]
[0.00000,0.00000,0.00000,0.03075,0.00000,0.32232,1.18196,0.60901,-0.04090,0.02233,-0.72927,-0.18293,0.33741,-0.03987,-0.49063,-0.12664,-0.21845]
[0.00000,0.00000,0.00000,0.03082,0.00000,0.31232,1.17657,0.59550,-0.03133,0.02223,-0.79069,-0.18445,0.34089,-0.08911,-0.58974,-0.16515,-0.28851]
[0.00000,0.00000,0.00000,0.03298,0.00000,0.30173,1.17160,0.58485,-0.02733,0.02276,-0.83488,-0.18612,0.34332,-0.12838,-0.65882,-0.18910,-0.33576]
[0.00000,0.00000,0.00000,0.03718,0.00000,0.29251,1.17052,0.58190,-0.02843,0.02073,-0.87422,-0.19598,0.34502,-0.17776,-0.75217,-0.19507,-0.38383]
[0.00000,0.00000,0.00000,0.03923,0.00000,0.28996,1.17126,0.58553,-0.03160,0.01571,-0.90355,-0.20469,0.34622,-0.22133,-0.83852,-0.19115,-0.42168]
[0.00000,0.00000,0.00000,0.03856,0.00000,0.29507,1.17298,0.59017,-0.03532,0.00560,-0.92589,-0.20928,0.34705,-0.26863,-0.91366,-0.18361,-0.44818]
[0.00000,0.00000,0.00000,0.03809,0.00000,0.30075,1.17329,0.60122,-0.03643,-0.00238,-0.94092,-0.21370,0.34764,-0.30294,-0.97377,-0.18102,-0.47242]
[0.00000,0.00000,0.00000,0.03686,0.00000,0.30862,1.17380,0.60415,-0.03420,-0.00377,-0.94934,-0.21439,0.34805,-0.32636,-1.02064,-0.18762,-0.50170]
[0.00000,0.00000,0.00000,0.03510,0.00000,0.31534,1.17326,0.59451,-0.03174,0.00096,-0.95434,-0.21217,0.34833,-0.34155,-1.04594,-0.18443,-0.52159]
[0.00000,0.00000,0.00000,0.03447,0.00000,0.31794,1.17468,0.59166,-0.03452,0.00097,-0.95664,-0.21212,0.34853,-0.34409,-1.06456,-0.17530,-0.53161]
[0.00000,0.00000,0.00000,0.03553,0.00000,0.32275,1.17568,0.59746,-0.04036,-0.00082,-0.95615,-0.21148,0.34867,-0.33116,-1.08029,-0.17071,-0.54763]
[0.00000,0.00000,0.00000,0.03537,0.00000,0.32733,1.17487,0.60542,-0.03905,0.00213,-0.95700,-0.20954,0.34877,-0.32331,-1.08741,-0.16900,-0.56034]
[0.00000,0.00000,0.00000,0.03436,0.00000,0.32723,1.17641,0.60889,-0.03634,0.00539,-0.96060,-0.20668,0.34884,-0.33462,-1.08968,-0.16270,-0.55124]
[0.00000,0.00000,0.00000,0.03215,0.00000,0.32896,1.18049,0.60083,-0.03564,0.01277,-0.96462,-0.20587,0.34889,-0.34523,-1.08708,-0.15769,-0.54187]
[0.00000,0.00000,0.00000,0.02971,0.00000,0.32387,1.18304,0.58558,-0.03605,0.01524,-0.96534,-0.20561,0.34892,-0.34366,-1.09035,-0.16348,-0.54791]
[0.00000,0.00000,0.00000,0.02919,0.00000,0.32031,1.18303,0.57130,-0.03663,0.01667,-0.96613,-0.20483,0.34894,-0.34136,-1.09385,-0.16784,-0.55273]
[0.00000,0.00000,0.00000,0.02794,0.00000,0.31542,1.18422,0.57361,-0.03764,0.01887,-0.96729,-0.20398,0.34896,-0.34005,-1.09509,-0.16879,-0.55251]
[0.00000,0.00000,0.00000,0.02646,0.00000,0.31049,1.18385,0.57433,-0.03715,0.01951,-0.96841,-0.20279,0.34897,-0.33944,-1.09567,-0.16885,-0.55176]
[0.00000,0.00000,0.00000,0.02752,0.00000,0.30794,1.17850,0.56913,-0.03020,0.00916,-0.96918,-0.20045,0.34898,-0.34021,-1.09337,-0.16890,-0.54793]
[0.00000,0.00000,0.00000,0.02886,0.00000,0.30706,1.17505,0.57149,-0.02594,0.00551,-0.96643,-0.19432,0.34899,-0.33924,-1.09116,-0.17193,-0.54645]
[0.00000,0.00000,0.00000,0.03010,0.00000,0.31094,1.17233,0.57614,-0.02536,-0.00034,-0.95880,-0.19092,0.34899,-0.33317,-1.08631,-0.18515,-0.56042]
[0.00000,0.00000,0.00000,0.02977,0.00000,0.31696,1.16863,0.58030,-0.01355,-0.00834,-0.94836,-0.18794,0.34899,-0.34182,-1.07272,-0.18810,-0.56389]
[0.00000,0.00000,0.00000,0.03044,0.00000,0.32387,1.16184,0.58201,-0.00679,-0.01784,-0.93445,-0.19066,0.34900,-0.35807,-1.05450,-0.18747,-0.56332]
[0.00000,0.00000,0.00000,0.03241,0.00000,0.32571,1.15379,0.58861,0.00035,-0.02809,-0.91692,-0.19586,0.34900,-0.37965,-1.03515,-0.18973,-0.56173]
[0.00000,0.00000,0.00000,0.03529,0.00000,0.33000,1.14635,0.59023,0.00564,-0.03646,-0.90014,-0.20400,0.34900,-0.40226,-1.01111,-0.19071,-0.56211]
[0.00000,0.00000,0.00000,0.03610,0.00000,0.33390,1.14595,0.59706,0.00155,-0.04022,-0.87970,-0.21510,0.34900,-0.41658,-0.99277,-0.19560,-0.57078]
[0.00000,0.00000,0.00000,0.03547,0.00000,0.33663,1.14836,0.60184,-0.00131,-0.04106,-0.85729,-0.22617,0.34900,-0.43171,-0.97214,-0.19422,-0.57174]
[0.00000,0.00000,0.00000,0.03143,0.00000,0.33554,1.15815,0.59469,0.00178,-0.02754,-0.82990,-0.23302,0.34900,-0.44019,-0.93310,-0.19265,-0.56162]
[0.00000,0.00000,0.00000,0.02710,0.00000,0.33088,1.16711,0.59238,0.00245,-0.01808,-0.79363,-0.23091,0.34900,-0.43564,-0.89077,-0.19126,-0.54103]
[0.00000,0.00000,0.00000,0.02407,0.00000,0.32491,1.17728,0.58387,-0.00339,-0.00665,-0.74454,-0.21774,0.34900,-0.40185,-0.86324,-0.20738,-0.53172]
[0.00000,0.00000,0.00000,0.02165,0.00000,0.31834,1.18559,0.57611,-0.01107,0.00254,-0.68648,-0.18902,0.34900,-0.34969,-0.85177,-0.21537,-0.52791]
[0.00000,0.00000,0.00000,0.02085,0.00000,0.31584,1.19232,0.56977,-0.02125,0.00658,-0.61374,-0.14191,0.34900,-0.27418,-0.87224,-0.21886,-0.52373]
[0.00000,0.00000,0.00000,0.01940,0.00000,0.31589,1.19852,0.57404,-0.03137,0.00821,-0.54001,-0.09934,0.34900,-0.19943,-0.89257,-0.22730,-0.52231]
[0.00000,0.00000,0.00000,0.01808,0.00000,0.32132,1.20286,0.58033,-0.04266,0.00244,-0.47041,-0.06954,0.34900,-0.13840,-0.89210,-0.23291,-0.51622]
[0.00000,0.00000,0.00000,0.01566,0.00000,0.32782,1.20591,0.58503,-0.05026,-0.00309,-0.41269,-0.04868,0.34900,-0.09118,-0.88967,-0.23564,-0.51135]
[0.00000,0.00000,0.00000,0.01276,0.00000,0.33118,1.20953,0.59222,-0.05198,0.00234,-0.36088,-0.03437,0.34900,-0.05123,-0.88437,-0.23785,-0.50705]
[0.00000,0.00000,0.00000,0.01253,0.00000,0.33472,1.21057,0.60536,-0.05619,0.00674,-0.31202,-0.02706,0.34900,-0.01936,-0.87346,-0.24149,-0.49893]
[0.00000,0.00000,0.00000,0.01087,0.00000,0.34111,1.21190,0.61125,-0.06123,0.00082,-0.26071,-0.02554,0.34900,0.01615,-0.85142,-0.25784,-0.48725]
[0.00000,0.00000,0.00000,0.00941,0.00000,0.34947,1.21373,0.61897,-0.06686,-0.00603,-0.20620,-0.03168,0.34900,0.06110,-0.82159,-0.27259,-0.47938]
[0.00000,0.00000,0.00000,0.00629,0.00000,0.35623,1.21741,0.62888,-0.06870,-0.00962,-0.15694,-0.04108,0.34900,0.09977,-0.79232,-0.27931,-0.47716]
[0.00000,0.00000,0.00000,0.00290,0.00000,0.36186,1.21909,0.62922,-0.06579,-0.01093,-0.11226,-0.05215,0.34900,0.13254,-0.75922,-0.28522,-0.47591]
[0.00000,0.00000,0.00000,-0.00007,0.00000,0.36400,1.22146,0.63425,-0.06165,-0.00195,-0.07738,-0.06231,0.34900,0.15998,-0.73335,-0.29205,-0.47654]
[0.00000,0.00000,0.00000,-0.00095,0.00000,0.36670,1.22012,0.63598,-0.05756,-0.00437,-0.04757,-0.07092,0.34900,0.18969,-0.70895,-0.29594,-0.47608]
[0.00000,0.00000,0.00000,-0.00126,0.00000,0.36949,1.22069,0.63178,-0.05529,-0.00636,-0.02070,-0.07784,0.34900,0.22788,-0.68766,-0.30016,-0.47905]
[0.00000,0.00000,0.00000,-0.00028,0.00000,0.36844,1.21688,0.62825,-0.04860,-0.01195,0.00381,-0.08329,0.34900,0.30322,-0.67696,-0.33221,-0.49494]
[0.00000,0.00000,0.00000,0.00160,0.00000,0.36711,1.21632,0.62307,-0.04902,-0.01677,0.02127,-0.08770,0.34900,0.38025,-0.65838,-0.35345,-0.50246]
[0.00000,0.00000,0.00000,0.00502,0.00000,0.36738,1.21232,0.62365,-0.04932,-0.02014,0.03829,-0.08869,0.34900,0.44108,-0.63276,-0.35781,-0.49572]
[0.00000,0.00000,0.00000,0.00681,0.00000,0.36786,1.21012,0.62406,-0.04922,-0.01949,0.05530,-0.08608,0.34900,0.48965,-0.60793,-0.35367,-0.48770]
[0.00000,0.00000,0.00000,0.00717,0.00000,0.36761,1.20769,0.62614,-0.04585,-0.02085,0.07141,-0.08396,0.34900,0.52636,-0.58755,-0.34657,-0.47639]
[0.00000,0.00000,0.00000,0.00652,0.00000,0.36712,1.20658,0.62190,-0.04110,-0.02059,0.08629,-0.08277,0.34900,0.55205,-0.56279,-0.33500,-0.46247]
[0.00000,0.00000,0.00000,0.00636,0.00000,0.36499,1.20341,0.61833,-0.03747,-0.02191,0.10000,-0.08374,0.34720,0.58953,-0.53495,-0.32930,-0.44493]
[0.00000,0.00000,0.00000,0.00655,0.00000,0.36289,1.20328,0.61103,-0.03763,-0.02044,0.10930,-0.08622,0.34264,0.65027,-0.50227,-0.32861,-0.42095]
[0.00000,0.00000,0.00000,0.00609,0.00000,0.35992,1.20680,0.60562,-0.03924,-0.01041,0.12031,-0.09095,0.31995,0.70389,-0.47519,-0.30713,-0.36607]
[0.00000,0.00000,0.00000,0.00666,0.00000,0.35725,1.20836,0.61353,-0.04247,-0.01209,0.13162,-0.09127,0.29116,0.74952,-0.45773,-0.27259,-0.31565]
[0.00000,0.00000,0.00000,0.00706,0.00000,0.35657,1.20675,0.62357,-0.03873,-0.01176,0.14373,-0.08999,0.25901,0.78987,-0.45181,-0.22111,-0.25515]
[0.00000,0.00000,0.00000,0.00554,0.00000,0.35580,1.21313,0.62970,-0.04421,-0.00253,0.15221,-0.08609,0.22571,0.83221,-0.45067,-0.18418,-0.20471]
[0.00000,0.00000,0.00000,0.00448,0.00000,0.35886,1.21699,0.63519,-0.04715,-0.00597,0.15995,-0.07826,0.19640,0.86094,-0.45167,-0.14272,-0.16759]
[0.00000,0.00000,0.00000,0.00344,0.00000,0.36100,1.21909,0.64113,-0.04830,-0.00688,0.16656,-0.07158,0.17318,0.88346,-0.45297,-0.11431,-0.14162]
[0.00000,0.00000,0.00000,0.00211,0.00000,0.36400,1.22236,0.64169,-0.04911,-0.00212,0.17119,-0.06511,0.15302,0.89622,-0.45448,-0.08572,-0.11593]
[0.00000,0.00000,0.00000,0.00057,0.00000,0.36640,1.22435,0.64389,-0.04818,0.00092,0.17564,-0.05968,0.14042,0.90396,-0.45883,-0.06480,-0.09885]
[0.00000,0.00000,0.00000,-0.00020,0.00000,0.36988,1.22365,0.64332,-0.04812,0.00544,0.17815,-0.05647,0.13279,0.91117,-0.46188,-0.05136,-0.08930]
[0.00000,0.00000,0.00000,-0.00044,0.00000,0.37172,1.22285,0.64292,-0.04809,0.00861,0.17930,-0.05543,0.12415,0.91682,-0.47092,-0.04285,-0.07721]
[0.00000,0.00000,0.00000,-0.00241,0.00000,0.36790,1.22410,0.63665,-0.04476,0.01263,0.17951,-0.05290,0.11391,0.91867,-0.47454,-0.03630,-0.06725]
[0.00000,0.00000,0.00000,-0.00078,0.00000,0.36493,1.22287,0.63555,-0.04603,0.01184,0.17906,-0.04993,0.10584,0.92087,-0.48038,-0.03141,-0.06357]
