callmecarrot/action_slices/G1_ok2.txt
[waist_yaw_joint,waist_roll_joint,waist_pitch_joint,left_shoulder_pitch_joint,left_shoulder_roll_joint,left_shoulder_yaw_joint,left_elbow_joint,left_wrist_roll_joint,left_wrist_pitch_joint,left_wrist_yaw_joint,right_shoulder_pitch_joint,right_shoulder_roll_joint,right_shoulder_yaw_joint,right_elbow_joint,right_wrist_roll_joint,right_wrist_pitch_joint,right_wrist_yaw_joint]
[0.00000,0.00000,0.00000,-0.11100,0.00000,0.46100,1.26200,0.69400,-0.01000,-0.11900,0.09000,-0.00000,-0.20100,0.94200,-0.34900,-0.03200,0.03200]
[0.00000,0.00000,0.00000,-0.11100,0.00000,0.46100,1.26200,0.69400,-0.01000,-0.11900,0.09000,-0.00000,-0.20100,0.94200,-0.34900,-0.03200,0.03200]
[0.00000,0.00000,0.00000,-0.11100,0.00000,0.46100,1.26200,0.69400,-0.01000,-0.11900,0.09000,-0.00000,-0.20100,0.94200,-0.34900,-0.03200,0.03200]
[0.00000,0.00000,0.00000,-0.11100,0.00000,0.46100,1.26200,0.69400,-0.01000,-0.11900,0.09000,-0.00000,-0.20100,0.94200,-0.34900,-0.03200,0.03200]
[0.00000,0.00000,0.00000,-0.11100,0.00000,0.46100,1.26200,0.69400,-0.01000,-0.11900,0.09000,-0.00000,-0.20100,0.94200,-0.34900,-0.03200,0.03200]
[0.00000,0.00000,0.00000,-0.11090,0.00000,0.46140,1.26010,0.69240,-0.00770,-0.11970,0.08860,-0.00000,-0.20030,0.94670,-0.35190,-0.03460,0.02960]
[0.00000,0.00000,0.00000,-0.11071,0.00000,0.46166,1.25829,0.69096,-0.00563,-0.12033,0.08704,-0.00000,-0.19987,0.95123,-0.35471,-0.03694,0.02744]
[0.00000,0.00000,0.00000,-0.11044,0.00000,0.46229,1.25646,0.69026,-0.00347,-0.12200,0.08634,-0.00000,-0.19918,0.95181,-0.35604,-0.03625,0.02760]
[0.00000,0.00000,0.00000,-0.11030,0.00000,0.46256,1.25491,0.68944,-0.00152,-0.12340,0.08610,-0.00000,-0.19846,0.95173,-0.35794,-0.03562,0.02794]
[0.00000,0.00000,0.00000,-0.11017,0.00000,0.46291,1.25392,0.68939,-0.00207,-0.12526,0.08569,-0.00000,-0.19772,0.95285,-0.35774,-0.03536,0.02694]
[0.00000,0.00000,0.00000,-0.11005,0.00000,0.46322,1.25303,0.68935,-0.00256,-0.12693,0.08532,-0.00000,-0.19715,0.95387,-0.35767,-0.03512,0.02605]
[0.00000,0.00000,0.00000,-0.11014,0.00000,0.46420,1.25273,0.68772,-0.00321,-0.12814,0.08509,-0.00000,-0.19653,0.95438,-0.35720,-0.03421,0.02414]
[0.00000,0.00000,0.00000,-0.11023,0.00000,0.46508,1.25246,0.68625,-0.00378,-0.12922,0.08488,-0.00000,-0.19598,0.95484,-0.35678,-0.03339,0.02243]
[0.00000,0.00000,0.00000,-0.11081,0.00000,0.46547,1.25251,0.68512,-0.00441,-0.12970,0.08459,-0.00000,-0.19488,0.95416,-0.35650,-0.03195,0.02089]
[0.00000,0.00000,0.00000,-0.11133,0.00000,0.46512,1.25246,0.68351,-0.00497,-0.13003,0.08433,-0.00000,-0.19309,0.95354,-0.35555,-0.03066,0.01940]
[0.00000,0.00000,0.00000,-0.11209,0.00000,0.46401,1.25021,0.68466,-0.00887,-0.13033,0.08380,-0.00000,-0.19128,0.95279,-0.35520,-0.03169,0.01926]
[0.00000,0.00000,0.00000,-0.11248,0.00000,0.46151,1.24489,0.69009,-0.01418,-0.13040,0.08192,-0.00000,-0.19066,0.95311,-0.35608,-0.03432,0.02043]
[0.00000,0.00000,0.00000,-0.11304,0.00000,0.45936,1.23860,0.69298,-0.01866,-0.13126,0.07953,-0.00000,-0.19039,0.95310,-0.35777,-0.03799,0.02289]
[0.00000,0.00000,0.00000,-0.12193,0.00000,0.45062,1.22594,0.68609,-0.02070,-0.12343,0.07168,-0.00000,-0.19015,0.94789,-0.35959,-0.04779,0.02680]
[0.00000,0.00000,0.00000,-0.13054,0.00000,0.43826,1.21055,0.67558,-0.02333,-0.11719,0.06161,-0.00000,-0.18814,0.94260,-0.36313,-0.05661,0.02832]
[0.00000,0.00000,0.00000,-0.13689,0.00000,0.42463,1.19509,0.66392,-0.02570,-0.11157,0.05195,-0.00000,-0.18652,0.93854,-0.36632,-0.06455,0.02969]
[0.00000,0.00000,0.00000,-0.14650,0.00010,0.40977,1.16458,0.65713,-0.03153,-0.10301,0.03705,-0.00000,-0.18407,0.91639,-0.36509,-0.06890,0.03022]
[0.00000,0.00000,0.00000,-0.15565,0.00019,0.39379,1.13053,0.65031,-0.03587,-0.09401,0.02195,-0.00000,-0.18206,0.89225,-0.36058,-0.07371,0.03200]
[0.00000,0.00000,0.00000,-0.16328,0.00027,0.37881,1.09917,0.64378,-0.03979,-0.08591,0.00815,-0.00000,-0.18036,0.87072,-0.35652,-0.07803,0.03360]
[0.00000,0.00000,0.00000,-0.17005,0.00034,0.36533,1.07086,0.63780,-0.04331,-0.07862,-0.00436,-0.00000,-0.17882,0.85135,-0.35287,-0.08193,0.03504]
[0.00000,0.00000,0.00000,-0.17615,0.00041,0.35320,1.04537,0.63242,-0.04648,-0.07206,-0.01563,-0.00000,-0.17744,0.83392,-0.34958,-0.08544,0.03633]
[0.00000,0.00000,0.00000,-0.18163,0.00047,0.34228,1.02243,0.62758,-0.04933,-0.06615,-0.02576,-0.00000,-0.17619,0.81822,-0.34662,-0.08859,0.03750]
[0.00000,0.00000,0.00000,-0.18657,0.00052,0.33245,1.00179,0.62322,-0.05190,-0.06084,-0.03489,-0.00000,-0.17508,0.80410,-0.34396,-0.09144,0.03855]
[0.00000,0.00000,0.00000,-0.19101,0.00057,0.32361,0.98321,0.61930,-0.05421,-0.05605,-0.04310,-0.00000,-0.17407,0.79139,-0.34157,-0.09399,0.03950]
[0.00000,0.00000,0.00000,-0.19501,0.00061,0.31565,0.96649,0.61577,-0.05629,-0.05175,-0.05049,-0.00000,-0.17316,0.77995,-0.33941,-0.09629,0.04035]
[0.00000,0.00000,0.00000,-0.20531,0.00265,0.30668,0.90614,0.60749,-0.05176,-0.04307,-0.06964,-0.00040,-0.16644,0.72916,-0.32967,-0.09076,0.03581]
[0.00000,0.00000,0.00000,-0.21378,0.00709,0.29501,0.83653,0.59774,-0.04628,-0.03067,-0.09268,-0.00486,-0.15500,0.66944,-0.32020,-0.07799,0.02693]
[0.00000,0.00000,0.00000,-0.22080,0.01398,0.28231,0.76017,0.58507,-0.04115,-0.01910,-0.11681,-0.01367,-0.14300,0.61100,-0.31388,-0.06909,0.02004]
[0.00000,0.00000,0.00000,-0.22692,0.02198,0.26908,0.68396,0.57776,-0.03644,-0.00519,-0.14153,-0.02191,-0.13180,0.55090,-0.30699,-0.06018,0.01483]
[0.00000,0.00000,0.00000,-0.23203,0.02968,0.25257,0.60346,0.57499,-0.03099,0.01423,-0.16717,-0.03362,-0.11472,0.48131,-0.30099,-0.03946,0.00225]
[0.00000,0.00000,0.00000,-0.23763,0.03901,0.23222,0.52081,0.57449,-0.02179,0.03541,-0.19276,-0.04655,-0.09735,0.41118,-0.29779,-0.02602,-0.00927]
[0.00000,0.00000,0.00000,-0.24306,0.04891,0.21189,0.44273,0.57374,-0.01052,0.05567,-0.21728,-0.05880,-0.08151,0.34466,-0.29721,-0.01261,-0.02045]
[0.00000,0.00000,0.00000,-0.25086,0.06042,0.19080,0.36416,0.57407,0.00644,0.07390,-0.24285,-0.07102,-0.06596,0.27829,-0.29729,0.00295,-0.03190]
[0.00000,0.00000,0.00000,-0.25957,0.07288,0.16992,0.29454,0.57536,0.01579,0.09951,-0.26857,-0.08272,-0.05237,0.22276,-0.29706,0.00415,-0.04731]
[0.00000,0.00000,0.00000,-0.26941,0.08409,0.15083,0.22979,0.58042,0.01941,0.12886,-0.29521,-0.09235,-0.04263,0.17209,-0.30336,0.00024,-0.06448]
[0.00000,0.00000,0.00000,-0.28047,0.09428,0.13155,0.16811,0.59318,0.01457,0.16617,-0.32329,-0.10411,-0.02887,0.12288,-0.31402,-0.00759,-0.09543]
[0.00000,0.00000,0.00000,-0.29323,0.10325,0.11189,0.10890,0.61336,0.00641,0.20246,-0.35226,-0.11560,-0.01508,0.07619,-0.32622,-0.01683,-0.12739]
[0.00000,0.00000,0.00000,-0.30900,0.10953,0.09150,0.05251,0.63453,0.00087,0.23441,-0.38313,-0.12734,-0.00087,0.03077,-0.34150,-0.02384,-0.15895]
[0.00000,0.00000,0.00000,-0.32750,0.11868,0.06825,-0.00254,0.65667,0.00279,0.26267,-0.41212,-0.13791,0.01062,-0.00721,-0.35795,-0.03696,-0.18936]
[0.00000,0.00000,0.00000,-0.34515,0.12351,0.05143,-0.04799,0.68221,-0.01449,0.29420,-0.43951,-0.14602,0.01815,-0.03748,-0.38165,-0.06126,-0.22622]
[0.00000,0.00000,0.00000,-0.36204,0.12526,0.03639,-0.08759,0.70759,-0.03064,0.32298,-0.46496,-0.15261,0.02534,-0.06504,-0.40399,-0.08264,-0.25950]
[0.00000,0.00000,0.00000,-0.37783,0.12653,0.02525,-0.12523,0.73883,-0.04958,0.35018,-0.48996,-0.16075,0.03320,-0.10003,-0.42849,-0.09947,-0.29075]
[0.00000,0.00000,0.00000,-0.39465,0.12948,0.01442,-0.16391,0.77014,-0.06402,0.37287,-0.51297,-0.16948,0.04018,-0.13773,-0.44914,-0.11363,-0.31757]
[0.00000,0.00000,0.00000,-0.41009,0.13373,0.00318,-0.19932,0.79783,-0.07592,0.39498,-0.53327,-0.17803,0.04677,-0.17276,-0.46843,-0.12826,-0.34412]
[0.00000,0.00000,0.00000,-0.42368,0.13656,-0.00724,-0.23098,0.82605,-0.08933,0.41738,-0.55154,-0.18413,0.05189,-0.20538,-0.48738,-0.14444,-0.36790]
[0.00000,0.00000,0.00000,-0.43541,0.13670,-0.01541,-0.25879,0.85384,-0.10609,0.43784,-0.56869,-0.18891,0.05650,-0.23664,-0.50525,-0.15719,-0.38811]
[0.00000,0.00000,0.00000,-0.44567,0.13353,-0.02327,-0.28381,0.88126,-0.12308,0.45666,-0.58452,-0.19212,0.06025,-0.26528,-0.52372,-0.17007,-0.40660]
[0.00000,0.00000,0.00000,-0.45470,0.12948,-0.03075,-0.30643,0.90723,-0.13838,0.47359,-0.59877,-0.19471,0.06383,-0.29095,-0.54065,-0.18167,-0.42324]
[0.00000,0.00000,0.00000,-0.46373,0.12633,-0.03777,-0.32768,0.93231,-0.15074,0.48733,-0.61219,-0.19764,0.06724,-0.31546,-0.55818,-0.19320,-0.43982]
[0.00000,0.00000,0.00000,-0.47226,0.12370,-0.04379,-0.34652,0.95488,-0.16186,0.49960,-0.62437,-0.20028,0.07022,-0.33751,-0.57407,-0.20368,-0.45484]
[0.00000,0.00000,0.00000,-0.48063,0.12303,-0.05031,-0.36456,0.97379,-0.16778,0.50874,-0.63443,-0.20205,0.07290,-0.35646,-0.58856,-0.21421,-0.46865]
[0.00000,0.00000,0.00000,-0.48797,0.12372,-0.05648,-0.38081,0.99001,-0.17150,0.51707,-0.64279,-0.20364,0.07571,-0.37331,-0.60200,-0.22479,-0.48169]
[0.00000,0.00000,0.00000,-0.49377,0.12555,-0.06233,-0.39513,1.00431,-0.17395,0.52546,-0.64861,-0.20468,0.07864,-0.38648,-0.61630,-0.23681,-0.49562]
[0.00000,0.00000,0.00000,-0.49839,0.12750,-0.06730,-0.40791,1.01828,-0.17646,0.53381,-0.65335,-0.20491,0.08157,-0.39823,-0.63087,-0.24863,-0.50836]
[0.00000,0.00000,0.00000,-0.50246,0.12865,-0.07187,-0.42032,1.02995,-0.17981,0.54053,-0.65832,-0.20612,0.08522,-0.41041,-0.64389,-0.25537,-0.51952]
[0.00000,0.00000,0.00000,-0.50611,0.12978,-0.07608,-0.43169,1.04106,-0.18313,0.54658,-0.66308,-0.20791,0.08859,-0.42167,-0.65560,-0.26043,-0.52967]
[0.00000,0.00000,0.00000,-0.50910,0.13020,-0.07968,-0.44172,1.05125,-0.18702,0.55242,-0.66758,-0.20952,0.09153,-0.43170,-0.66464,-0.26519,-0.53840]
[0.00000,0.00000,0.00000,-0.51179,0.13038,-0.08271,-0.45105,1.06113,-0.19061,0.55778,-0.67162,-0.21107,0.09408,-0.44063,-0.67317,-0.26927,-0.54616]
[0.00000,0.00000,0.00000,-0.51421,0.13005,-0.08574,-0.45944,1.06971,-0.19275,0.56230,-0.67516,-0.21246,0.09627,-0.44857,-0.68066,-0.27344,-0.55315]
[0.00000,0.00000,0.00000,-0.51629,0.12914,-0.08816,-0.46680,1.07834,-0.19578,0.56687,-0.67834,-0.21351,0.09795,-0.45541,-0.68749,-0.27790,-0.55963]
[0.00000,0.00000,0.00000,-0.51836,0.12803,-0.09065,-0.47342,1.08611,-0.19830,0.57098,-0.68111,-0.21426,0.09925,-0.46177,-0.69384,-0.28231,-0.56497]
[0.00000,0.00000,0.00000,-0.52062,0.12742,-0.09358,-0.47958,1.09250,-0.20017,0.57429,-0.68320,-0.21474,0.10013,-0.46739,-0.69946,-0.28668,-0.56947]
[0.00000,0.00000,0.00000,-0.52296,0.12748,-0.09672,-0.48502,1.09835,-0.20145,0.57766,-0.68468,-0.21486,0.10081,-0.47205,-0.70371,-0.29181,-0.57372]
[0.00000,0.00000,0.00000,-0.52497,0.12733,-0.09905,-0.48972,1.10341,-0.20321,0.58059,-0.68571,-0.21518,0.10123,-0.47625,-0.70714,-0.29683,-0.57795]
[0.00000,0.00000,0.00000,-0.52617,0.12630,-0.09975,-0.49305,1.10897,-0.20599,0.58403,-0.68684,-0.21506,0.10081,-0.48132,-0.70823,-0.30115,-0.57986]
[0.00000,0.00000,0.00000,-0.52685,0.12467,-0.09997,-0.49584,1.11507,-0.20889,0.58753,-0.68845,-0.21605,0.10063,-0.48669,-0.70890,-0.30403,-0.58137]
[0.00000,0.00000,0.00000,-0.52697,0.12180,-0.09857,-0.49856,1.12077,-0.21270,0.59008,-0.69041,-0.21795,0.10037,-0.49162,-0.70781,-0.30663,-0.58253]
[0.00000,0.00000,0.00000,-0.52687,0.11802,-0.09692,-0.50120,1.12609,-0.21643,0.59177,-0.69147,-0.21875,0.09813,-0.49496,-0.70683,-0.31087,-0.58348]
[0.00000,0.00000,0.00000,-0.52678,0.11442,-0.09533,-0.50338,1.13108,-0.22069,0.59369,-0.69252,-0.21928,0.09592,-0.49836,-0.70555,-0.31378,-0.58383]
[0.00000,0.00000,0.00000,-0.52690,0.11138,-0.09399,-0.50524,1.13627,-0.22402,0.59562,-0.69357,-0.22015,0.09452,-0.50173,-0.70409,-0.31560,-0.58445]
[0.00000,0.00000,0.00000,-0.52731,0.10824,-0.09249,-0.50632,1.14065,-0.22772,0.59726,-0.69471,-0.22203,0.09387,-0.50415,-0.70238,-0.31684,-0.58600]
[0.00000,0.00000,0.00000,-0.52778,0.10552,-0.09114,-0.50719,1.14448,-0.23104,0.59873,-0.69584,-0.22373,0.09308,-0.50624,-0.70055,-0.31796,-0.58730]
[0.00000,0.00000,0.00000,-0.52870,0.10336,-0.09023,-0.50727,1.14823,-0.23404,0.60106,-0.69706,-0.22446,0.09168,-0.50782,-0.69869,-0.31996,-0.58737]
[0.00000,0.00000,0.00000,-0.52993,0.10143,-0.08941,-0.50764,1.15091,-0.23624,0.60235,-0.69815,-0.22421,0.09001,-0.50873,-0.69832,-0.32196,-0.58764]
[0.00000,0.00000,0.00000,-0.53144,0.10019,-0.08877,-0.50778,1.15282,-0.23801,0.60342,-0.69914,-0.22359,0.08851,-0.50956,-0.69859,-0.32377,-0.58777]
[0.00000,0.00000,0.00000,-0.53270,0.09887,-0.08789,-0.50730,1.15524,-0.24101,0.60478,-0.70022,-0.22293,0.08716,-0.51010,-0.69963,-0.32569,-0.58840]
[0.00000,0.00000,0.00000,-0.53383,0.09708,-0.08690,-0.50687,1.15731,-0.24351,0.60570,-0.70130,-0.22244,0.08604,-0.51059,-0.70077,-0.32682,-0.58876]
[0.00000,0.00000,0.00000,-0.53504,0.09627,-0.08681,-0.50668,1.15938,-0.24416,0.60653,-0.70227,-0.22229,0.08554,-0.51103,-0.70149,-0.32704,-0.58948]
[0.00000,0.00000,0.00000,-0.53604,0.09565,-0.08643,-0.50641,1.16124,-0.24474,0.60718,-0.70324,-0.22247,0.08518,-0.51133,-0.70204,-0.32754,-0.59033]
[0.00000,0.00000,0.00000,-0.53704,0.09548,-0.08649,-0.50617,1.16312,-0.24437,0.60816,-0.70422,-0.22282,0.08507,-0.51130,-0.70274,-0.32788,-0.59160]
[0.00000,0.00000,0.00000,-0.53773,0.09503,-0.08644,-0.50566,1.16471,-0.24463,0.60914,-0.70550,-0.22444,0.08576,-0.51167,-0.70316,-0.32709,-0.59264]
[0.00000,0.00000,0.00000,-0.53836,0.09443,-0.08649,-0.50509,1.16664,-0.24517,0.61023,-0.70665,-0.22569,0.08578,-0.51200,-0.70255,-0.32678,-0.59278]
[0.00000,0.00000,0.00000,-0.53862,0.09349,-0.08644,-0.50448,1.16867,-0.24605,0.61111,-0.70778,-0.22722,0.08590,-0.51280,-0.70219,-0.32561,-0.59290]
[0.00000,0.00000,0.00000,-0.53896,0.09294,-0.08660,-0.50413,1.17031,-0.24635,0.61190,-0.70900,-0.22880,0.08611,-0.51352,-0.70097,-0.32465,-0.59221]
[0.00000,0.00000,0.00000,-0.53916,0.09224,-0.08674,-0.50382,1.17188,-0.24661,0.61261,-0.71000,-0.22992,0.08600,-0.51407,-0.69938,-0.32398,-0.59139]
[0.00000,0.00000,0.00000,-0.53935,0.09162,-0.08687,-0.50354,1.17329,-0.24685,0.61325,-0.71090,-0.23093,0.08590,-0.51456,-0.69794,-0.32338,-0.59065]
[0.00000,0.00000,0.00000,-0.53951,0.09106,-0.08698,-0.50328,1.17456,-0.24707,0.61382,-0.71171,-0.23184,0.08581,-0.51501,-0.69664,-0.32284,-0.58998]
[0.00000,0.00000,0.00000,-0.53966,0.09055,-0.08708,-0.50306,1.17570,-0.24726,0.61434,-0.71244,-0.23265,0.08573,-0.51541,-0.69548,-0.32236,-0.58939]
[0.00000,0.00000,0.00000,-0.54000,0.09010,-0.08757,-0.50255,1.17683,-0.24693,0.61500,-0.71260,-0.23279,0.08476,-0.51516,-0.69533,-0.32312,-0.58895]
[0.00000,0.00000,0.00000,-0.54070,0.09049,-0.08862,-0.50190,1.17735,-0.24564,0.61520,-0.71264,-0.23431,0.08508,-0.51605,-0.69530,-0.32201,-0.58895]
[0.00000,0.00000,0.00000,-0.54113,0.09044,-0.08895,-0.50091,1.17851,-0.24568,0.61608,-0.71287,-0.23538,0.08477,-0.51654,-0.69487,-0.32171,-0.58886]
[0.00000,0.00000,0.00000,-0.54161,0.09039,-0.08926,-0.50001,1.17936,-0.24581,0.61648,-0.71289,-0.23584,0.08450,-0.51639,-0.69528,-0.32224,-0.58947]
[0.00000,0.00000,0.00000,-0.54195,0.09116,-0.09023,-0.49951,1.17833,-0.24383,0.61453,-0.71290,-0.23716,0.08545,-0.51645,-0.69585,-0.31992,-0.59002]
[0.00000,0.00000,0.00000,-0.54006,0.09384,-0.09221,-0.49876,1.17489,-0.23904,0.61288,-0.71031,-0.23864,0.08780,-0.51591,-0.69537,-0.31732,-0.59032]
[0.00000,0.00000,0.00000,-0.53645,0.09936,-0.09559,-0.49829,1.16830,-0.23234,0.61249,-0.70558,-0.23838,0.08922,-0.51511,-0.69383,-0.31649,-0.58909]
[0.00000,0.00000,0.00000,-0.53071,0.10482,-0.09733,-0.49726,1.15957,-0.23001,0.61214,-0.69902,-0.23794,0.09190,-0.51440,-0.69195,-0.31484,-0.58948]
[0.00000,0.00000,0.00000,-0.52424,0.10924,-0.09890,-0.49603,1.15032,-0.22821,0.61102,-0.69192,-0.23754,0.09461,-0.51346,-0.69055,-0.31326,-0.59073]
[0.00000,0.00000,0.00000,-0.51571,0.11311,-0.10061,-0.49483,1.14029,-0.22549,0.60722,-0.68323,-0.23539,0.09735,-0.51272,-0.68800,-0.31093,-0.59026]
[0.00000,0.00000,0.00000,-0.50564,0.11630,-0.10175,-0.49235,1.12946,-0.22604,0.60440,-0.67400,-0.23255,0.10021,-0.51234,-0.68580,-0.30824,-0.58903]
[0.00000,0.00000,0.00000,-0.49238,0.11797,-0.10137,-0.48881,1.11841,-0.22833,0.60216,-0.66290,-0.22920,0.10389,-0.51211,-0.68522,-0.30602,-0.58753]
[0.00000,0.00000,0.00000,-0.47544,0.11998,-0.10213,-0.48363,1.10297,-0.22670,0.59664,-0.64691,-0.22408,0.10780,-0.50580,-0.68470,-0.30781,-0.58898]
[0.00000,0.00000,0.00000,-0.45660,0.12108,-0.10142,-0.47797,1.08467,-0.22603,0.59018,-0.62922,-0.21807,0.11252,-0.50002,-0.68323,-0.30813,-0.58928]
[0.00000,0.00000,0.00000,-0.43654,0.12107,-0.09818,-0.47037,1.07031,-0.22873,0.58396,-0.61060,-0.21326,0.11947,-0.49172,-0.68110,-0.31062,-0.59205]
[0.00000,0.00000,0.00000,-0.41538,0.11936,-0.09486,-0.46283,1.05357,-0.22965,0.57367,-0.58994,-0.20984,0.12762,-0.48115,-0.67949,-0.31186,-0.59535]
[0.00000,0.00000,0.00000,-0.39344,0.11763,-0.09258,-0.45585,1.03492,-0.22649,0.55940,-0.56735,-0.20615,0.13576,-0.46953,-0.67604,-0.31077,-0.59841]
[0.00000,0.00000,0.00000,-0.36960,0.11516,-0.08782,-0.44736,1.01513,-0.22574,0.53986,-0.54041,-0.20144,0.14389,-0.45458,-0.67114,-0.30779,-0.59897]
[0.00000,0.00000,0.00000,-0.34424,0.11055,-0.08074,-0.43403,0.99411,-0.22937,0.51767,-0.51137,-0.19609,0.15150,-0.43722,-0.66493,-0.30691,-0.59947]
[0.00000,0.00000,0.00000,-0.31552,0.10339,-0.07366,-0.41483,0.96610,-0.23693,0.49201,-0.47653,-0.19018,0.15955,-0.41500,-0.65623,-0.30782,-0.59903]
[0.00000,0.00000,0.00000,-0.28686,0.09845,-0.07000,-0.39574,0.93749,-0.23764,0.46901,-0.43918,-0.18527,0.16749,-0.39020,-0.64781,-0.30954,-0.59762]
[0.00000,0.00000,0.00000,-0.25948,0.09501,-0.06720,-0.37927,0.91004,-0.23807,0.44830,-0.40316,-0.18114,0.17484,-0.36908,-0.64023,-0.31109,-0.59626]
[0.00000,0.00000,0.00000,-0.23203,0.09261,-0.06398,-0.35754,0.88454,-0.24387,0.43467,-0.36665,-0.17743,0.17986,-0.34657,-0.63211,-0.31248,-0.59333]
[0.00000,0.00000,0.00000,-0.20593,0.09125,-0.06078,-0.33489,0.86048,-0.24938,0.42241,-0.33088,-0.17398,0.18327,-0.32471,-0.62410,-0.31253,-0.59020]
[0.00000,0.00000,0.00000,-0.18153,0.09032,-0.05730,-0.31320,0.83714,-0.25434,0.40997,-0.29699,-0.17048,0.18605,-0.30544,-0.61579,-0.31088,-0.58618]
[0.00000,0.00000,0.00000,-0.15748,0.08979,-0.05407,-0.28568,0.81432,-0.25901,0.39877,-0.26369,-0.16724,0.18854,-0.28280,-0.60621,-0.30729,-0.58266]
[0.00000,0.00000,0.00000,-0.13363,0.08901,-0.04976,-0.25011,0.79359,-0.26721,0.38919,-0.23152,-0.16421,0.19069,-0.25672,-0.59679,-0.30586,-0.57680]
[0.00000,0.00000,0.00000,-0.11107,0.08621,-0.04319,-0.20350,0.77103,-0.27639,0.37927,-0.19977,-0.15959,0.19082,-0.22265,-0.58901,-0.31057,-0.57152]
[0.00000,0.00000,0.00000,-0.09066,0.08249,-0.03587,-0.15385,0.74673,-0.28325,0.36905,-0.16989,-0.15393,0.19054,-0.18508,-0.58221,-0.31642,-0.56567]
[0.00000,0.00000,0.00000,-0.07190,0.07824,-0.02688,-0.09746,0.72246,-0.28652,0.35564,-0.14131,-0.14614,0.19038,-0.13827,-0.57449,-0.32498,-0.56160]
[0.00000,0.00000,0.00000,-0.05531,0.07322,-0.01709,-0.03892,0.69851,-0.28887,0.34268,-0.11507,-0.13792,0.18974,-0.08635,-0.56784,-0.33358,-0.55734]
[0.00000,0.00000,0.00000,-0.04058,0.06809,-0.00728,0.01687,0.67556,-0.28758,0.32881,-0.09147,-0.12963,0.18767,-0.03301,-0.56135,-0.33992,-0.55201]
[0.00000,0.00000,0.00000,-0.02772,0.06308,0.00374,0.07429,0.65280,-0.28732,0.31353,-0.07072,-0.12107,0.18410,0.02159,-0.55402,-0.34353,-0.54440]
[0.00000,0.00000,0.00000,-0.01755,0.05798,0.01577,0.13826,0.62952,-0.28649,0.29688,-0.05195,-0.11356,0.17689,0.08313,-0.54592,-0.34918,-0.52986]
[0.00000,0.00000,0.00000,-0.01009,0.05378,0.02799,0.20333,0.61117,-0.28374,0.28029,-0.03595,-0.10581,0.16630,0.14382,-0.53973,-0.35096,-0.51198]
[0.00000,0.00000,0.00000,-0.00408,0.05000,0.04069,0.27040,0.59365,-0.28267,0.26306,-0.02146,-0.09833,0.15257,0.20534,-0.53275,-0.35216,-0.49168]
[0.00000,0.00000,0.00000,-0.00077,0.04730,0.05302,0.34006,0.58009,-0.28430,0.24725,-0.00921,-0.09119,0.13732,0.26780,-0.52648,-0.35195,-0.47161]
[0.00000,0.00000,0.00000,0.00070,0.04527,0.06762,0.40745,0.56618,-0.28127,0.22533,0.00131,-0.08487,0.12088,0.33062,-0.52183,-0.35015,-0.44935]
[0.00000,0.00000,0.00000,0.00143,0.04254,0.08406,0.46831,0.55526,-0.27794,0.20500,0.00988,-0.07869,0.10400,0.38866,-0.51915,-0.34834,-0.42872]
[0.00000,0.00000,0.00000,0.00179,0.03909,0.10195,0.52478,0.54844,-0.27495,0.18630,0.01739,-0.07262,0.08630,0.44249,-0.51763,-0.34500,-0.40744]
[0.00000,0.00000,0.00000,0.00091,0.03558,0.12046,0.58060,0.54349,-0.26986,0.16737,0.02425,-0.06736,0.06807,0.49264,-0.52097,-0.32500,-0.37530]
[0.00000,0.00000,0.00000,-0.00098,0.03272,0.14051,0.63504,0.54154,-0.26417,0.14813,0.03063,-0.06132,0.04796,0.53748,-0.52607,-0.30120,-0.34217]
[0.00000,0.00000,0.00000,-0.00388,0.03035,0.16296,0.68784,0.54269,-0.25475,0.12752,0.03766,-0.05539,0.02566,0.57713,-0.53286,-0.27688,-0.30735]
[0.00000,0.00000,0.00000,-0.00749,0.02752,0.18847,0.73725,0.54892,-0.24428,0.10616,0.04370,-0.04985,0.00400,0.61402,-0.54118,-0.25429,-0.27752]
[0.00000,0.00000,0.00000,-0.01164,0.02476,0.21342,0.78243,0.55743,-0.23315,0.08715,0.04933,-0.04486,-0.01500,0.64662,-0.54936,-0.23346,-0.25097]
[0.00000,0.00000,0.00000,-0.01668,0.02229,0.23738,0.82428,0.56568,-0.22143,0.06973,0.05449,-0.04038,-0.03320,0.67656,-0.55472,-0.21622,-0.22747]
[0.00000,0.00000,0.00000,-0.02141,0.02006,0.26004,0.86206,0.57392,-0.21069,0.05396,0.05875,-0.03634,-0.05028,0.70360,-0.55815,-0.20030,-0.20542]
[0.00000,0.00000,0.00000,-0.02587,0.01805,0.28174,0.89695,0.58282,-0.20182,0.04076,0.06277,-0.03271,-0.06445,0.72764,-0.56234,-0.18467,-0.18668]
[0.00000,0.00000,0.00000,-0.02998,0.01625,0.30186,0.92845,0.59144,-0.19384,0.02889,0.06649,-0.02944,-0.07721,0.74918,-0.56590,-0.17060,-0.16981]
[0.00000,0.00000,0.00000,-0.03369,0.01462,0.31998,0.95681,0.59920,-0.18666,0.01820,0.06984,-0.02649,-0.08869,0.76856,-0.56911,-0.15794,-0.15463]
