callmecarrot/action_slices/G1_skh.txt
[waist_yaw_joint,waist_roll_joint,waist_pitch_joint,left_shoulder_pitch_joint,left_shoulder_roll_joint,left_shoulder_yaw_joint,left_elbow_joint,left_wrist_roll_joint,left_wrist_pitch_joint,left_wrist_yaw_joint,right_shoulder_pitch_joint,right_shoulder_roll_joint,right_shoulder_yaw_joint,right_elbow_joint,right_wrist_roll_joint,right_wrist_pitch_joint,right_wrist_yaw_joint]
[0.00000,0.00000,0.00000,-0.02100,0.00000,0.64000,1.17500,0.95200,-0.04200,-0.01700,0.06400,-0.00000,-0.44800,1.18800,-0.62300,-0.10700,0.02000]
[0.00000,0.00000,0.00000,-0.02112,0.00000,0.64000,1.17500,0.95212,-0.04212,-0.01700,0.06412,-0.00000,-0.44800,1.18800,-0.62336,-0.10700,0.02000]
[0.00000,0.00000,0.00000,-0.02128,0.00000,0.64000,1.17500,0.95264,-0.04180,-0.01664,0.06428,-0.00000,-0.44812,1.18836,-0.62227,-0.10760,0.01940]
[0.00000,0.00000,0.00000,-0.02155,0.00000,0.64012,1.17524,0.95326,-0.04096,-0.01557,0.06431,-0.00000,-0.44804,1.18907,-0.62118,-0.10898,0.01574]
[0.00000,0.00000,0.00000,-0.02184,0.00000,0.64040,1.17447,0.95420,-0.04014,-0.01590,0.06476,-0.00000,-0.44896,1.19008,-0.62250,-0.11184,0.01447]
[0.00000,0.00000,0.00000,-0.02162,0.00000,0.64130,1.17385,0.95530,-0.03918,-0.01676,0.06522,-0.00000,-0.45103,1.19073,-0.62443,-0.11438,0.01484]
[0.00000,0.00000,0.00000,-0.02169,0.00000,0.64285,1.17397,0.95680,-0.04007,-0.01812,0.06539,-0.00000,-0.45309,1.19104,-0.62627,-0.11756,0.01502]
[0.00000,0.00000,0.00000,-0.02236,0.00000,0.64471,1.17462,0.95662,-0.04128,-0.01963,0.06505,-0.00000,-0.45323,1.19128,-0.62521,-0.11871,0.01329]
[0.00000,0.00000,0.00000,-0.02332,0.00000,0.64565,1.17518,0.95587,-0.04067,-0.02127,0.06491,-0.00000,-0.45290,1.19231,-0.62354,-0.12139,0.01181]
[0.00000,0.00000,0.00000,-0.02428,0.00000,0.64549,1.17636,0.95545,-0.03986,-0.02193,0.06450,-0.00000,-0.45205,1.19319,-0.62338,-0.12331,0.00917]
[0.00000,0.00000,0.00000,-0.02501,0.00000,0.64488,1.17789,0.95462,-0.03881,-0.02149,0.06450,-0.00000,-0.45097,1.19257,-0.62434,-0.12336,0.00900]
[0.00000,0.00000,0.00000,-0.02508,0.00000,0.64524,1.17794,0.95491,-0.03839,-0.02209,0.06505,-0.00000,-0.45040,1.19116,-0.62615,-0.12333,0.00989]
[0.00000,0.00000,0.00000,-0.02486,0.00000,0.64596,1.17701,0.95661,-0.03829,-0.02257,0.06515,-0.00000,-0.44927,1.19031,-0.62929,-0.12352,0.01040]
[0.00000,0.00000,0.00000,-0.02442,0.00000,0.64687,1.17590,0.95977,-0.04025,-0.02330,0.06481,-0.00000,-0.44829,1.18932,-0.63237,-0.12234,0.01032]
[0.00000,0.00000,0.00000,-0.02515,0.00000,0.64823,1.17724,0.95944,-0.04141,-0.02238,0.06338,-0.00000,-0.44916,1.18922,-0.63182,-0.12000,0.01541]
[0.00000,0.00000,0.00000,-0.02615,0.00000,0.64961,1.17850,0.95889,-0.04196,-0.02194,0.05973,-0.00000,-0.45070,1.18904,-0.63089,-0.11890,0.02206]
[0.00000,0.00000,0.00000,-0.02728,0.00000,0.65108,1.17969,0.95736,-0.04244,-0.02225,0.05379,-0.00000,-0.45283,1.18979,-0.62907,-0.12301,0.03012]
[0.00000,0.00000,0.00000,-0.02856,0.00000,0.65156,1.18010,0.95763,-0.04091,-0.02234,0.04040,-0.00000,-0.44942,1.18198,-0.62758,-0.13206,0.03602]
[0.00000,0.00000,0.00000,-0.02963,0.00000,0.65170,1.18122,0.95875,-0.04064,-0.02330,0.01793,-0.00000,-0.43186,1.16226,-0.62268,-0.14509,0.03453]
[0.00000,0.00000,0.00000,-0.03084,0.00000,0.65167,1.18227,0.96153,-0.04093,-0.02367,-0.00986,-0.00000,-0.39270,1.11854,-0.60195,-0.14467,0.02796]
[0.00000,0.00000,0.00000,-0.03149,0.00000,0.65158,1.18315,0.96467,-0.04154,-0.02363,-0.03583,-0.00000,-0.33993,1.06076,-0.57308,-0.14202,0.01933]
[0.00000,0.00000,0.00000,-0.03147,0.00000,0.65159,1.18363,0.96627,-0.04149,-0.02257,-0.06140,-0.00000,-0.28490,0.99524,-0.54259,-0.14042,0.01302]
[0.00000,0.00000,0.00000,-0.03056,0.00000,0.65153,1.18315,0.96631,-0.04057,-0.02146,-0.08697,-0.00000,-0.23251,0.92389,-0.51399,-0.12974,0.00773]
[0.00000,0.00000,0.00000,-0.02903,0.00000,0.65143,1.18257,0.96569,-0.04072,-0.02094,-0.10899,-0.00000,-0.18573,0.84978,-0.49022,-0.11688,0.00698]
[0.00000,0.00000,0.00000,-0.02779,0.00000,0.65098,1.18130,0.96319,-0.04033,-0.02229,-0.12748,-0.00000,-0.14499,0.77632,-0.47013,-0.10694,0.00871]
[0.00000,0.00000,0.00000,-0.02669,0.00000,0.64888,1.17977,0.96103,-0.04133,-0.02426,-0.14491,-0.00000,-0.10749,0.69431,-0.45916,-0.09053,0.00731]
[0.00000,0.00000,0.00000,-0.02603,0.00000,0.64633,1.17903,0.95628,-0.04063,-0.02422,-0.15872,-0.00000,-0.07115,0.59683,-0.45573,-0.06425,0.00717]
[0.00000,0.00000,0.00000,-0.02527,0.00000,0.64354,1.17836,0.95329,-0.04098,-0.02369,-0.17008,-0.00000,-0.03488,0.49110,-0.45372,-0.03399,0.00565]
[0.00000,0.00000,0.00000,-0.02455,0.00000,0.64062,1.17744,0.95044,-0.04089,-0.02303,-0.18072,-0.00000,-0.00202,0.38945,-0.45303,-0.00604,0.00121]
[0.00000,0.00000,0.00000,-0.02395,0.00000,0.63776,1.17652,0.94787,-0.04063,-0.02239,-0.19002,-0.00000,0.02535,0.30170,-0.45250,0.01759,-0.00392]
[0.00000,0.00000,0.00000,-0.02322,0.00000,0.63515,1.17559,0.94585,-0.04056,-0.02327,-0.20052,-0.00000,0.04340,0.22060,-0.45677,0.03188,-0.00140]
[0.00000,0.00000,0.00000,-0.02169,0.00000,0.63295,1.17417,0.94682,-0.04262,-0.02481,-0.21567,-0.00000,0.05321,0.14183,-0.46340,0.04593,0.00546]
[0.00000,0.00000,0.00000,-0.02060,0.00000,0.63096,1.17367,0.94617,-0.04378,-0.02632,-0.23539,-0.00000,0.05923,0.06712,-0.46865,0.06097,0.01213]
[0.00000,0.00000,0.00000,-0.01995,0.00000,0.62832,1.17254,0.94360,-0.04309,-0.02739,-0.25803,-0.00000,0.06245,0.00321,-0.48026,0.06536,0.01515]
[0.00000,0.00000,0.00000,-0.01956,0.00000,0.62526,1.17200,0.93884,-0.04195,-0.02696,-0.28517,-0.00000,0.06639,-0.05942,-0.49483,0.07460,0.01449]
[0.00000,0.00000,0.00000,-0.01874,0.00000,0.62154,1.17130,0.93374,-0.04052,-0.02630,-0.31515,-0.00000,0.06824,-0.11495,-0.51200,0.07925,0.01391]
[0.00000,0.00000,0.00000,-0.01710,0.00000,0.61799,1.17060,0.92863,-0.04165,-0.02635,-0.34897,-0.00000,0.06598,-0.16324,-0.53434,0.07781,0.00804]
[0.00000,0.00000,0.00000,-0.01520,0.00000,0.61494,1.17048,0.92245,-0.04301,-0.02717,-0.38417,-0.00000,0.06012,-0.20653,-0.55940,0.07615,0.00040]
[0.00000,0.00000,0.00000,-0.01342,0.00000,0.61187,1.17085,0.91596,-0.04394,-0.02797,-0.42282,-0.00444,0.05560,-0.25093,-0.59219,0.08528,-0.01617]
[0.00000,0.00000,0.00000,-0.01046,0.00000,0.60940,1.17067,0.91096,-0.04626,-0.03083,-0.46391,-0.01117,0.04451,-0.29767,-0.63030,0.09604,-0.03451]
[0.00000,0.00000,0.00000,-0.00772,0.00000,0.60795,1.17039,0.90574,-0.04852,-0.03301,-0.50494,-0.01698,0.01747,-0.34338,-0.66932,0.09839,-0.05499]
[0.00000,0.00000,0.00000,-0.00553,0.00000,0.60687,1.17022,0.90130,-0.05073,-0.03429,-0.54186,-0.01846,-0.02766,-0.38665,-0.70678,0.09033,-0.07811]
[0.00000,0.00000,0.00000,-0.00370,0.00000,0.60607,1.16977,0.89820,-0.05253,-0.03491,-0.57322,-0.01687,-0.08794,-0.42647,-0.73838,0.07467,-0.10029]
[0.00000,0.00000,0.00000,-0.00201,0.00000,0.60548,1.16864,0.89796,-0.05550,-0.03590,-0.59993,-0.01549,-0.15322,-0.46509,-0.75725,0.06669,-0.12301]
[0.00000,0.00000,0.00000,-0.00070,0.00000,0.60494,1.16689,0.89846,-0.05789,-0.03645,-0.61979,-0.01846,-0.20989,-0.50074,-0.76742,0.06457,-0.14671]
[0.00000,0.00000,0.00000,0.00042,0.00000,0.60496,1.16401,0.89753,-0.05627,-0.03723,-0.63224,-0.02625,-0.25183,-0.53099,-0.78329,0.06338,-0.17218]
[0.00000,0.00000,0.00000,0.00084,0.00000,0.60497,1.16184,0.89780,-0.05411,-0.03728,-0.64164,-0.03489,-0.27486,-0.56109,-0.80911,0.06439,-0.18562]
[0.00000,0.00000,0.00000,0.00091,0.00000,0.60522,1.16119,0.89950,-0.05391,-0.03739,-0.65067,-0.04441,-0.27447,-0.58837,-0.84995,0.06561,-0.19059]
[0.00000,0.00000,0.00000,0.00035,0.00000,0.60518,1.16185,0.90375,-0.05540,-0.03823,-0.66014,-0.05208,-0.24689,-0.60410,-0.91007,0.05765,-0.19212]
[0.00000,0.00000,0.00000,-0.00064,0.00000,0.60574,1.16419,0.90605,-0.05598,-0.03928,-0.67791,-0.05397,-0.18540,-0.60865,-0.98919,0.05014,-0.18039]
[0.00000,0.00000,0.00000,-0.00110,0.00000,0.60601,1.16563,0.90688,-0.05562,-0.03908,-0.70146,-0.04841,-0.09569,-0.59045,-1.08143,0.03114,-0.17314]
[0.00000,0.00000,0.00000,-0.00141,0.00000,0.60528,1.16651,0.90689,-0.05648,-0.03815,-0.73134,-0.04027,-0.00464,-0.55683,-1.16489,0.00850,-0.16936]
[0.00000,0.00000,0.00000,-0.00113,0.00000,0.60410,1.16659,0.90727,-0.05822,-0.03750,-0.76220,-0.03201,0.07603,-0.51621,-1.23499,-0.01379,-0.17024]
[0.00000,0.00000,0.00000,-0.00075,0.00000,0.60263,1.16654,0.90739,-0.05977,-0.03657,-0.79062,-0.02470,0.14267,-0.47764,-1.29036,-0.03290,-0.17143]
[0.00000,0.00000,0.00000,-0.00075,0.00000,0.60062,1.16562,0.90476,-0.05852,-0.03623,-0.81449,-0.01867,0.19542,-0.44625,-1.33385,-0.04826,-0.17055]
[0.00000,0.00000,0.00000,-0.00065,0.00000,0.59742,1.16540,0.90344,-0.05890,-0.03546,-0.82757,-0.01390,0.23600,-0.42667,-1.36629,-0.05947,-0.17060]
[0.00000,0.00000,0.00000,-0.00030,0.00000,0.59446,1.16598,0.89960,-0.05991,-0.03424,-0.82880,-0.01022,0.26289,-0.42473,-1.39296,-0.06209,-0.16923]
[0.00000,0.00000,0.00000,0.00061,0.00000,0.59173,1.16659,0.89371,-0.05926,-0.03250,-0.82009,-0.00745,0.26915,-0.44039,-1.40885,-0.05394,-0.16791]
[0.00000,0.00000,0.00000,0.00164,0.00000,0.58869,1.16617,0.88767,-0.05788,-0.03147,-0.80407,-0.00540,0.25076,-0.47020,-1.40762,-0.03816,-0.16700]
[0.00000,0.00000,0.00000,0.00331,0.00000,0.58613,1.16525,0.88109,-0.05815,-0.03314,-0.78101,-0.00389,0.20731,-0.50681,-1.38819,-0.01951,-0.17190]
[0.00000,0.00000,0.00000,0.00446,0.00000,0.58252,1.16472,0.87664,-0.05765,-0.03322,-0.75392,-0.00278,0.14786,-0.54369,-1.35409,0.00230,-0.18273]
[0.00000,0.00000,0.00000,0.00620,0.00000,0.57926,1.16369,0.87289,-0.05832,-0.03347,-0.72384,-0.00199,0.07395,-0.57866,-1.30855,0.02378,-0.19907]
[0.00000,0.00000,0.00000,0.00775,0.00000,0.57642,1.16305,0.86917,-0.05965,-0.03316,-0.69466,-0.00142,0.00019,-0.61175,-1.25912,0.04771,-0.21685]
[0.00000,0.00000,0.00000,0.00879,0.00000,0.57410,1.16182,0.86879,-0.06048,-0.03337,-0.66673,-0.00101,-0.07005,-0.63863,-1.20991,0.06428,-0.23453]
[0.00000,0.00000,0.00000,0.00877,0.00000,0.57239,1.16120,0.86925,-0.05934,-0.03305,-0.64255,-0.00071,-0.13026,-0.65789,-1.16561,0.06880,-0.24765]
[0.00000,0.00000,0.00000,0.00819,0.00000,0.57175,1.16116,0.86726,-0.05846,-0.03460,-0.62453,-0.00051,-0.17556,-0.67103,-1.12953,0.07193,-0.25789]
[0.00000,0.00000,0.00000,0.00745,0.00000,0.57163,1.16148,0.86567,-0.05791,-0.03661,-0.61402,-0.00036,-0.19812,-0.68087,-1.10771,0.07541,-0.26088]
[0.00000,0.00000,0.00000,0.00720,0.00000,0.57210,1.16204,0.86624,-0.05877,-0.03786,-0.61152,-0.00025,-0.19858,-0.68597,-1.10146,0.07562,-0.25543]
[0.00000,0.00000,0.00000,0.00719,0.00000,0.57265,1.16287,0.86885,-0.06000,-0.03745,-0.61725,-0.00018,-0.16678,-0.67972,-1.11054,0.07168,-0.24481]
[0.00000,0.00000,0.00000,0.00680,0.00000,0.57280,1.16407,0.86973,-0.06112,-0.03686,-0.62743,-0.00012,-0.10486,-0.65853,-1.13685,0.05998,-0.23665]
[0.00000,0.00000,0.00000,0.00510,0.00000,0.57133,1.16637,0.87097,-0.06277,-0.03543,-0.63981,-0.00009,-0.02438,-0.62244,-1.17588,0.04079,-0.22823]
[0.00000,0.00000,0.00000,0.00330,0.00000,0.56863,1.16849,0.87017,-0.06313,-0.03381,-0.65583,-0.00006,0.05422,-0.57412,-1.21701,0.01955,-0.22118]
[0.00000,0.00000,0.00000,0.00238,0.00000,0.56586,1.17076,0.86946,-0.06639,-0.03244,-0.67242,-0.00004,0.12261,-0.52320,-1.25480,-0.00059,-0.21472]
[0.00000,0.00000,0.00000,0.00207,0.00000,0.56279,1.17175,0.86958,-0.06699,-0.03073,-0.68786,-0.00003,0.17850,-0.46892,-1.28906,-0.01786,-0.21660]
[0.00000,0.00000,0.00000,0.00230,0.00000,0.55949,1.17267,0.86824,-0.06725,-0.02812,-0.70216,-0.00002,0.22243,-0.41757,-1.31508,-0.02957,-0.22020]
[0.00000,0.00000,0.00000,0.00271,0.00000,0.55696,1.17417,0.86309,-0.06948,-0.02797,-0.71247,-0.00001,0.25607,-0.37625,-1.32192,-0.03562,-0.21821]
[0.00000,0.00000,0.00000,0.00256,0.00000,0.55363,1.17551,0.85780,-0.07216,-0.02744,-0.70978,-0.00001,0.28135,-0.34327,-1.28292,-0.02957,-0.22382]
[0.00000,0.00000,0.00000,0.00207,0.00000,0.54735,1.17517,0.85356,-0.07099,-0.02620,-0.69020,-0.00001,0.30009,-0.32351,-1.20631,-0.01112,-0.22896]
[0.00000,0.00000,0.00000,0.00306,0.00000,0.53903,1.17296,0.84955,-0.06822,-0.02433,-0.65027,-0.00000,0.31383,-0.31118,-1.11746,0.00601,-0.23701]
[0.00000,0.00000,0.00000,0.00430,0.00000,0.52569,1.16952,0.84108,-0.06331,-0.01943,-0.59327,-0.00000,0.32382,-0.30071,-1.03124,0.01560,-0.25263]
[0.00000,0.00000,0.00000,0.00719,0.00000,0.50693,1.16477,0.82839,-0.06025,-0.01324,-0.52549,-0.00000,0.33104,-0.28722,-0.95289,0.00900,-0.26979]
[0.00000,0.00000,0.00000,0.01234,0.00000,0.48478,1.15705,0.81378,-0.05617,-0.00677,-0.44693,-0.00000,0.33466,-0.26785,-0.88555,-0.01562,-0.28482]
[0.00000,0.00000,0.00000,0.01962,0.00000,0.46134,1.14636,0.79951,-0.05216,-0.00168,-0.36462,-0.00000,0.33287,-0.24209,-0.83428,-0.05168,-0.29908]
[0.00000,0.00000,0.00000,0.02837,0.00000,0.43753,1.13450,0.78505,-0.04734,0.00342,-0.28546,-0.00000,0.32841,-0.21086,-0.78739,-0.07983,-0.31190]
[0.00000,0.00000,0.00000,0.03727,0.00000,0.41595,1.12323,0.76637,-0.04455,0.00863,-0.21447,-0.00000,0.32241,-0.17497,-0.74678,-0.10319,-0.32221]
[0.00000,0.00000,0.00000,0.04530,0.00000,0.40065,1.11690,0.74841,-0.04643,0.00846,-0.15172,-0.00000,0.30796,-0.13085,-0.71378,-0.12774,-0.32472]
[0.00000,0.00000,0.00000,0.05128,0.00000,0.39115,1.11426,0.73397,-0.05005,0.00606,-0.10020,-0.00000,0.29134,-0.08822,-0.68771,-0.14984,-0.32365]
[0.00000,0.00000,0.00000,0.05483,0.00000,0.38714,1.11444,0.72443,-0.05397,0.00300,-0.05982,-0.00000,0.27579,-0.05109,-0.66768,-0.16826,-0.32120]
[0.00000,0.00000,0.00000,0.05623,0.00000,0.38712,1.11674,0.71929,-0.05754,0.00004,-0.02908,-0.00000,0.26245,-0.02060,-0.65258,-0.18293,-0.31847]
[0.00000,0.00000,0.00000,0.05631,0.00000,0.39009,1.11906,0.71950,-0.05897,-0.00325,-0.00296,-0.00000,0.24959,0.01651,-0.64029,-0.19186,-0.31642]
[0.00000,0.00000,0.00000,0.05546,0.00000,0.39841,1.12062,0.72661,-0.05862,-0.00773,0.02025,-0.00000,0.23104,0.08148,-0.62945,-0.19670,-0.31419]
[0.00000,0.00000,0.00000,0.05301,0.00000,0.41110,1.12289,0.73672,-0.05599,-0.01264,0.03764,-0.00000,0.20716,0.16259,-0.61885,-0.19950,-0.30771]
[0.00000,0.00000,0.00000,0.04994,0.00000,0.42842,1.12529,0.75360,-0.05513,-0.01918,0.04763,-0.00000,0.17936,0.25166,-0.61189,-0.20385,-0.30023]
[0.00000,0.00000,0.00000,0.04518,0.00000,0.44824,1.12939,0.77202,-0.05379,-0.02359,0.05247,-0.00000,0.14699,0.34756,-0.60742,-0.21385,-0.28781]
[0.00000,0.00000,0.00000,0.03956,0.00000,0.46781,1.13370,0.78971,-0.05241,-0.02765,0.05229,-0.00000,0.11000,0.44716,-0.60862,-0.22227,-0.27086]
[0.00000,0.00000,0.00000,0.03353,0.00000,0.48554,1.13963,0.80750,-0.05323,-0.02939,0.04858,-0.00000,0.06698,0.54970,-0.62188,-0.23130,-0.24936]
[0.00000,0.00000,0.00000,0.02769,0.00000,0.50156,1.14588,0.82091,-0.05390,-0.03044,0.04275,-0.00000,0.01832,0.64920,-0.64691,-0.24141,-0.22601]
[0.00000,0.00000,0.00000,0.02312,0.00000,0.51470,1.14948,0.83315,-0.05479,-0.03179,0.03529,-0.00000,-0.03480,0.74017,-0.67927,-0.24981,-0.20228]
[0.00000,0.00000,0.00000,0.01987,0.00000,0.52458,1.15118,0.84320,-0.05567,-0.03310,0.02684,-0.00000,-0.08593,0.81795,-0.71299,-0.25648,-0.18112]
[0.00000,0.00000,0.00000,0.01731,0.00000,0.53309,1.15439,0.84979,-0.05788,-0.03316,0.02067,-0.00000,-0.13238,0.88351,-0.74467,-0.25574,-0.16214]
[0.00000,0.00000,0.00000,0.01501,0.00000,0.54038,1.15833,0.85427,-0.06026,-0.03269,0.01692,-0.00000,-0.17224,0.93582,-0.77182,-0.24719,-0.14419]
[0.00000,0.00000,0.00000,0.01248,0.00000,0.54663,1.16259,0.85731,-0.06099,-0.03228,0.01620,-0.00000,-0.20515,0.97485,-0.78924,-0.23397,-0.12439]
[0.00000,0.00000,0.00000,0.00967,0.00000,0.55171,1.16586,0.86131,-0.05986,-0.03136,0.01767,-0.00000,-0.23084,1.00362,-0.79989,-0.21942,-0.10546]
[0.00000,0.00000,0.00000,0.00674,0.00000,0.55567,1.16822,0.86356,-0.05868,-0.03165,0.02073,-0.00000,-0.25076,1.02391,-0.80942,-0.20378,-0.08834]
[0.00000,0.00000,0.00000,0.00350,0.00000,0.55749,1.16918,0.86623,-0.05631,-0.03277,0.02432,-0.00000,-0.26636,1.03760,-0.81589,-0.18740,-0.07283]
[0.00000,0.00000,0.00000,0.00124,0.00000,0.55688,1.16836,0.86973,-0.05371,-0.03411,0.02748,-0.00000,-0.27767,1.04700,-0.82030,-0.17351,-0.06069]
[0.00000,0.00000,0.00000,-0.00010,0.00000,0.55532,1.16689,0.87291,-0.05241,-0.03574,0.03006,-0.00000,-0.28582,1.05371,-0.82307,-0.16353,-0.05107]
[0.00000,0.00000,0.00000,-0.00101,0.00000,0.55450,1.16593,0.87438,-0.05158,-0.03850,0.03198,-0.00000,-0.29250,1.05872,-0.82771,-0.15736,-0.04343]
[0.00000,0.00000,0.00000,-0.00163,0.00000,0.55410,1.16529,0.87495,-0.05104,-0.04140,0.03351,-0.00000,-0.29789,1.06218,-0.83281,-0.15352,-0.03752]
[0.00000,0.00000,0.00000,-0.00218,0.00000,0.55356,1.16475,0.87843,-0.05141,-0.04220,0.03445,-0.00000,-0.30233,1.06505,-0.83510,-0.14957,-0.03210]
[0.00000,0.00000,0.00000,-0.00238,0.00000,0.55351,1.16383,0.88501,-0.05199,-0.04204,0.03539,-0.00000,-0.30595,1.06661,-0.83581,-0.14568,-0.02705]
[0.00000,0.00000,0.00000,-0.00279,0.00000,0.55450,1.16395,0.89004,-0.05308,-0.04245,0.03598,-0.00000,-0.30856,1.06719,-0.83541,-0.14048,-0.02312]
[0.00000,0.00000,0.00000,-0.00334,0.00000,0.55678,1.16424,0.89540,-0.05329,-0.04244,0.03659,-0.00000,-0.30959,1.06753,-0.83387,-0.13513,-0.02110]
[0.00000,0.00000,0.00000,-0.00437,0.00000,0.56005,1.16542,0.89928,-0.05418,-0.04179,0.03690,-0.00000,-0.31031,1.06785,-0.83108,-0.13022,-0.02024]
