callmecarrot/action_slices/G1_tup.txt
[waist_yaw_joint,waist_roll_joint,waist_pitch_joint,left_shoulder_pitch_joint,left_shoulder_roll_joint,left_shoulder_yaw_joint,left_elbow_joint,left_wrist_roll_joint,left_wrist_pitch_joint,left_wrist_yaw_joint,right_shoulder_pitch_joint,right_shoulder_roll_joint,right_shoulder_yaw_joint,right_elbow_joint,right_wrist_roll_joint,right_wrist_pitch_joint,right_wrist_yaw_joint]
[0.00000,0.00000,0.00000,-0.01100,0.00000,0.37700,1.25300,0.59700,-0.05500,0.04400,0.19300,-0.00000,-0.11500,0.92800,-0.61000,-0.08800,-0.07500]
[0.00000,0.00000,0.00000,-0.01100,0.00000,0.37670,1.25270,0.59970,-0.05500,0.04430,0.19300,-0.00000,-0.11410,0.92710,-0.60970,-0.08740,-0.07500]
[0.00000,0.00000,0.00000,-0.01100,0.00000,0.37739,1.25189,0.59829,-0.05560,0.04361,0.19330,-0.00000,-0.11377,0.92617,-0.60859,-0.08878,-0.07350]
[0.00000,0.00000,0.00000,-0.01100,0.00000,0.37847,1.25132,0.59520,-0.05632,0.04283,0.19411,-0.00000,-0.11414,0.92522,-0.60721,-0.09035,-0.07215]
[0.00000,0.00000,0.00000,-0.01190,0.00000,0.37833,1.25093,0.59124,-0.05652,0.04228,0.19468,-0.00000,-0.11890,0.92875,-0.60595,-0.10014,-0.07090]
[0.00000,0.00000,0.00000,-0.01253,0.00000,0.37823,1.25035,0.58307,-0.05367,0.04040,0.19207,-0.00000,-0.12043,0.93363,-0.60446,-0.09890,-0.07093]
[0.00000,0.00000,0.00000,-0.01267,0.00000,0.37606,1.24994,0.58125,-0.04927,0.04028,0.19115,-0.00030,-0.11700,0.92864,-0.60403,-0.09143,-0.06765]
[0.00000,0.00000,0.00000,-0.01247,0.00000,0.37394,1.24876,0.58177,-0.04799,0.03809,0.19261,-0.00171,-0.11160,0.92545,-0.60492,-0.09220,-0.06656]
[0.00000,0.00000,0.00000,-0.01173,0.00000,0.37456,1.24613,0.58334,-0.04769,0.03267,0.19302,-0.00210,-0.11142,0.92501,-0.61184,-0.09574,-0.06339]
[0.00000,0.00000,0.00000,-0.01241,0.00000,0.37649,1.24639,0.57904,-0.04748,0.03427,0.19242,-0.00207,-0.11099,0.92291,-0.62209,-0.09342,-0.05997]
[0.00000,0.00000,0.00000,-0.01409,0.00000,0.37304,1.24897,0.59043,-0.04824,0.03659,0.18869,-0.00145,-0.11310,0.93344,-0.63376,-0.09929,-0.06958]
[0.00000,0.00000,0.00000,-0.01286,0.00000,0.37453,1.24718,0.59300,-0.05057,0.03251,0.18608,-0.00101,-0.11907,0.93571,-0.62903,-0.10221,-0.06461]
[0.00000,0.00000,0.00000,-0.01320,0.00000,0.37617,1.24683,0.59420,-0.04890,0.03116,0.18516,-0.00071,-0.12535,0.94029,-0.63112,-0.11354,-0.06532]
[0.00000,0.00000,0.00000,-0.01344,0.00000,0.37852,1.24568,0.59024,-0.04743,0.02871,0.18181,-0.00050,-0.13004,0.94651,-0.63649,-0.11578,-0.06943]
[0.00000,0.00000,0.00000,-0.01331,0.00000,0.37926,1.24428,0.58657,-0.04250,0.02760,0.17857,-0.00035,-0.13183,0.94725,-0.63664,-0.11705,-0.07110]
[0.00000,0.00000,0.00000,-0.01652,0.00000,0.37588,1.24749,0.58310,-0.03845,0.03612,0.17480,-0.00024,-0.12798,0.93668,-0.62325,-0.09453,-0.06717]
[0.00000,0.00000,0.00000,-0.01786,0.00000,0.36872,1.24795,0.58157,-0.03351,0.03968,0.16346,-0.00077,-0.11329,0.92657,-0.63277,-0.09407,-0.07312]
[0.00000,0.00000,0.00000,-0.01820,0.00000,0.36250,1.24796,0.57810,-0.03426,0.04128,0.13722,-0.00084,-0.10390,0.93000,-0.64934,-0.11625,-0.08658]
[0.00000,0.00000,0.00000,-0.01784,0.00000,0.35605,1.24767,0.57747,-0.03358,0.04209,0.10415,-0.00059,-0.09973,0.93000,-0.66664,-0.13388,-0.09091]
[0.00000,0.00000,0.00000,-0.01699,0.00000,0.35124,1.24357,0.56953,-0.02981,0.04237,0.07291,-0.00041,-0.09471,0.92310,-0.68085,-0.13991,-0.09214]
[0.00000,0.00000,0.00000,-0.01579,0.00000,0.34307,1.23890,0.56487,-0.02477,0.04406,0.04054,-0.00029,-0.08820,0.91017,-0.68689,-0.15164,-0.09299]
[0.00000,0.00000,0.00000,-0.01375,0.00000,0.33315,1.23533,0.55471,-0.01974,0.04944,0.00888,-0.00020,-0.07194,0.88342,-0.68273,-0.15175,-0.09360]
[0.00000,0.00000,0.00000,-0.00843,0.00000,0.32470,1.22983,0.55180,-0.02161,0.04901,-0.02469,-0.00014,-0.04376,0.83829,-0.67561,-0.13532,-0.09282]
[0.00000,0.00000,0.00000,-0.00230,0.00000,0.31669,1.22238,0.54526,-0.02113,0.04811,-0.05718,-0.00370,-0.01533,0.78991,-0.66133,-0.11273,-0.08687]
[0.00000,0.00000,0.00000,0.00499,0.00000,0.31108,1.21357,0.54008,-0.02199,0.04657,-0.09283,-0.01069,0.00517,0.75363,-0.65193,-0.10831,-0.07911]
[0.00000,0.00000,0.00000,0.01159,0.00000,0.30776,1.20680,0.53586,-0.02439,0.04130,-0.12708,-0.01378,0.02222,0.71594,-0.63965,-0.10042,-0.07458]
[0.00000,0.00000,0.00000,0.01622,0.00000,0.30033,1.20266,0.53020,-0.02788,0.04091,-0.16516,-0.01775,0.04945,0.66646,-0.61515,-0.09339,-0.07530]
[0.00000,0.00000,0.00000,0.02065,0.00000,0.29663,1.19946,0.53344,-0.03271,0.03914,-0.19901,-0.02322,0.07332,0.62792,-0.58991,-0.09537,-0.07341]
[0.00000,0.00000,0.00000,0.02316,0.00000,0.29644,1.19482,0.52761,-0.03370,0.03790,-0.23441,-0.02526,0.08882,0.58925,-0.56234,-0.09346,-0.06639]
[0.00000,0.00000,0.00000,0.02311,0.00000,0.29421,1.19368,0.52503,-0.03319,0.04243,-0.27238,-0.02428,0.10598,0.54777,-0.54094,-0.09032,-0.06837]
[0.00000,0.00000,0.00000,0.02278,0.00000,0.29115,1.19497,0.52412,-0.03463,0.04320,-0.31397,-0.02150,0.11858,0.51544,-0.51245,-0.09293,-0.06676]
[0.00000,0.00000,0.00000,0.02284,0.00000,0.28960,1.19498,0.52738,-0.03534,0.04224,-0.35418,-0.01835,0.12891,0.49581,-0.48712,-0.08995,-0.06623]
[0.00000,0.00000,0.00000,0.02169,0.00000,0.28972,1.19529,0.53387,-0.03494,0.04037,-0.40362,-0.01314,0.15324,0.45327,-0.45768,-0.04196,-0.07246]
[0.00000,0.00000,0.00000,0.01968,0.00000,0.28741,1.19160,0.53691,-0.01636,0.04776,-0.45264,-0.01550,0.18316,0.41539,-0.41128,-0.01977,-0.07382]
[0.00000,0.00000,0.00000,0.01978,0.00000,0.28338,1.19082,0.53034,-0.01805,0.05173,-0.50945,-0.01595,0.20622,0.40327,-0.36589,-0.02404,-0.07928]
[0.00000,0.00000,0.00000,0.01984,0.00000,0.27967,1.19267,0.52783,-0.01834,0.05631,-0.56721,-0.01446,0.23015,0.36809,-0.29423,0.00807,-0.08699]
[0.00000,0.00000,0.00000,0.01959,0.00000,0.27707,1.19217,0.53118,-0.01793,0.05712,-0.61395,-0.01253,0.24211,0.32456,-0.22726,0.03295,-0.08460]
[0.00000,0.00000,0.00000,0.01911,0.00000,0.27405,1.19092,0.51973,-0.01855,0.06008,-0.65206,-0.00937,0.25437,0.27099,-0.16358,0.05366,-0.08712]
[0.00000,0.00000,0.00000,0.02028,0.00000,0.26983,1.19004,0.51621,-0.01659,0.05616,-0.68384,-0.00656,0.25636,0.24520,-0.09231,0.03127,-0.07568]
[0.00000,0.00000,0.00000,0.02020,0.00000,0.27078,1.19183,0.51915,-0.02091,0.05371,-0.71449,-0.00459,0.26435,0.21664,-0.02111,0.02279,-0.07278]
[0.00000,0.00000,0.00000,0.02074,0.00000,0.27445,1.18738,0.52840,-0.01854,0.04600,-0.74314,-0.00891,0.28945,0.17535,0.04582,0.02255,-0.10554]
[0.00000,0.00000,0.00000,0.02022,0.00000,0.27641,1.18517,0.53218,-0.01688,0.04300,-0.76170,-0.01794,0.30731,0.12934,0.09837,0.03588,-0.15698]
[0.00000,0.00000,0.00000,0.01985,0.00000,0.27689,1.18512,0.53723,-0.01541,0.03880,-0.77139,-0.02486,0.31982,0.10014,0.13276,0.03802,-0.18789]
[0.00000,0.00000,0.00000,0.01990,0.00000,0.27692,1.18448,0.54076,-0.01439,0.03556,-0.77637,-0.03000,0.32857,0.07820,0.15653,0.03951,-0.20922]
[0.00000,0.00000,0.00000,0.01993,0.00000,0.27695,1.18404,0.54323,-0.01367,0.03329,-0.77986,-0.03360,0.33470,0.06284,0.17317,0.04056,-0.22415]
[0.00000,0.00000,0.00000,0.01995,0.00000,0.27576,1.18373,0.55126,-0.01377,0.03350,-0.77900,-0.03312,0.33299,0.05209,0.19052,0.05119,-0.22531]
[0.00000,0.00000,0.00000,0.02146,0.00000,0.27283,1.18411,0.55088,-0.01984,0.03605,-0.77240,-0.03068,0.33449,0.04306,0.19756,0.06283,-0.22912]
[0.00000,0.00000,0.00000,0.02282,0.00000,0.27558,1.18348,0.55782,-0.02379,0.03364,-0.76688,-0.02598,0.33885,0.03644,0.20850,0.08328,-0.24018]
[0.00000,0.00000,0.00000,0.02288,0.00000,0.28201,1.18243,0.56387,-0.02025,0.03375,-0.76422,-0.02269,0.34189,0.03541,0.21465,0.09100,-0.24373]
[0.00000,0.00000,0.00000,0.02141,0.00000,0.28441,1.18350,0.56781,-0.02048,0.03562,-0.76355,-0.01948,0.34402,0.03109,0.22225,0.10300,-0.24351]
[0.00000,0.00000,0.00000,0.02069,0.00000,0.28488,1.18395,0.56877,-0.01973,0.03634,-0.76339,-0.01754,0.34552,0.02626,0.22818,0.11290,-0.24396]
[0.00000,0.00000,0.00000,0.02138,0.00000,0.28672,1.18667,0.57304,-0.02221,0.03713,-0.76387,-0.01558,0.34656,0.02198,0.23232,0.12073,-0.24547]
[0.00000,0.00000,0.00000,0.02127,0.00000,0.28680,1.18617,0.58083,-0.02245,0.03529,-0.76301,-0.01360,0.34729,0.01959,0.23463,0.12351,-0.24293]
[0.00000,0.00000,0.00000,0.02209,0.00000,0.29346,1.18522,0.59168,-0.02291,0.03101,-0.76211,-0.01102,0.34781,0.02031,0.23144,0.12336,-0.23965]
[0.00000,0.00000,0.00000,0.02116,0.00000,0.29872,1.18605,0.59777,-0.02564,0.02890,-0.76267,-0.01012,0.34816,0.01872,0.22831,0.12475,-0.23825]
[0.00000,0.00000,0.00000,0.02051,0.00000,0.30361,1.18664,0.60024,-0.02815,0.02713,-0.76337,-0.00978,0.34841,0.01730,0.22581,0.12573,-0.23728]
[0.00000,0.00000,0.00000,0.02006,0.00000,0.30852,1.18645,0.60167,-0.03050,0.02619,-0.76506,-0.00955,0.34859,0.01331,0.22887,0.13001,-0.23959]
[0.00000,0.00000,0.00000,0.01734,0.00000,0.31587,1.19351,0.60477,-0.03755,0.02794,-0.76654,-0.01028,0.34871,0.01262,0.22951,0.12971,-0.24002]
[0.00000,0.00000,0.00000,0.01394,0.00000,0.32491,1.19726,0.61084,-0.04099,0.02585,-0.76818,-0.01140,0.34880,0.01213,0.22876,0.13039,-0.24331]
[0.00000,0.00000,0.00000,0.01156,0.00000,0.33123,1.19988,0.61509,-0.04339,0.02440,-0.76933,-0.01218,0.34886,0.01179,0.22823,0.13088,-0.24562]
[0.00000,0.00000,0.00000,0.00989,0.00000,0.33566,1.20172,0.61806,-0.04507,0.02338,-0.77013,-0.01272,0.34890,0.01156,0.22786,0.13121,-0.24723]
[0.00000,0.00000,0.00000,0.00872,0.00000,0.33877,1.20300,0.62014,-0.04625,0.02267,-0.77069,-0.01311,0.34893,0.01139,0.22760,0.13145,-0.24836]
[0.00000,0.00000,0.00000,0.00851,0.00000,0.34094,1.20420,0.62550,-0.04768,0.02217,-0.77048,-0.01398,0.34895,0.01157,0.22712,0.13041,-0.24315]
[0.00000,0.00000,0.00000,0.00865,0.00000,0.34605,1.20534,0.63315,-0.05197,0.01942,-0.76854,-0.01338,0.34897,0.00990,0.22739,0.13059,-0.23861]
[0.00000,0.00000,0.00000,0.00816,0.00000,0.35114,1.20674,0.63970,-0.05498,0.01749,-0.76688,-0.01297,0.34898,0.00843,0.22757,0.13071,-0.23543]
[0.00000,0.00000,0.00000,0.00811,0.00000,0.35560,1.20532,0.64699,-0.05139,0.01704,-0.76421,-0.01388,0.34898,0.01670,0.21780,0.11370,-0.22510]
[0.00000,0.00000,0.00000,0.00808,0.00000,0.35872,1.20432,0.65210,-0.04887,0.01673,-0.76235,-0.01451,0.34899,0.02249,0.21066,0.10179,-0.21787]
[0.00000,0.00000,0.00000,0.00685,0.00000,0.36120,1.20483,0.64847,-0.04921,0.01861,-0.75804,-0.01646,0.34899,0.03614,0.19456,0.09105,-0.23651]
[0.00000,0.00000,0.00000,0.00300,0.00000,0.35544,1.20818,0.63513,-0.04255,0.02443,-0.74963,-0.01602,0.34899,0.04450,0.17999,0.08834,-0.24926]
[0.00000,0.00000,0.00000,0.00240,0.00000,0.34901,1.21262,0.62309,-0.04358,0.02670,-0.73564,-0.01452,0.34900,0.04915,0.18270,0.09004,-0.25338]
[0.00000,0.00000,0.00000,0.00318,0.00000,0.34691,1.21004,0.62666,-0.04161,0.02349,-0.70665,-0.02006,0.34900,0.05091,0.17919,0.07773,-0.25087]
[0.00000,0.00000,0.00000,0.00073,0.00000,0.34633,1.21393,0.62766,-0.04293,0.02574,-0.66745,-0.02994,0.34900,0.05153,0.15963,0.07031,-0.24911]
[0.00000,0.00000,0.00000,-0.00069,0.00000,0.34623,1.21695,0.62446,-0.04295,0.02702,-0.61962,-0.04046,0.34900,0.06787,0.14264,0.03932,-0.23977]
[0.00000,0.00000,0.00000,-0.00108,0.00000,0.34676,1.21696,0.62703,-0.04416,0.02581,-0.56783,-0.05022,0.34900,0.09701,0.12805,-0.00278,-0.22184]
[0.00000,0.00000,0.00000,-0.00256,0.00000,0.34623,1.21787,0.62612,-0.04201,0.02707,-0.52258,-0.05706,0.34900,0.11651,0.11633,-0.03105,-0.21259]
[0.00000,0.00000,0.00000,-0.00269,0.00000,0.34796,1.21671,0.62098,-0.04111,0.02555,-0.47801,-0.06424,0.34900,0.12296,0.10183,-0.03553,-0.21271]
[0.00000,0.00000,0.00000,-0.00368,0.00000,0.34798,1.21770,0.62099,-0.04078,0.03138,-0.43061,-0.07317,0.34900,0.13827,0.08178,-0.05847,-0.20620]
[0.00000,0.00000,0.00000,-0.00378,0.00000,0.35098,1.21659,0.61679,-0.03724,0.03097,-0.38242,-0.08272,0.34900,0.13879,0.08215,-0.05743,-0.20674]
[0.00000,0.00000,0.00000,-0.00355,0.00000,0.35189,1.21521,0.62255,-0.03597,0.03098,-0.33820,-0.09510,0.34900,0.13645,0.08180,-0.06720,-0.20232]
[0.00000,0.00000,0.00000,-0.00488,0.00000,0.35132,1.21335,0.62719,-0.02788,0.03188,-0.29464,-0.10977,0.34900,0.14292,0.06686,-0.07854,-0.19622]
[0.00000,0.00000,0.00000,-0.00552,0.00000,0.35063,1.21564,0.62533,-0.02762,0.02862,-0.25245,-0.12394,0.34900,0.15224,0.04860,-0.08948,-0.18266]
[0.00000,0.00000,0.00000,-0.00566,0.00000,0.35014,1.21725,0.62823,-0.03073,0.02843,-0.21241,-0.13686,0.34900,0.16567,0.02562,-0.10074,-0.17166]
[0.00000,0.00000,0.00000,-0.00456,0.00000,0.35340,1.21778,0.63476,-0.03501,0.02680,-0.17329,-0.14770,0.34900,0.19817,-0.00156,-0.12961,-0.16726]
[0.00000,0.00000,0.00000,-0.00409,0.00000,0.35448,1.21754,0.63933,-0.03651,0.02476,-0.14110,-0.15349,0.34900,0.22572,-0.03049,-0.14503,-0.17168]
[0.00000,0.00000,0.00000,-0.00227,0.00000,0.35583,1.21618,0.64433,-0.04146,0.02183,-0.11107,-0.15454,0.34900,0.25220,-0.06125,-0.15042,-0.18948]
[0.00000,0.00000,0.00000,0.00021,0.00000,0.35828,1.21373,0.64603,-0.04732,0.01888,-0.08495,-0.15438,0.34900,0.27914,-0.09117,-0.15689,-0.20223]
[0.00000,0.00000,0.00000,0.00255,0.00000,0.35880,1.21351,0.65262,-0.04962,0.01892,-0.06127,-0.15727,0.34900,0.31750,-0.11542,-0.18513,-0.20606]
[0.00000,0.00000,0.00000,0.00418,0.00000,0.36246,1.21306,0.65514,-0.05274,0.01594,-0.04259,-0.15809,0.34630,0.36325,-0.13299,-0.21389,-0.20994]
[0.00000,0.00000,0.00000,0.00263,0.00000,0.36232,1.21304,0.65150,-0.04562,0.02016,-0.02501,-0.15836,0.34171,0.41237,-0.14770,-0.23342,-0.21566]
[0.00000,0.00000,0.00000,0.00244,0.00000,0.36192,1.21483,0.64415,-0.04723,0.02251,-0.01001,-0.15915,0.33340,0.46026,-0.15889,-0.25250,-0.21456]
[0.00000,0.00000,0.00000,0.00201,0.00000,0.36165,1.21728,0.64680,-0.05136,0.02326,0.00170,-0.15791,0.32308,0.50368,-0.16942,-0.26735,-0.21139]
[0.00000,0.00000,0.00000,0.00261,0.00000,0.36415,1.21630,0.65406,-0.05695,0.01928,0.01379,-0.15673,0.31195,0.55238,-0.18789,-0.27084,-0.20978]
[0.00000,0.00000,0.00000,0.00332,0.00000,0.36561,1.21291,0.65614,-0.05307,0.01650,0.02615,-0.15351,0.29547,0.59576,-0.20053,-0.26699,-0.20174]
[0.00000,0.00000,0.00000,0.00323,0.00000,0.36663,1.21203,0.64830,-0.04585,0.01665,0.03931,-0.14916,0.27373,0.63484,-0.20577,-0.25739,-0.18802]
[0.00000,0.00000,0.00000,0.00286,0.00000,0.36404,1.21472,0.64401,-0.04619,0.01915,0.05451,-0.14551,0.23421,0.68828,-0.21004,-0.26358,-0.17361]
[0.00000,0.00000,0.00000,0.00290,0.00000,0.36193,1.21811,0.64101,-0.04884,0.02061,0.06576,-0.13726,0.18765,0.73980,-0.22173,-0.27000,-0.16503]
[0.00000,0.00000,0.00000,0.00413,0.00000,0.36225,1.21867,0.64401,-0.05218,0.01923,0.07363,-0.12818,0.14485,0.78366,-0.24671,-0.26790,-0.15872]
[0.00000,0.00000,0.00000,0.00559,0.00000,0.36367,1.21847,0.64550,-0.05663,0.01616,0.08214,-0.11823,0.09840,0.81886,-0.27830,-0.25713,-0.13210]
[0.00000,0.00000,0.00000,0.00781,0.00000,0.36797,1.21743,0.64235,-0.05944,0.00711,0.09560,-0.10586,0.04758,0.84470,-0.31901,-0.23309,-0.09727]
[0.00000,0.00000,0.00000,0.00817,0.00000,0.36918,1.21640,0.63895,-0.05241,0.00678,0.10592,-0.09090,-0.00210,0.87749,-0.36701,-0.19466,-0.06629]
[0.00000,0.00000,0.00000,0.00902,0.00000,0.36943,1.21568,0.63806,-0.04809,0.00744,0.11464,-0.07923,-0.04737,0.91154,-0.41710,-0.16897,-0.04490]
[0.00000,0.00000,0.00000,0.00841,0.00000,0.36660,1.21788,0.64254,-0.04956,0.00851,0.12345,-0.06386,-0.09256,0.94048,-0.46327,-0.14948,-0.04133]
[0.00000,0.00000,0.00000,0.00919,0.00000,0.36642,1.22031,0.64208,-0.05809,0.00266,0.13052,-0.04860,-0.12989,0.96104,-0.49829,-0.13313,-0.04273]
[0.00000,0.00000,0.00000,0.00853,0.00000,0.36629,1.22232,0.64266,-0.05986,0.00726,0.13756,-0.03522,-0.15842,0.97003,-0.52790,-0.11839,-0.03621]
[0.00000,0.00000,0.00000,0.00807,0.00000,0.36471,1.22252,0.64246,-0.05931,0.01108,0.14099,-0.02496,-0.18140,0.97512,-0.55973,-0.10688,-0.03045]
[0.00000,0.00000,0.00000,0.00835,0.00000,0.36509,1.22147,0.63662,-0.05681,0.00806,0.14309,-0.01747,-0.20138,0.98198,-0.58051,-0.10481,-0.03271]
[0.00000,0.00000,0.00000,0.00825,0.00000,0.36387,1.22193,0.63044,-0.05327,0.01014,0.14487,-0.01223,-0.21746,0.98139,-0.60226,-0.10427,-0.03220]
